(.../pcb-gcode-3.6.2.4/pcb-gcode.ulp)
(Copyright 2005 - 2012 by John Johnson)
(See readme.txt for licensing terms.)
(This file generated from the board:)
(.../main_board/rev_1/integration_board.brd)
(Current profile is .../pcb-gcode-3.6.2.4/profiles/mach.pp  )
(This file generated 4/18/2015 1:55:52 PM)
(Settings from pcb-machine.h)
(spindle on time = 3.0000)
(  Tool Size)
(0.1778  )
(spindle speed = 30000.0000)
(tool change at 0.0000  0.0000  25.4000 )
(feed rate xy = F508   )
(feed rate z  = F254   )
(Z Axis Settings)
(  High     Up        Down     Drill)
(12.7000 	2.5400  	-0.1778 	-0.8128 )
(Settings from pcb-defaults.h)
(isolate min = 0.0254)
(isolate max = 0.5080)
(isolate step = 0.1270)
(Generated top outlines, top drill, )
(Unit of measure: mm)
(Metric Mode)
G21
(Absolute Coordinates)
G90
S30000
G00 Z12.7000 
G00 X0.0000  Y0.0000  
M03
G04 P3.000000
G00 Z2.5400  
G00 X0.5737  Y3.6473  
G01 Z-0.1778 F254   
G01 X-16.1903 Y-13.1167 F508   
G01 X-16.3090 Y-13.1852 
G01 X-16.4414 Y-13.2207 
G01 X-53.6626 Y-13.2207 
G01 X-53.7950 Y-13.1852 
G01 X-53.9137 Y-13.1167 
G01 X-54.0107 Y-13.0197 
G01 X-61.3767 Y-5.6537 
G01 X-61.4452 Y-5.5350 
G01 X-61.4807 Y-5.4025 
G01 X-61.4807 Y-4.3975 
G01 X-61.5125 Y-4.3813 
G01 X-61.6467 Y-4.2838 
G01 X-61.7640 Y-4.1665 
G01 X-61.8615 Y-4.0323 
G01 X-61.9369 Y-3.8844 
G01 X-61.9881 Y-3.7266 
G01 X-62.0141 Y-3.5628 
G01 X-62.0141 Y-1.5172 
G01 X-61.9881 Y-1.3534 
G01 X-61.9369 Y-1.1956 
G01 X-61.8615 Y-1.0477 
G01 X-61.7640 Y-0.9135 
G01 X-61.6467 Y-0.7962 
G01 X-61.5125 Y-0.6987 
G01 X-61.4807 Y-0.6825 
G01 X-61.4807 Y2.8923  
G01 X-61.5125 Y2.9085  
G01 X-61.6467 Y3.0060  
G01 X-61.7640 Y3.1233  
G01 X-61.8615 Y3.2575  
G01 X-61.9369 Y3.4054  
G01 X-61.9881 Y3.5632  
G01 X-62.0141 Y3.7270  
G01 X-62.0141 Y3.8930  
G01 X-61.9881 Y4.0568  
G01 X-61.9369 Y4.2146  
G01 X-61.8615 Y4.3625  
G01 X-61.7640 Y4.4967  
G01 X-61.6467 Y4.6140  
G01 X-61.5125 Y4.7115  
G01 X-61.3646 Y4.7869  
G01 X-61.2068 Y4.8381  
G01 X-61.0430 Y4.8641  
G01 X-60.8770 Y4.8641  
G01 X-60.7132 Y4.8381  
G01 X-60.5554 Y4.7869  
G01 X-60.4075 Y4.7115  
G01 X-60.2733 Y4.6140  
G01 X-60.1560 Y4.4967  
G01 X-60.0585 Y4.3625  
G01 X-59.9831 Y4.2146  
G01 X-59.9319 Y4.0568  
G01 X-59.9059 Y3.8930  
G01 X-59.9059 Y3.7270  
G01 X-59.9319 Y3.5632  
G01 X-59.9831 Y3.4054  
G01 X-60.0585 Y3.2575  
G01 X-60.1560 Y3.1233  
G01 X-60.2733 Y3.0060  
G01 X-60.4075 Y2.9085  
G01 X-60.4393 Y2.8923  
G01 X-60.4393 Y-0.6825 
G01 X-60.4075 Y-0.6987 
G01 X-60.2733 Y-0.7962 
G01 X-60.1560 Y-0.9135 
G01 X-60.0585 Y-1.0477 
G01 X-59.9831 Y-1.1956 
G01 X-59.9319 Y-1.3534 
G01 X-59.9059 Y-1.5172 
G01 X-59.9059 Y-3.5628 
G01 X-59.9319 Y-3.7266 
G01 X-59.9831 Y-3.8844 
G01 X-60.0585 Y-4.0323 
G01 X-60.1560 Y-4.1665 
G01 X-60.2733 Y-4.2838 
G01 X-60.4075 Y-4.3813 
G01 X-60.4393 Y-4.3975 
G01 X-60.4393 Y-5.1183 
G01 X-53.3783 Y-12.1793 
G01 X-16.7257 Y-12.1793 
G01 X-0.2667 Y4.2797  
G01 X-0.2667 Y34.6125 
G01 X-0.2312 Y34.7450 
G01 X-0.1627 Y34.8637 
G01 X2.7559  Y37.7823 
G01 X2.7559  Y38.8495 
G01 X-1.0033 Y35.0903 
G01 X-1.0033 Y4.7574  
G01 X-1.0388 Y4.6250  
G01 X-1.1073 Y4.5063  
G01 X-1.2043 Y4.4093  
G01 X-16.6983 Y-11.0847 
G01 X-16.8170 Y-11.1532 
G01 X-16.9494 Y-11.1887 
G01 X-52.6465 Y-11.1887 
G01 X-52.7790 Y-11.1532 
G01 X-52.8977 Y-11.0847 
G01 X-52.9947 Y-10.9877 
G01 X-58.8367 Y-5.1457 
G01 X-58.9052 Y-5.0270 
G01 X-58.9407 Y-4.8945 
G01 X-58.9407 Y-4.3975 
G01 X-58.9725 Y-4.3813 
G01 X-59.1067 Y-4.2838 
G01 X-59.2240 Y-4.1665 
G01 X-59.3215 Y-4.0323 
G01 X-59.3969 Y-3.8844 
G01 X-59.4481 Y-3.7266 
G01 X-59.4741 Y-3.5628 
G01 X-59.4741 Y-1.5172 
G01 X-59.4481 Y-1.3534 
G01 X-59.3969 Y-1.1956 
G01 X-59.3215 Y-1.0477 
G01 X-59.2240 Y-0.9135 
G01 X-59.1067 Y-0.7962 
G01 X-58.9725 Y-0.6987 
G01 X-58.9407 Y-0.6825 
G01 X-58.9407 Y2.8923  
G01 X-58.9725 Y2.9085  
G01 X-59.1067 Y3.0060  
G01 X-59.2240 Y3.1233  
G01 X-59.3215 Y3.2575  
G01 X-59.3969 Y3.4054  
G01 X-59.4481 Y3.5632  
G01 X-59.4741 Y3.7270  
G01 X-59.4741 Y3.8930  
G01 X-59.4481 Y4.0568  
G01 X-59.3969 Y4.2146  
G01 X-59.3215 Y4.3625  
G01 X-59.2240 Y4.4967  
G01 X-59.1067 Y4.6140  
G01 X-58.9725 Y4.7115  
G01 X-58.8246 Y4.7869  
G01 X-58.6668 Y4.8381  
G01 X-58.5030 Y4.8641  
G01 X-58.3370 Y4.8641  
G01 X-58.1732 Y4.8381  
G01 X-58.0154 Y4.7869  
G01 X-57.8675 Y4.7115  
G01 X-57.7333 Y4.6140  
G01 X-57.6160 Y4.4967  
G01 X-57.5185 Y4.3625  
G01 X-57.4431 Y4.2146  
G01 X-57.3919 Y4.0568  
G01 X-57.3659 Y3.8930  
G01 X-57.3659 Y3.7270  
G01 X-57.3919 Y3.5632  
G01 X-57.4431 Y3.4054  
G01 X-57.5185 Y3.2575  
G01 X-57.6160 Y3.1233  
G01 X-57.7333 Y3.0060  
G01 X-57.8675 Y2.9085  
G01 X-57.8993 Y2.8923  
G01 X-57.8993 Y-0.6825 
G01 X-57.8675 Y-0.6987 
G01 X-57.7333 Y-0.7962 
G01 X-57.6160 Y-0.9135 
G01 X-57.5185 Y-1.0477 
G01 X-57.4431 Y-1.1956 
G01 X-57.3919 Y-1.3534 
G01 X-57.3659 Y-1.5172 
G01 X-57.3659 Y-3.5628 
G01 X-57.3919 Y-3.7266 
G01 X-57.4431 Y-3.8844 
G01 X-57.5185 Y-4.0323 
G01 X-57.6160 Y-4.1665 
G01 X-57.7333 Y-4.2838 
G01 X-57.8675 Y-4.3813 
G01 X-57.8993 Y-4.3975 
G01 X-57.8993 Y-4.6103 
G01 X-52.3623 Y-10.1473 
G01 X-17.2337 Y-10.1473 
G01 X-2.0447 Y5.0417  
G01 X-2.0447 Y35.3745 
G01 X-2.0092 Y35.5070 
G01 X-1.9407 Y35.6257 
G01 X2.7929  Y40.3593 
G01 X2.7819  Y40.3932 
G01 X2.7559  Y40.5570 
G01 X2.7559  Y40.7230 
G01 X2.7819  Y40.8868 
G01 X2.8331  Y41.0446 
G01 X2.9085  Y41.1925 
G01 X3.0060  Y41.3267 
G01 X3.1233  Y41.4440 
G01 X3.2575  Y41.5415 
G01 X3.4054  Y41.6169 
G01 X3.5632  Y41.6681 
G01 X3.7270  Y41.6941 
G01 X3.8930  Y41.6941 
G01 X4.0568  Y41.6681 
G01 X4.2146  Y41.6169 
G01 X4.3625  Y41.5415 
G01 X4.4967  Y41.4440 
G01 X4.6140  Y41.3267 
G01 X4.7115  Y41.1925 
G01 X4.7869  Y41.0446 
G01 X4.8381  Y40.8868 
G01 X4.8641  Y40.7230 
G01 X4.8641  Y40.5570 
G01 X4.8381  Y40.3932 
G01 X4.7869  Y40.2354 
G01 X4.7115  Y40.0875 
G01 X4.6140  Y39.9533 
G01 X4.4967  Y39.8360 
G01 X4.3625  Y39.7385 
G01 X4.2146  Y39.6631 
G01 X4.0568  Y39.6119 
G01 X3.8930  Y39.5859 
G01 X3.7270  Y39.5859 
G01 X3.5632  Y39.6119 
G01 X3.5293  Y39.6229 
G01 X3.0605  Y39.1541 
G01 X4.7725  Y39.1541 
G01 X4.8145  Y39.1367 
G01 X4.8467  Y39.1045 
G01 X4.8641  Y39.0625 
G01 X4.8641  Y37.1375 
G01 X4.8467  Y37.0955 
G01 X4.8145  Y37.0633 
G01 X4.7725  Y37.0459 
G01 X3.4923  Y37.0459 
G01 X0.7747  Y34.3283 
G01 X0.7747  Y3.9954  
G01 X0.7392  Y3.8630  
G01 X0.6707  Y3.7443  
G01 X0.5737  Y3.6473  
G00 Z2.5400  
G00 X3.0605  Y3.5941  
G01 Z-0.1778 F254   
G01 X4.7725  Y3.5941  F508   
G01 X4.8145  Y3.5767  
G01 X4.8467  Y3.5445  
G01 X4.8641  Y3.5025  
G01 X4.8641  Y1.5775  
G01 X4.8467  Y1.5355  
G01 X4.8145  Y1.5033  
G01 X4.7725  Y1.4859  
G01 X3.4923  Y1.4859  
G01 X-15.1743 Y-17.1807 
G01 X-15.2930 Y-17.2492 
G01 X-15.4254 Y-17.2847 
G01 X-55.6945 Y-17.2847 
G01 X-55.8270 Y-17.2492 
G01 X-55.9457 Y-17.1807 
G01 X-56.0427 Y-17.0837 
G01 X-66.4567 Y-6.6697 
G01 X-66.5252 Y-6.5510 
G01 X-66.5607 Y-6.4185 
G01 X-66.5607 Y-4.3975 
G01 X-66.5925 Y-4.3813 
G01 X-66.7267 Y-4.2838 
G01 X-66.8440 Y-4.1665 
G01 X-66.9415 Y-4.0323 
G01 X-67.0169 Y-3.8844 
G01 X-67.0681 Y-3.7266 
G01 X-67.0941 Y-3.5628 
G01 X-67.0941 Y-1.5172 
G01 X-67.0681 Y-1.3534 
G01 X-67.0169 Y-1.1956 
G01 X-66.9415 Y-1.0477 
G01 X-66.8440 Y-0.9135 
G01 X-66.7267 Y-0.7962 
G01 X-66.5925 Y-0.6987 
G01 X-66.5607 Y-0.6825 
G01 X-66.5607 Y2.8923  
G01 X-66.5925 Y2.9085  
G01 X-66.7267 Y3.0060  
G01 X-66.8440 Y3.1233  
G01 X-66.9415 Y3.2575  
G01 X-67.0169 Y3.4054  
G01 X-67.0681 Y3.5632  
G01 X-67.0941 Y3.7270  
G01 X-67.0941 Y3.8930  
G01 X-67.0681 Y4.0568  
G01 X-67.0169 Y4.2146  
G01 X-66.9415 Y4.3625  
G01 X-66.8440 Y4.4967  
G01 X-66.7267 Y4.6140  
G01 X-66.5925 Y4.7115  
G01 X-66.4446 Y4.7869  
G01 X-66.2868 Y4.8381  
G01 X-66.1230 Y4.8641  
G01 X-65.9570 Y4.8641  
G01 X-65.7932 Y4.8381  
G01 X-65.6354 Y4.7869  
G01 X-65.4875 Y4.7115  
G01 X-65.3533 Y4.6140  
G01 X-65.2360 Y4.4967  
G01 X-65.1385 Y4.3625  
G01 X-65.0631 Y4.2146  
G01 X-65.0119 Y4.0568  
G01 X-64.9859 Y3.8930  
G01 X-64.9859 Y3.7270  
G01 X-65.0119 Y3.5632  
G01 X-65.0631 Y3.4054  
G01 X-65.1385 Y3.2575  
G01 X-65.2360 Y3.1233  
G01 X-65.3533 Y3.0060  
G01 X-65.4875 Y2.9085  
G01 X-65.5193 Y2.8923  
G01 X-65.5193 Y-0.6825 
G01 X-65.4875 Y-0.6987 
G01 X-65.3533 Y-0.7962 
G01 X-65.2360 Y-0.9135 
G01 X-65.1385 Y-1.0477 
G01 X-65.0631 Y-1.1956 
G01 X-65.0119 Y-1.3534 
G01 X-64.9859 Y-1.5172 
G01 X-64.9859 Y-3.5628 
G01 X-65.0119 Y-3.7266 
G01 X-65.0631 Y-3.8844 
G01 X-65.1385 Y-4.0323 
G01 X-65.2360 Y-4.1665 
G01 X-65.3533 Y-4.2838 
G01 X-65.4875 Y-4.3813 
G01 X-65.5193 Y-4.3975 
G01 X-65.5193 Y-6.1343 
G01 X-55.4103 Y-16.2433 
G01 X-15.7097 Y-16.2433 
G01 X2.7559  Y2.2223  
G01 X2.7559  Y3.2895  
G01 X-15.6823 Y-15.1487 
G01 X-15.8010 Y-15.2172 
G01 X-15.9334 Y-15.2527 
G01 X-54.6786 Y-15.2527 
G01 X-54.8110 Y-15.2172 
G01 X-54.9297 Y-15.1487 
G01 X-55.0267 Y-15.0517 
G01 X-63.9167 Y-6.1617 
G01 X-63.9852 Y-6.0430 
G01 X-64.0207 Y-5.9105 
G01 X-64.0207 Y-4.3975 
G01 X-64.0525 Y-4.3813 
G01 X-64.1867 Y-4.2838 
G01 X-64.3040 Y-4.1665 
G01 X-64.4015 Y-4.0323 
G01 X-64.4769 Y-3.8844 
G01 X-64.5281 Y-3.7266 
G01 X-64.5541 Y-3.5628 
G01 X-64.5541 Y-1.5172 
G01 X-64.5281 Y-1.3534 
G01 X-64.4769 Y-1.1956 
G01 X-64.4015 Y-1.0477 
G01 X-64.3040 Y-0.9135 
G01 X-64.1867 Y-0.7962 
G01 X-64.0525 Y-0.6987 
G01 X-64.0207 Y-0.6825 
G01 X-64.0207 Y2.8923  
G01 X-64.0525 Y2.9085  
G01 X-64.1867 Y3.0060  
G01 X-64.3040 Y3.1233  
G01 X-64.4015 Y3.2575  
G01 X-64.4769 Y3.4054  
G01 X-64.5281 Y3.5632  
G01 X-64.5541 Y3.7270  
G01 X-64.5541 Y3.8930  
G01 X-64.5281 Y4.0568  
G01 X-64.4769 Y4.2146  
G01 X-64.4015 Y4.3625  
G01 X-64.3040 Y4.4967  
G01 X-64.1867 Y4.6140  
G01 X-64.0525 Y4.7115  
G01 X-63.9046 Y4.7869  
G01 X-63.7468 Y4.8381  
G01 X-63.5830 Y4.8641  
G01 X-63.4170 Y4.8641  
G01 X-63.2532 Y4.8381  
G01 X-63.0954 Y4.7869  
G01 X-62.9475 Y4.7115  
G01 X-62.8133 Y4.6140  
G01 X-62.6960 Y4.4967  
G01 X-62.5985 Y4.3625  
G01 X-62.5231 Y4.2146  
G01 X-62.4719 Y4.0568  
G01 X-62.4459 Y3.8930  
G01 X-62.4459 Y3.7270  
G01 X-62.4719 Y3.5632  
G01 X-62.5231 Y3.4054  
G01 X-62.5985 Y3.2575  
G01 X-62.6960 Y3.1233  
G01 X-62.8133 Y3.0060  
G01 X-62.9475 Y2.9085  
G01 X-62.9793 Y2.8923  
G01 X-62.9793 Y-0.6825 
G01 X-62.9475 Y-0.6987 
G01 X-62.8133 Y-0.7962 
G01 X-62.6960 Y-0.9135 
G01 X-62.5985 Y-1.0477 
G01 X-62.5231 Y-1.1956 
G01 X-62.4719 Y-1.3534 
G01 X-62.4459 Y-1.5172 
G01 X-62.4459 Y-3.5628 
G01 X-62.4719 Y-3.7266 
G01 X-62.5231 Y-3.8844 
G01 X-62.5985 Y-4.0323 
G01 X-62.6960 Y-4.1665 
G01 X-62.8133 Y-4.2838 
G01 X-62.9475 Y-4.3813 
G01 X-62.9793 Y-4.3975 
G01 X-62.9793 Y-5.6263 
G01 X-54.3943 Y-14.2113 
G01 X-16.2177 Y-14.2113 
G01 X2.7929  Y4.7993  
G01 X2.7819  Y4.8332  
G01 X2.7559  Y4.9970  
G01 X2.7559  Y5.1630  
G01 X2.7819  Y5.3268  
G01 X2.8331  Y5.4846  
G01 X2.9085  Y5.6325  
G01 X3.0060  Y5.7667  
G01 X3.1233  Y5.8840  
G01 X3.2575  Y5.9815  
G01 X3.4054  Y6.0569  
G01 X3.5632  Y6.1081  
G01 X3.7270  Y6.1341  
G01 X3.8930  Y6.1341  
G01 X4.0568  Y6.1081  
G01 X4.2146  Y6.0569  
G01 X4.3625  Y5.9815  
G01 X4.4967  Y5.8840  
G01 X4.6140  Y5.7667  
G01 X4.7115  Y5.6325  
G01 X4.7869  Y5.4846  
G01 X4.8381  Y5.3268  
G01 X4.8641  Y5.1630  
G01 X4.8641  Y4.9970  
G01 X4.8381  Y4.8332  
G01 X4.7869  Y4.6754  
G01 X4.7115  Y4.5275  
G01 X4.6140  Y4.3933  
G01 X4.4967  Y4.2760  
G01 X4.3625  Y4.1785  
G01 X4.2146  Y4.1031  
G01 X4.0568  Y4.0519  
G01 X3.8930  Y4.0259  
G01 X3.7270  Y4.0259  
G01 X3.5632  Y4.0519  
G01 X3.5293  Y4.0629  
G01 X3.0605  Y3.5941  
G00 Z2.5400  
G00 X3.1233  Y6.8160  
G01 Z-0.1778 F254   
G01 X3.0060  Y6.9333  F508   
G01 X2.9085  Y7.0675  
G01 X2.8331  Y7.2154  
G01 X2.7819  Y7.3732  
G01 X2.7559  Y7.5370  
G01 X2.7559  Y7.7030  
G01 X2.7819  Y7.8668  
G01 X2.8331  Y8.0246  
G01 X2.9085  Y8.1725  
G01 X3.0060  Y8.3067  
G01 X3.1233  Y8.4240  
G01 X3.2575  Y8.5215  
G01 X3.4054  Y8.5969  
G01 X3.5632  Y8.6481  
G01 X3.7270  Y8.6741  
G01 X3.8930  Y8.6741  
G01 X4.0568  Y8.6481  
G01 X4.0907  Y8.6371  
G01 X7.3533  Y11.8997 
G01 X7.3533  Y41.4403 
G01 X4.0907  Y44.7029 
G01 X4.0568  Y44.6919 
G01 X3.8930  Y44.6659 
G01 X3.7270  Y44.6659 
G01 X3.5632  Y44.6919 
G01 X3.4054  Y44.7431 
G01 X3.2575  Y44.8185 
G01 X3.1233  Y44.9160 
G01 X3.0060  Y45.0333 
G01 X2.9085  Y45.1675 
G01 X2.8331  Y45.3154 
G01 X2.7819  Y45.4732 
G01 X2.7559  Y45.6370 
G01 X2.7559  Y45.8030 
G01 X2.7819  Y45.9668 
G01 X2.7929  Y46.0007 
G01 X0.0383  Y48.7553 
G01 X-23.9143 Y48.7553 
G01 X-32.9543 Y39.7153 
G01 X-33.0730 Y39.6468 
G01 X-33.2054 Y39.6113 
G01 X-63.5686 Y39.6113 
G01 X-63.7010 Y39.6468 
G01 X-63.8197 Y39.7153 
G01 X-63.9167 Y39.8123 
G01 X-68.9967 Y44.8923 
G01 X-69.0652 Y45.0110 
G01 X-69.1007 Y45.1434 
G01 X-69.1007 Y61.7093 
G01 X-78.2193 Y61.7093 
G01 X-78.2193 Y60.2775 
G01 X-78.1875 Y60.2613 
G01 X-78.0533 Y60.1638 
G01 X-77.9360 Y60.0465 
G01 X-77.8385 Y59.9123 
G01 X-77.7631 Y59.7644 
G01 X-77.7119 Y59.6066 
G01 X-77.6859 Y59.4428 
G01 X-77.6859 Y57.3972 
G01 X-77.7119 Y57.2334 
G01 X-77.7631 Y57.0756 
G01 X-77.8385 Y56.9277 
G01 X-77.9360 Y56.7935 
G01 X-78.0533 Y56.6762 
G01 X-78.1875 Y56.5787 
G01 X-78.2193 Y56.5625 
G01 X-78.2193 Y52.9877 
G01 X-78.1875 Y52.9715 
G01 X-78.0533 Y52.8740 
G01 X-77.9360 Y52.7567 
G01 X-77.8385 Y52.6225 
G01 X-77.7631 Y52.4746 
G01 X-77.7119 Y52.3168 
G01 X-77.6859 Y52.1530 
G01 X-77.6859 Y51.9870 
G01 X-77.7119 Y51.8232 
G01 X-77.7631 Y51.6654 
G01 X-77.8385 Y51.5175 
G01 X-77.9360 Y51.3833 
G01 X-78.0533 Y51.2660 
G01 X-78.1875 Y51.1685 
G01 X-78.3354 Y51.0931 
G01 X-78.4932 Y51.0419 
G01 X-78.6570 Y51.0159 
G01 X-78.8230 Y51.0159 
G01 X-78.9868 Y51.0419 
G01 X-79.1446 Y51.0931 
G01 X-79.2925 Y51.1685 
G01 X-79.4267 Y51.2660 
G01 X-79.5440 Y51.3833 
G01 X-79.6415 Y51.5175 
G01 X-79.7169 Y51.6654 
G01 X-79.7681 Y51.8232 
G01 X-79.7941 Y51.9870 
G01 X-79.7941 Y52.1530 
G01 X-79.7681 Y52.3168 
G01 X-79.7169 Y52.4746 
G01 X-79.6415 Y52.6225 
G01 X-79.5440 Y52.7567 
G01 X-79.4267 Y52.8740 
G01 X-79.2925 Y52.9715 
G01 X-79.2607 Y52.9877 
G01 X-79.2607 Y56.5625 
G01 X-79.2925 Y56.5787 
G01 X-79.4267 Y56.6762 
G01 X-79.5440 Y56.7935 
G01 X-79.6415 Y56.9277 
G01 X-79.7169 Y57.0756 
G01 X-79.7681 Y57.2334 
G01 X-79.7941 Y57.3972 
G01 X-79.7941 Y59.4428 
G01 X-79.7681 Y59.6066 
G01 X-79.7169 Y59.7644 
G01 X-79.6415 Y59.9123 
G01 X-79.5440 Y60.0465 
G01 X-79.4267 Y60.1638 
G01 X-79.2925 Y60.2613 
G01 X-79.2607 Y60.2775 
G01 X-79.2607 Y62.0143 
G01 X-91.4273 Y74.1809 
G01 X-91.4273 Y72.8520 
G01 X-90.8939 Y72.3186 
G01 X-90.8939 Y71.4454 
G01 X-91.4273 Y70.9120 
G01 X-91.4273 Y70.3120 
G01 X-90.8939 Y69.7786 
G01 X-90.8939 Y68.9054 
G01 X-91.4273 Y68.3720 
G01 X-91.4273 Y67.7720 
G01 X-90.8939 Y67.2386 
G01 X-90.8939 Y66.3654 
G01 X-91.4273 Y65.8320 
G01 X-91.4273 Y65.2320 
G01 X-90.8939 Y64.6986 
G01 X-90.8939 Y63.8254 
G01 X-91.5114 Y63.2079 
G01 X-92.3846 Y63.2079 
G01 X-93.0021 Y63.8254 
G01 X-93.0021 Y64.6986 
G01 X-92.4687 Y65.2320 
G01 X-92.4687 Y65.8320 
G01 X-93.0021 Y66.3654 
G01 X-93.0021 Y67.2386 
G01 X-92.4687 Y67.7720 
G01 X-92.4687 Y68.3720 
G01 X-93.0021 Y68.9054 
G01 X-93.0021 Y69.7786 
G01 X-92.4687 Y70.3120 
G01 X-92.4687 Y70.9120 
G01 X-93.0021 Y71.4454 
G01 X-93.0021 Y72.3186 
G01 X-92.4687 Y72.8520 
G01 X-92.4687 Y75.2223 
G01 X-102.8317 Y85.5853 
G01 X-109.0171 Y85.5853 
G01 X-109.0176 Y85.5815 
G01 X-109.0947 Y85.2937 
G01 X-109.2088 Y85.0184 
G01 X-109.3578 Y84.7603 
G01 X-109.5392 Y84.5239 
G01 X-109.7499 Y84.3132 
G01 X-109.9863 Y84.1318 
G01 X-110.2444 Y83.9828 
G01 X-110.5197 Y83.8687 
G01 X-110.8075 Y83.7916 
G01 X-111.1030 Y83.7527 
G01 X-111.4010 Y83.7527 
G01 X-111.6964 Y83.7916 
G01 X-111.9843 Y83.8687 
G01 X-112.2596 Y83.9828 
G01 X-112.5177 Y84.1318 
G01 X-112.7541 Y84.3132 
G01 X-112.9648 Y84.5239 
G01 X-113.1462 Y84.7603 
G01 X-113.2952 Y85.0184 
G01 X-113.4093 Y85.2937 
G01 X-113.4864 Y85.5815 
G01 X-113.5253 Y85.8770 
G01 X-113.5253 Y86.1750 
G01 X-113.4864 Y86.4704 
G01 X-113.4093 Y86.7583 
G01 X-113.2952 Y87.0336 
G01 X-113.1462 Y87.2917 
G01 X-112.9648 Y87.5281 
G01 X-112.7541 Y87.7388 
G01 X-112.5177 Y87.9202 
G01 X-112.2596 Y88.0692 
G01 X-111.9843 Y88.1833 
G01 X-111.6964 Y88.2604 
G01 X-111.4010 Y88.2993 
G01 X-111.1030 Y88.2993 
G01 X-110.8075 Y88.2604 
G01 X-110.5197 Y88.1833 
G01 X-110.2444 Y88.0692 
G01 X-109.9863 Y87.9202 
G01 X-109.7499 Y87.7388 
G01 X-109.5392 Y87.5281 
G01 X-109.3578 Y87.2917 
G01 X-109.3432 Y87.2665 
G01 X-109.3154 Y87.2303 
G01 X-109.1831 Y87.0010 
G01 X-109.0818 Y86.7565 
G01 X-109.0470 Y86.6267 
G01 X-68.0034 Y86.6267 
G01 X-67.8710 Y86.5912 
G01 X-67.7523 Y86.5227 
G01 X-64.4696 Y83.2400 
G01 X-64.4310 Y83.2461 
G01 X-64.2650 Y83.2461 
G01 X-64.1012 Y83.2201 
G01 X-63.9434 Y83.1689 
G01 X-63.7955 Y83.0935 
G01 X-63.6613 Y82.9960 
G01 X-63.5440 Y82.8787 
G01 X-63.4465 Y82.7445 
G01 X-63.3711 Y82.5966 
G01 X-63.3199 Y82.4388 
G01 X-63.2939 Y82.2750 
G01 X-63.2939 Y82.1090 
G01 X-63.3199 Y81.9452 
G01 X-63.3711 Y81.7874 
G01 X-63.4465 Y81.6395 
G01 X-63.5440 Y81.5053 
G01 X-63.6613 Y81.3880 
G01 X-63.7955 Y81.2905 
G01 X-63.9434 Y81.2151 
G01 X-64.1012 Y81.1639 
G01 X-64.2650 Y81.1379 
G01 X-64.4310 Y81.1379 
G01 X-64.5948 Y81.1639 
G01 X-64.7526 Y81.2151 
G01 X-64.9005 Y81.2905 
G01 X-65.0347 Y81.3880 
G01 X-65.1520 Y81.5053 
G01 X-65.2495 Y81.6395 
G01 X-65.3249 Y81.7874 
G01 X-65.3761 Y81.9452 
G01 X-65.4021 Y82.1090 
G01 X-65.4021 Y82.2750 
G01 X-65.3761 Y82.4388 
G01 X-65.3249 Y82.5966 
G01 X-65.3161 Y82.6138 
G01 X-68.2877 Y85.5853 
G01 X-101.3589 Y85.5853 
G01 X-91.6283 Y75.8547 
G01 X-91.5313 Y75.7577 
G01 X-78.5243 Y62.7507 
G01 X-68.5114 Y62.7507 
G01 X-68.3790 Y62.7152 
G01 X-68.2603 Y62.6467 
G01 X-68.1633 Y62.5497 
G01 X-68.0948 Y62.4310 
G01 X-68.0593 Y62.2985 
G01 X-68.0593 Y45.4277 
G01 X-63.2843 Y40.6527 
G01 X-33.4897 Y40.6527 
G01 X-24.5467 Y49.5957 
G01 X-24.4497 Y49.6927 
G01 X-24.3310 Y49.7612 
G01 X-24.1986 Y49.7967 
G01 X-11.6457 Y49.7967 
G01 X2.6313  Y64.0737 
G01 X3.2363  Y64.6787 
G01 X3.2893  Y64.7317 
G01 X3.2893  Y80.8103 
G01 X-0.2157 Y84.3153 
G01 X-9.6903 Y84.3153 
G01 X-11.5832 Y82.4224 
G01 X-11.5599 Y82.2750 
G01 X-11.5599 Y82.1090 
G01 X-11.5859 Y81.9452 
G01 X-11.6371 Y81.7874 
G01 X-11.7125 Y81.6395 
G01 X-11.8100 Y81.5053 
G01 X-11.9273 Y81.3880 
G01 X-12.0615 Y81.2905 
G01 X-12.2094 Y81.2151 
G01 X-12.3672 Y81.1639 
G01 X-12.5310 Y81.1379 
G01 X-12.6970 Y81.1379 
G01 X-12.8608 Y81.1639 
G01 X-13.0186 Y81.2151 
G01 X-13.1665 Y81.2905 
G01 X-13.3007 Y81.3880 
G01 X-13.4180 Y81.5053 
G01 X-13.5155 Y81.6395 
G01 X-13.5909 Y81.7874 
G01 X-13.6421 Y81.9452 
G01 X-13.6681 Y82.1090 
G01 X-13.6681 Y82.2750 
G01 X-13.6421 Y82.4388 
G01 X-13.5909 Y82.5966 
G01 X-13.5155 Y82.7445 
G01 X-13.4180 Y82.8787 
G01 X-13.3007 Y82.9960 
G01 X-13.1665 Y83.0935 
G01 X-13.0186 Y83.1689 
G01 X-12.8608 Y83.2201 
G01 X-12.6970 Y83.2461 
G01 X-12.5310 Y83.2461 
G01 X-12.3672 Y83.2201 
G01 X-12.2850 Y83.1934 
G01 X-10.2257 Y85.2527 
G01 X-10.1070 Y85.3212 
G01 X-9.9746 Y85.3567 
G01 X0.0685  Y85.3567 
G01 X0.2010  Y85.3212 
G01 X0.3197  Y85.2527 
G01 X4.1297  Y81.4427 
G01 X4.2267  Y81.3457 
G01 X4.2952  Y81.2270 
G01 X4.3307  Y81.0945 
G01 X4.3307  Y64.4474 
G01 X4.2952  Y64.3150 
G01 X4.2267  Y64.1963 
G01 X3.9727  Y63.9423 
G01 X3.3677  Y63.3373 
G01 X-10.1729 Y49.7967 
G01 X0.3226  Y49.7967 
G01 X0.4550  Y49.7612 
G01 X0.5737  Y49.6927 
G01 X3.5293  Y46.7371 
G01 X3.5632  Y46.7481 
G01 X3.7270  Y46.7741 
G01 X3.8930  Y46.7741 
G01 X4.0568  Y46.7481 
G01 X4.2146  Y46.6969 
G01 X4.3625  Y46.6215 
G01 X4.4967  Y46.5240 
G01 X4.6140  Y46.4067 
G01 X4.7115  Y46.2725 
G01 X4.7869  Y46.1246 
G01 X4.8381  Y45.9668 
G01 X4.8641  Y45.8030 
G01 X4.8641  Y45.6370 
G01 X4.8381  Y45.4732 
G01 X4.8271  Y45.4393 
G01 X8.1937  Y42.0727 
G01 X8.2907  Y41.9757 
G01 X8.3592  Y41.8570 
G01 X8.3947  Y41.7246 
G01 X8.3947  Y-22.1666 
G01 X8.3592  Y-22.2990 
G01 X8.2907  Y-22.4177 
G01 X-5.4253 Y-36.1337 
G01 X-5.5223 Y-36.2307 
G01 X-5.6410 Y-36.2992 
G01 X-5.7734 Y-36.3347 
G01 X-187.0126 Y-36.3347 
G01 X-187.1450 Y-36.2992 
G01 X-187.2637 Y-36.2307 
G01 X-190.9443 Y-32.5501 
G01 X-192.2245 Y-32.5501 
G01 X-192.2665 Y-32.5327 
G01 X-192.2987 Y-32.5005 
G01 X-192.3161 Y-32.4585 
G01 X-192.3161 Y-31.1783 
G01 X-195.7427 Y-27.7517 
G01 X-195.8112 Y-27.6330 
G01 X-195.8467 Y-27.5006 
G01 X-195.8467 Y-11.8694 
G01 X-195.8112 Y-11.7370 
G01 X-195.7427 Y-11.6183 
G01 X-195.6457 Y-11.5213 
G01 X-192.2791 Y-8.1547 
G01 X-192.2901 Y-8.1208 
G01 X-192.3161 Y-7.9570 
G01 X-192.3161 Y-7.7910 
G01 X-192.2901 Y-7.6272 
G01 X-192.2389 Y-7.4694 
G01 X-192.1635 Y-7.3215 
G01 X-192.0660 Y-7.1873 
G01 X-191.9487 Y-7.0700 
G01 X-191.8145 Y-6.9725 
G01 X-191.6666 Y-6.8971 
G01 X-191.5088 Y-6.8459 
G01 X-191.3450 Y-6.8199 
G01 X-191.1790 Y-6.8199 
G01 X-191.0152 Y-6.8459 
G01 X-190.8574 Y-6.8971 
G01 X-190.7095 Y-6.9725 
G01 X-190.5753 Y-7.0700 
G01 X-190.4580 Y-7.1873 
G01 X-190.3605 Y-7.3215 
G01 X-190.2851 Y-7.4694 
G01 X-190.2339 Y-7.6272 
G01 X-190.2079 Y-7.7910 
G01 X-190.2079 Y-7.9570 
G01 X-190.2339 Y-8.1208 
G01 X-190.2851 Y-8.2786 
G01 X-190.3605 Y-8.4265 
G01 X-190.4580 Y-8.5607 
G01 X-190.5753 Y-8.6780 
G01 X-190.7095 Y-8.7755 
G01 X-190.8574 Y-8.8509 
G01 X-191.0152 Y-8.9021 
G01 X-191.1790 Y-8.9281 
G01 X-191.3450 Y-8.9281 
G01 X-191.5088 Y-8.9021 
G01 X-191.5427 Y-8.8911 
G01 X-194.8053 Y-12.1537 
G01 X-194.8053 Y-27.2163 
G01 X-191.5797 Y-30.4419 
G01 X-190.2995 Y-30.4419 
G01 X-190.2575 Y-30.4593 
G01 X-190.2253 Y-30.4915 
G01 X-190.2079 Y-30.5335 
G01 X-190.2079 Y-31.8137 
G01 X-186.7283 Y-35.2933 
G01 X-6.0577 Y-35.2933 
G01 X7.3533  Y-21.8823 
G01 X7.3533  Y10.4269 
G01 X4.8271  Y7.9007  
G01 X4.8381  Y7.8668  
G01 X4.8641  Y7.7030  
G01 X4.8641  Y7.5370  
G01 X4.8381  Y7.3732  
G01 X4.7869  Y7.2154  
G01 X4.7115  Y7.0675  
G01 X4.6140  Y6.9333  
G01 X4.4967  Y6.8160  
G01 X4.3625  Y6.7185  
G01 X4.2146  Y6.6431  
G01 X4.0568  Y6.5919  
G01 X3.8930  Y6.5659  
G01 X3.7270  Y6.5659  
G01 X3.5632  Y6.5919  
G01 X3.4054  Y6.6431  
G01 X3.2575  Y6.7185  
G01 X3.1233  Y6.8160  
G00 Z2.5400  
G00 X3.1233  Y9.3560  
G01 Z-0.1778 F254   
G01 X3.0060  Y9.4733  F508   
G01 X2.9085  Y9.6075  
G01 X2.8331  Y9.7554  
G01 X2.7819  Y9.9132  
G01 X2.7559  Y10.0770 
G01 X2.7559  Y10.2430 
G01 X2.7819  Y10.4068 
G01 X2.8331  Y10.5646 
G01 X2.9085  Y10.7125 
G01 X3.0060  Y10.8467 
G01 X3.1233  Y10.9640 
G01 X3.2575  Y11.0615 
G01 X3.4054  Y11.1369 
G01 X3.5632  Y11.1881 
G01 X3.7270  Y11.2141 
G01 X3.8930  Y11.2141 
G01 X4.0568  Y11.1881 
G01 X4.0907  Y11.1771 
G01 X5.5753  Y12.6617 
G01 X5.5753  Y40.6783 
G01 X4.0907  Y42.1629 
G01 X4.0568  Y42.1519 
G01 X3.8930  Y42.1259 
G01 X3.7270  Y42.1259 
G01 X3.5632  Y42.1519 
G01 X3.4054  Y42.2031 
G01 X3.2575  Y42.2785 
G01 X3.1233  Y42.3760 
G01 X3.0060  Y42.4933 
G01 X2.9085  Y42.6275 
G01 X2.8331  Y42.7754 
G01 X2.7819  Y42.9332 
G01 X2.7559  Y43.0970 
G01 X2.7559  Y43.2630 
G01 X2.7819  Y43.4268 
G01 X2.7929  Y43.4607 
G01 X-0.2157 Y46.4693 
G01 X-9.5725 Y46.4693 
G01 X-9.5887 Y46.4375 
G01 X-9.6862 Y46.3033 
G01 X-9.8035 Y46.1860 
G01 X-9.9377 Y46.0885 
G01 X-10.0856 Y46.0131 
G01 X-10.2434 Y45.9619 
G01 X-10.4072 Y45.9359 
G01 X-12.4528 Y45.9359 
G01 X-12.6166 Y45.9619 
G01 X-12.7744 Y46.0131 
G01 X-12.9223 Y46.0885 
G01 X-13.0565 Y46.1860 
G01 X-13.1738 Y46.3033 
G01 X-13.2713 Y46.4375 
G01 X-13.2875 Y46.4693 
G01 X-19.4023 Y46.4693 
G01 X-19.4185 Y46.4375 
G01 X-19.5160 Y46.3033 
G01 X-19.6333 Y46.1860 
G01 X-19.7675 Y46.0885 
G01 X-19.9154 Y46.0131 
G01 X-20.0732 Y45.9619 
G01 X-20.2370 Y45.9359 
G01 X-20.4030 Y45.9359 
G01 X-20.5668 Y45.9619 
G01 X-20.7246 Y46.0131 
G01 X-20.8725 Y46.0885 
G01 X-21.0067 Y46.1860 
G01 X-21.1240 Y46.3033 
G01 X-21.2215 Y46.4375 
G01 X-21.2377 Y46.4693 
G01 X-21.9423 Y46.4693 
G01 X-21.9585 Y46.4375 
G01 X-22.0560 Y46.3033 
G01 X-22.1733 Y46.1860 
G01 X-22.3075 Y46.0885 
G01 X-22.4554 Y46.0131 
G01 X-22.6132 Y45.9619 
G01 X-22.7770 Y45.9359 
G01 X-22.9430 Y45.9359 
G01 X-23.1068 Y45.9619 
G01 X-23.2646 Y46.0131 
G01 X-23.4125 Y46.0885 
G01 X-23.5467 Y46.1860 
G01 X-23.6640 Y46.3033 
G01 X-23.7615 Y46.4375 
G01 X-23.8369 Y46.5854 
G01 X-23.8881 Y46.7432 
G01 X-23.9141 Y46.9070 
G01 X-23.9141 Y47.0730 
G01 X-23.8881 Y47.2368 
G01 X-23.8369 Y47.3946 
G01 X-23.7615 Y47.5425 
G01 X-23.6640 Y47.6767 
G01 X-23.5467 Y47.7940 
G01 X-23.4125 Y47.8915 
G01 X-23.2646 Y47.9669 
G01 X-23.1068 Y48.0181 
G01 X-22.9430 Y48.0441 
G01 X-22.7770 Y48.0441 
G01 X-22.6132 Y48.0181 
G01 X-22.4554 Y47.9669 
G01 X-22.3075 Y47.8915 
G01 X-22.1733 Y47.7940 
G01 X-22.0560 Y47.6767 
G01 X-21.9585 Y47.5425 
G01 X-21.9423 Y47.5107 
G01 X-21.2377 Y47.5107 
G01 X-21.2215 Y47.5425 
G01 X-21.1240 Y47.6767 
G01 X-21.0067 Y47.7940 
G01 X-20.8725 Y47.8915 
G01 X-20.7246 Y47.9669 
G01 X-20.5668 Y48.0181 
G01 X-20.4030 Y48.0441 
G01 X-20.2370 Y48.0441 
G01 X-20.0732 Y48.0181 
G01 X-19.9154 Y47.9669 
G01 X-19.7675 Y47.8915 
G01 X-19.6333 Y47.7940 
G01 X-19.5160 Y47.6767 
G01 X-19.4185 Y47.5425 
G01 X-19.4023 Y47.5107 
G01 X-13.2875 Y47.5107 
G01 X-13.2713 Y47.5425 
G01 X-13.1738 Y47.6767 
G01 X-13.0565 Y47.7940 
G01 X-12.9223 Y47.8915 
G01 X-12.7744 Y47.9669 
G01 X-12.6166 Y48.0181 
G01 X-12.4528 Y48.0441 
G01 X-10.4072 Y48.0441 
G01 X-10.2434 Y48.0181 
G01 X-10.0856 Y47.9669 
G01 X-9.9377 Y47.8915 
G01 X-9.8035 Y47.7940 
G01 X-9.6862 Y47.6767 
G01 X-9.5887 Y47.5425 
G01 X-9.5725 Y47.5107 
G01 X0.0685  Y47.5107 
G01 X0.2010  Y47.4752 
G01 X0.3197  Y47.4067 
G01 X3.5293  Y44.1971 
G01 X3.5632  Y44.2081 
G01 X3.7270  Y44.2341 
G01 X3.8930  Y44.2341 
G01 X4.0568  Y44.2081 
G01 X4.2146  Y44.1569 
G01 X4.3625  Y44.0815 
G01 X4.4967  Y43.9840 
G01 X4.6140  Y43.8667 
G01 X4.7115  Y43.7325 
G01 X4.7869  Y43.5846 
G01 X4.8381  Y43.4268 
G01 X4.8641  Y43.2630 
G01 X4.8641  Y43.0970 
G01 X4.8381  Y42.9332 
G01 X4.8271  Y42.8993 
G01 X6.4157  Y41.3107 
G01 X6.5127  Y41.2137 
G01 X6.5812  Y41.0950 
G01 X6.6167  Y40.9626 
G01 X6.6167  Y12.3774 
G01 X6.5812  Y12.2450 
G01 X6.5127  Y12.1263 
G01 X4.8271  Y10.4407 
G01 X4.8381  Y10.4068 
G01 X4.8641  Y10.2430 
G01 X4.8641  Y10.0770 
G01 X4.8381  Y9.9132  
G01 X4.7869  Y9.7554  
G01 X4.7115  Y9.6075  
G01 X4.6140  Y9.4733  
G01 X4.4967  Y9.3560  
G01 X4.3625  Y9.2585  
G01 X4.2146  Y9.1831  
G01 X4.0568  Y9.1319  
G01 X3.8930  Y9.1059  
G01 X3.7270  Y9.1059  
G01 X3.5632  Y9.1319  
G01 X3.4054  Y9.1831  
G01 X3.2575  Y9.2585  
G01 X3.1233  Y9.3560  
G00 Z2.5400  
G00 X-9.5133 Y9.2946  
G01 Z-0.1778 F254   
G01 X-9.4621 Y9.1368  F508   
G01 X-9.4361 Y8.9730  
G01 X-9.4361 Y8.8070  
G01 X-9.4621 Y8.6432  
G01 X-9.5133 Y8.4854  
G01 X-9.5887 Y8.3375  
G01 X-9.6862 Y8.2033  
G01 X-9.8035 Y8.0860  
G01 X-9.9377 Y7.9885  
G01 X-10.0856 Y7.9131  
G01 X-10.2434 Y7.8619  
G01 X-10.4072 Y7.8359  
G01 X-12.4528 Y7.8359  
G01 X-12.6166 Y7.8619  
G01 X-12.7744 Y7.9131  
G01 X-12.9223 Y7.9885  
G01 X-13.0565 Y8.0860  
G01 X-13.1738 Y8.2033  
G01 X-13.2713 Y8.3375  
G01 X-13.2875 Y8.3693  
G01 X-19.3500 Y8.3693  
G01 X-19.8834 Y7.8359  
G01 X-20.7566 Y7.8359  
G01 X-21.2900 Y8.3693  
G01 X-21.8900 Y8.3693  
G01 X-22.4234 Y7.8359  
G01 X-23.2966 Y7.8359  
G01 X-23.9141 Y8.4534  
G01 X-23.9141 Y9.2077  
G01 X-38.5697 Y23.8633 
G01 X-115.3846 Y23.8633 
G01 X-115.5170 Y23.8988 
G01 X-115.6357 Y23.9673 
G01 X-120.1153 Y28.4469 
G01 X-120.1492 Y28.4359 
G01 X-120.3130 Y28.4099 
G01 X-120.4790 Y28.4099 
G01 X-120.6428 Y28.4359 
G01 X-120.8006 Y28.4871 
G01 X-120.9485 Y28.5625 
G01 X-121.0827 Y28.6600 
G01 X-121.2000 Y28.7773 
G01 X-121.2975 Y28.9115 
G01 X-121.3729 Y29.0594 
G01 X-121.4241 Y29.2172 
G01 X-121.4501 Y29.3810 
G01 X-121.4501 Y29.5470 
G01 X-121.4241 Y29.7108 
G01 X-121.3729 Y29.8686 
G01 X-121.2975 Y30.0165 
G01 X-121.2000 Y30.1507 
G01 X-121.0827 Y30.2680 
G01 X-120.9485 Y30.3655 
G01 X-120.8006 Y30.4409 
G01 X-120.6428 Y30.4921 
G01 X-120.4790 Y30.5181 
G01 X-120.3130 Y30.5181 
G01 X-120.1492 Y30.4921 
G01 X-119.9914 Y30.4409 
G01 X-119.8435 Y30.3655 
G01 X-119.7093 Y30.2680 
G01 X-119.5920 Y30.1507 
G01 X-119.4945 Y30.0165 
G01 X-119.4191 Y29.8686 
G01 X-119.3679 Y29.7108 
G01 X-119.3419 Y29.5470 
G01 X-119.3419 Y29.3810 
G01 X-119.3679 Y29.2172 
G01 X-119.3789 Y29.1833 
G01 X-115.1003 Y24.9047 
G01 X-38.2854 Y24.9047 
G01 X-38.1530 Y24.8692 
G01 X-38.0343 Y24.8007 
G01 X-37.9373 Y24.7037 
G01 X-23.1777 Y9.9441  
G01 X-22.4234 Y9.9441  
G01 X-21.8900 Y9.4107  
G01 X-21.2900 Y9.4107  
G01 X-20.7566 Y9.9441  
G01 X-19.8834 Y9.9441  
G01 X-19.3500 Y9.4107  
G01 X-13.2875 Y9.4107  
G01 X-13.2713 Y9.4425  
G01 X-13.1738 Y9.5767  
G01 X-13.0565 Y9.6940  
G01 X-12.9223 Y9.7915  
G01 X-12.7744 Y9.8669  
G01 X-12.6166 Y9.9181  
G01 X-12.4528 Y9.9441  
G01 X-10.4072 Y9.9441  
G01 X-10.2434 Y9.9181  
G01 X-10.0856 Y9.8669  
G01 X-9.9377 Y9.7915  
G01 X-9.8035 Y9.6940  
G01 X-9.6862 Y9.5767  
G01 X-9.5887 Y9.4425  
G01 X-9.5133 Y9.2946  
G00 Z2.5400  
G00 X-9.8035 Y10.6260 
G01 Z-0.1778 F254   
G01 X-9.9377 Y10.5285 F508   
G01 X-10.0856 Y10.4531 
G01 X-10.2434 Y10.4019 
G01 X-10.4072 Y10.3759 
G01 X-12.4528 Y10.3759 
G01 X-12.6166 Y10.4019 
G01 X-12.7744 Y10.4531 
G01 X-12.9223 Y10.5285 
G01 X-13.0565 Y10.6260 
G01 X-13.1738 Y10.7433 
G01 X-13.2713 Y10.8775 
G01 X-13.2875 Y10.9093 
G01 X-19.3500 Y10.9093 
G01 X-19.8834 Y10.3759 
G01 X-20.7566 Y10.3759 
G01 X-21.2900 Y10.9093 
G01 X-21.8900 Y10.9093 
G01 X-22.4234 Y10.3759 
G01 X-23.2966 Y10.3759 
G01 X-23.9141 Y10.9934 
G01 X-23.9141 Y11.7477 
G01 X-37.8077 Y25.6413 
G01 X-112.0825 Y25.6413 
G01 X-112.2150 Y25.6768 
G01 X-112.3337 Y25.7453 
G01 X-120.1153 Y33.5269 
G01 X-120.1492 Y33.5159 
G01 X-120.3130 Y33.4899 
G01 X-120.4790 Y33.4899 
G01 X-120.6428 Y33.5159 
G01 X-120.8006 Y33.5671 
G01 X-120.9485 Y33.6425 
G01 X-121.0827 Y33.7400 
G01 X-121.2000 Y33.8573 
G01 X-121.2975 Y33.9915 
G01 X-121.3729 Y34.1394 
G01 X-121.4241 Y34.2972 
G01 X-121.4501 Y34.4610 
G01 X-121.4501 Y34.6270 
G01 X-121.4241 Y34.7908 
G01 X-121.3729 Y34.9486 
G01 X-121.2975 Y35.0965 
G01 X-121.2000 Y35.2307 
G01 X-121.0827 Y35.3480 
G01 X-120.9485 Y35.4455 
G01 X-120.8006 Y35.5209 
G01 X-120.6428 Y35.5721 
G01 X-120.4790 Y35.5981 
G01 X-120.3130 Y35.5981 
G01 X-120.1492 Y35.5721 
G01 X-119.9914 Y35.5209 
G01 X-119.8435 Y35.4455 
G01 X-119.7093 Y35.3480 
G01 X-119.5920 Y35.2307 
G01 X-119.4945 Y35.0965 
G01 X-119.4191 Y34.9486 
G01 X-119.3679 Y34.7908 
G01 X-119.3419 Y34.6270 
G01 X-119.3419 Y34.4610 
G01 X-119.3679 Y34.2972 
G01 X-119.3789 Y34.2633 
G01 X-111.7983 Y26.6827 
G01 X-37.5234 Y26.6827 
G01 X-37.3910 Y26.6472 
G01 X-37.2723 Y26.5787 
G01 X-37.1753 Y26.4817 
G01 X-23.1777 Y12.4841 
G01 X-22.4234 Y12.4841 
G01 X-21.8900 Y11.9507 
G01 X-21.2900 Y11.9507 
G01 X-20.7566 Y12.4841 
G01 X-19.8834 Y12.4841 
G01 X-19.3500 Y11.9507 
G01 X-13.2875 Y11.9507 
G01 X-13.2713 Y11.9825 
G01 X-13.1738 Y12.1167 
G01 X-13.0565 Y12.2340 
G01 X-12.9223 Y12.3315 
G01 X-12.7744 Y12.4069 
G01 X-12.6166 Y12.4581 
G01 X-12.4528 Y12.4841 
G01 X-10.4072 Y12.4841 
G01 X-10.2434 Y12.4581 
G01 X-10.0856 Y12.4069 
G01 X-9.9377 Y12.3315 
G01 X-9.8035 Y12.2340 
G01 X-9.6862 Y12.1167 
G01 X-9.5887 Y11.9825 
G01 X-9.5133 Y11.8346 
G01 X-9.4621 Y11.6768 
G01 X-9.4361 Y11.5130 
G01 X-9.4361 Y11.3470 
G01 X-9.4621 Y11.1832 
G01 X-9.5133 Y11.0254 
G01 X-9.5887 Y10.8775 
G01 X-9.6862 Y10.7433 
G01 X-9.8035 Y10.6260 
G00 Z2.5400  
G00 X-9.8035 Y13.1660 
G01 Z-0.1778 F254   
G01 X-9.9377 Y13.0685 F508   
G01 X-10.0856 Y12.9931 
G01 X-10.2434 Y12.9419 
G01 X-10.4072 Y12.9159 
G01 X-12.4528 Y12.9159 
G01 X-12.6166 Y12.9419 
G01 X-12.7744 Y12.9931 
G01 X-12.9223 Y13.0685 
G01 X-13.0565 Y13.1660 
G01 X-13.1738 Y13.2833 
G01 X-13.2713 Y13.4175 
G01 X-13.2875 Y13.4493 
G01 X-19.3500 Y13.4493 
G01 X-19.8834 Y12.9159 
G01 X-20.7566 Y12.9159 
G01 X-21.2900 Y13.4493 
G01 X-21.8900 Y13.4493 
G01 X-22.4234 Y12.9159 
G01 X-23.2966 Y12.9159 
G01 X-23.9141 Y13.5334 
G01 X-23.9141 Y14.2877 
G01 X-37.0457 Y27.4193 
G01 X-108.7806 Y27.4193 
G01 X-108.9130 Y27.4548 
G01 X-109.0317 Y27.5233 
G01 X-120.1153 Y38.6069 
G01 X-120.1492 Y38.5959 
G01 X-120.3130 Y38.5699 
G01 X-120.4790 Y38.5699 
G01 X-120.6428 Y38.5959 
G01 X-120.8006 Y38.6471 
G01 X-120.9485 Y38.7225 
G01 X-121.0827 Y38.8200 
G01 X-121.2000 Y38.9373 
G01 X-121.2975 Y39.0715 
G01 X-121.3729 Y39.2194 
G01 X-121.4241 Y39.3772 
G01 X-121.4501 Y39.5410 
G01 X-121.4501 Y39.7070 
G01 X-121.4241 Y39.8708 
G01 X-121.3729 Y40.0286 
G01 X-121.2975 Y40.1765 
G01 X-121.2000 Y40.3107 
G01 X-121.0827 Y40.4280 
G01 X-120.9485 Y40.5255 
G01 X-120.8006 Y40.6009 
G01 X-120.6428 Y40.6521 
G01 X-120.4790 Y40.6781 
G01 X-120.3130 Y40.6781 
G01 X-120.1492 Y40.6521 
G01 X-119.9914 Y40.6009 
G01 X-119.8435 Y40.5255 
G01 X-119.7093 Y40.4280 
G01 X-119.5920 Y40.3107 
G01 X-119.4945 Y40.1765 
G01 X-119.4191 Y40.0286 
G01 X-119.3679 Y39.8708 
G01 X-119.3419 Y39.7070 
G01 X-119.3419 Y39.5410 
G01 X-119.3679 Y39.3772 
G01 X-119.3789 Y39.3433 
G01 X-108.4963 Y28.4607 
G01 X-36.7614 Y28.4607 
G01 X-36.6290 Y28.4252 
G01 X-36.5103 Y28.3567 
G01 X-36.4133 Y28.2597 
G01 X-23.1777 Y15.0241 
G01 X-22.4234 Y15.0241 
G01 X-21.8900 Y14.4907 
G01 X-21.2900 Y14.4907 
G01 X-20.7566 Y15.0241 
G01 X-19.8834 Y15.0241 
G01 X-19.3500 Y14.4907 
G01 X-13.2875 Y14.4907 
G01 X-13.2713 Y14.5225 
G01 X-13.1738 Y14.6567 
G01 X-13.0565 Y14.7740 
G01 X-12.9223 Y14.8715 
G01 X-12.7744 Y14.9469 
G01 X-12.6166 Y14.9981 
G01 X-12.4528 Y15.0241 
G01 X-10.4072 Y15.0241 
G01 X-10.2434 Y14.9981 
G01 X-10.0856 Y14.9469 
G01 X-9.9377 Y14.8715 
G01 X-9.8035 Y14.7740 
G01 X-9.6862 Y14.6567 
G01 X-9.5887 Y14.5225 
G01 X-9.5133 Y14.3746 
G01 X-9.4621 Y14.2168 
G01 X-9.4361 Y14.0530 
G01 X-9.4361 Y13.8870 
G01 X-9.4621 Y13.7232 
G01 X-9.5133 Y13.5654 
G01 X-9.5887 Y13.4175 
G01 X-9.6862 Y13.2833 
G01 X-9.8035 Y13.1660 
G00 Z2.5400  
G00 X-9.8035 Y15.7060 
G01 Z-0.1778 F254   
G01 X-9.9377 Y15.6085 F508   
G01 X-10.0856 Y15.5331 
G01 X-10.2434 Y15.4819 
G01 X-10.4072 Y15.4559 
G01 X-12.4528 Y15.4559 
G01 X-12.6166 Y15.4819 
G01 X-12.7744 Y15.5331 
G01 X-12.9223 Y15.6085 
G01 X-13.0565 Y15.7060 
G01 X-13.1738 Y15.8233 
G01 X-13.2713 Y15.9575 
G01 X-13.2875 Y15.9893 
G01 X-19.3500 Y15.9893 
G01 X-19.8834 Y15.4559 
G01 X-20.7566 Y15.4559 
G01 X-21.2900 Y15.9893 
G01 X-21.8900 Y15.9893 
G01 X-22.4234 Y15.4559 
G01 X-23.2966 Y15.4559 
G01 X-23.9141 Y16.0734 
G01 X-23.9141 Y16.8277 
G01 X-36.2837 Y29.1973 
G01 X-105.4785 Y29.1973 
G01 X-105.6110 Y29.2328 
G01 X-105.7297 Y29.3013 
G01 X-120.1153 Y43.6869 
G01 X-120.1492 Y43.6759 
G01 X-120.3130 Y43.6499 
G01 X-120.4790 Y43.6499 
G01 X-120.6428 Y43.6759 
G01 X-120.8006 Y43.7271 
G01 X-120.9485 Y43.8025 
G01 X-121.0827 Y43.9000 
G01 X-121.2000 Y44.0173 
G01 X-121.2975 Y44.1515 
G01 X-121.3729 Y44.2994 
G01 X-121.4241 Y44.4572 
G01 X-121.4501 Y44.6210 
G01 X-121.4501 Y44.7870 
G01 X-121.4241 Y44.9508 
G01 X-121.3729 Y45.1086 
G01 X-121.2975 Y45.2565 
G01 X-121.2000 Y45.3907 
G01 X-121.0827 Y45.5080 
G01 X-120.9485 Y45.6055 
G01 X-120.8006 Y45.6809 
G01 X-120.6428 Y45.7321 
G01 X-120.4790 Y45.7581 
G01 X-120.3130 Y45.7581 
G01 X-120.1492 Y45.7321 
G01 X-119.9914 Y45.6809 
G01 X-119.8435 Y45.6055 
G01 X-119.7093 Y45.5080 
G01 X-119.5920 Y45.3907 
G01 X-119.4945 Y45.2565 
G01 X-119.4191 Y45.1086 
G01 X-119.3679 Y44.9508 
G01 X-119.3419 Y44.7870 
G01 X-119.3419 Y44.6210 
G01 X-119.3679 Y44.4572 
G01 X-119.3789 Y44.4233 
G01 X-105.1943 Y30.2387 
G01 X-35.9994 Y30.2387 
G01 X-35.8670 Y30.2032 
G01 X-35.7483 Y30.1347 
G01 X-35.6513 Y30.0377 
G01 X-23.1777 Y17.5641 
G01 X-22.4234 Y17.5641 
G01 X-21.8900 Y17.0307 
G01 X-21.2900 Y17.0307 
G01 X-20.7566 Y17.5641 
G01 X-19.8834 Y17.5641 
G01 X-19.3500 Y17.0307 
G01 X-13.2875 Y17.0307 
G01 X-13.2713 Y17.0625 
G01 X-13.1738 Y17.1967 
G01 X-13.0565 Y17.3140 
G01 X-12.9223 Y17.4115 
G01 X-12.7744 Y17.4869 
G01 X-12.6166 Y17.5381 
G01 X-12.4528 Y17.5641 
G01 X-10.4072 Y17.5641 
G01 X-10.2434 Y17.5381 
G01 X-10.0856 Y17.4869 
G01 X-9.9377 Y17.4115 
G01 X-9.8035 Y17.3140 
G01 X-9.6862 Y17.1967 
G01 X-9.5887 Y17.0625 
G01 X-9.5133 Y16.9146 
G01 X-9.4621 Y16.7568 
G01 X-9.4361 Y16.5930 
G01 X-9.4361 Y16.4270 
G01 X-9.4621 Y16.2632 
G01 X-9.5133 Y16.1054 
G01 X-9.5887 Y15.9575 
G01 X-9.6862 Y15.8233 
G01 X-9.8035 Y15.7060 
G00 Z2.5400  
G00 X-9.8035 Y18.2460 
G01 Z-0.1778 F254   
G01 X-9.9377 Y18.1485 F508   
G01 X-10.0856 Y18.0731 
G01 X-10.2434 Y18.0219 
G01 X-10.4072 Y17.9959 
G01 X-12.4528 Y17.9959 
G01 X-12.6166 Y18.0219 
G01 X-12.7744 Y18.0731 
G01 X-12.9223 Y18.1485 
G01 X-13.0565 Y18.2460 
G01 X-13.1738 Y18.3633 
G01 X-13.2713 Y18.4975 
G01 X-13.2875 Y18.5293 
G01 X-19.3500 Y18.5293 
G01 X-19.8834 Y17.9959 
G01 X-20.7566 Y17.9959 
G01 X-21.2900 Y18.5293 
G01 X-21.8900 Y18.5293 
G01 X-22.4234 Y17.9959 
G01 X-23.2966 Y17.9959 
G01 X-23.9141 Y18.6134 
G01 X-23.9141 Y19.4866 
G01 X-23.2966 Y20.1041 
G01 X-22.4234 Y20.1041 
G01 X-21.8900 Y19.5707 
G01 X-21.2900 Y19.5707 
G01 X-20.7566 Y20.1041 
G01 X-19.8834 Y20.1041 
G01 X-19.3500 Y19.5707 
G01 X-13.2875 Y19.5707 
G01 X-13.2713 Y19.6025 
G01 X-13.1738 Y19.7367 
G01 X-13.0565 Y19.8540 
G01 X-12.9223 Y19.9515 
G01 X-12.7744 Y20.0269 
G01 X-12.6166 Y20.0781 
G01 X-12.4528 Y20.1041 
G01 X-10.4072 Y20.1041 
G01 X-10.2434 Y20.0781 
G01 X-10.0856 Y20.0269 
G01 X-9.9377 Y19.9515 
G01 X-9.8035 Y19.8540 
G01 X-9.6862 Y19.7367 
G01 X-9.5887 Y19.6025 
G01 X-9.5133 Y19.4546 
G01 X-9.4621 Y19.2968 
G01 X-9.4361 Y19.1330 
G01 X-9.4361 Y18.9670 
G01 X-9.4621 Y18.8032 
G01 X-9.5133 Y18.6454 
G01 X-9.5887 Y18.4975 
G01 X-9.6862 Y18.3633 
G01 X-9.8035 Y18.2460 
G00 Z2.5400  
G00 X-9.8035 Y20.7860 
G01 Z-0.1778 F254   
G01 X-9.9377 Y20.6885 F508   
G01 X-10.0856 Y20.6131 
G01 X-10.2434 Y20.5619 
G01 X-10.4072 Y20.5359 
G01 X-12.4528 Y20.5359 
G01 X-12.6166 Y20.5619 
G01 X-12.7744 Y20.6131 
G01 X-12.9223 Y20.6885 
G01 X-13.0565 Y20.7860 
G01 X-13.1738 Y20.9033 
G01 X-13.2713 Y21.0375 
G01 X-13.2875 Y21.0693 
G01 X-19.3500 Y21.0693 
G01 X-19.8834 Y20.5359 
G01 X-20.7566 Y20.5359 
G01 X-21.2900 Y21.0693 
G01 X-21.8900 Y21.0693 
G01 X-22.4234 Y20.5359 
G01 X-23.2966 Y20.5359 
G01 X-23.9141 Y21.1534 
G01 X-23.9141 Y22.0266 
G01 X-23.2966 Y22.6441 
G01 X-22.4234 Y22.6441 
G01 X-21.8900 Y22.1107 
G01 X-21.2900 Y22.1107 
G01 X-20.7566 Y22.6441 
G01 X-19.8834 Y22.6441 
G01 X-19.3500 Y22.1107 
G01 X-13.2875 Y22.1107 
G01 X-13.2713 Y22.1425 
G01 X-13.1738 Y22.2767 
G01 X-13.0565 Y22.3940 
G01 X-12.9223 Y22.4915 
G01 X-12.7744 Y22.5669 
G01 X-12.6166 Y22.6181 
G01 X-12.4528 Y22.6441 
G01 X-10.4072 Y22.6441 
G01 X-10.2434 Y22.6181 
G01 X-10.0856 Y22.5669 
G01 X-9.9377 Y22.4915 
G01 X-9.8035 Y22.3940 
G01 X-9.6862 Y22.2767 
G01 X-9.5887 Y22.1425 
G01 X-9.5133 Y21.9946 
G01 X-9.4621 Y21.8368 
G01 X-9.4361 Y21.6730 
G01 X-9.4361 Y21.5070 
G01 X-9.4621 Y21.3432 
G01 X-9.5133 Y21.1854 
G01 X-9.5887 Y21.0375 
G01 X-9.6862 Y20.9033 
G01 X-9.8035 Y20.7860 
G00 Z2.5400  
G00 X-9.8035 Y23.3260 
G01 Z-0.1778 F254   
G01 X-9.9377 Y23.2285 F508   
G01 X-10.0856 Y23.1531 
G01 X-10.2434 Y23.1019 
G01 X-10.4072 Y23.0759 
G01 X-12.4528 Y23.0759 
G01 X-12.6166 Y23.1019 
G01 X-12.7744 Y23.1531 
G01 X-12.9223 Y23.2285 
G01 X-13.0565 Y23.3260 
G01 X-13.1738 Y23.4433 
G01 X-13.2713 Y23.5775 
G01 X-13.2875 Y23.6093 
G01 X-19.3500 Y23.6093 
G01 X-19.8834 Y23.0759 
G01 X-20.7566 Y23.0759 
G01 X-21.2900 Y23.6093 
G01 X-21.8900 Y23.6093 
G01 X-22.4234 Y23.0759 
G01 X-23.2966 Y23.0759 
G01 X-23.9141 Y23.6934 
G01 X-23.9141 Y24.5666 
G01 X-23.2966 Y25.1841 
G01 X-22.4234 Y25.1841 
G01 X-21.8900 Y24.6507 
G01 X-21.2900 Y24.6507 
G01 X-20.7566 Y25.1841 
G01 X-19.8834 Y25.1841 
G01 X-19.3500 Y24.6507 
G01 X-13.2875 Y24.6507 
G01 X-13.2713 Y24.6825 
G01 X-13.1738 Y24.8167 
G01 X-13.0565 Y24.9340 
G01 X-12.9223 Y25.0315 
G01 X-12.7744 Y25.1069 
G01 X-12.6166 Y25.1581 
G01 X-12.4528 Y25.1841 
G01 X-10.4072 Y25.1841 
G01 X-10.2434 Y25.1581 
G01 X-10.0856 Y25.1069 
G01 X-9.9377 Y25.0315 
G01 X-9.8035 Y24.9340 
G01 X-9.6862 Y24.8167 
G01 X-9.5887 Y24.6825 
G01 X-9.5133 Y24.5346 
G01 X-9.4621 Y24.3768 
G01 X-9.4361 Y24.2130 
G01 X-9.4361 Y24.0470 
G01 X-9.4621 Y23.8832 
G01 X-9.5133 Y23.7254 
G01 X-9.5887 Y23.5775 
G01 X-9.6862 Y23.4433 
G01 X-9.8035 Y23.3260 
G00 Z2.5400  
G00 X-9.8035 Y25.8660 
G01 Z-0.1778 F254   
G01 X-9.9377 Y25.7685 F508   
G01 X-10.0856 Y25.6931 
G01 X-10.2434 Y25.6419 
G01 X-10.4072 Y25.6159 
G01 X-12.4528 Y25.6159 
G01 X-12.6166 Y25.6419 
G01 X-12.7744 Y25.6931 
G01 X-12.9223 Y25.7685 
G01 X-13.0565 Y25.8660 
G01 X-13.1738 Y25.9833 
G01 X-13.2713 Y26.1175 
G01 X-13.2875 Y26.1493 
G01 X-19.3500 Y26.1493 
G01 X-19.8834 Y25.6159 
G01 X-20.7566 Y25.6159 
G01 X-21.2900 Y26.1493 
G01 X-21.8900 Y26.1493 
G01 X-22.4234 Y25.6159 
G01 X-23.2966 Y25.6159 
G01 X-23.9141 Y26.2334 
G01 X-23.9141 Y27.1066 
G01 X-23.2966 Y27.7241 
G01 X-22.4234 Y27.7241 
G01 X-21.8900 Y27.1907 
G01 X-21.2900 Y27.1907 
G01 X-20.7566 Y27.7241 
G01 X-19.8834 Y27.7241 
G01 X-19.3500 Y27.1907 
G01 X-13.2875 Y27.1907 
G01 X-13.2713 Y27.2225 
G01 X-13.1738 Y27.3567 
G01 X-13.0565 Y27.4740 
G01 X-12.9223 Y27.5715 
G01 X-12.7744 Y27.6469 
G01 X-12.6166 Y27.6981 
G01 X-12.4528 Y27.7241 
G01 X-10.4072 Y27.7241 
G01 X-10.2434 Y27.6981 
G01 X-10.0856 Y27.6469 
G01 X-9.9377 Y27.5715 
G01 X-9.8035 Y27.4740 
G01 X-9.6862 Y27.3567 
G01 X-9.5887 Y27.2225 
G01 X-9.5133 Y27.0746 
G01 X-9.4621 Y26.9168 
G01 X-9.4361 Y26.7530 
G01 X-9.4361 Y26.5870 
G01 X-9.4621 Y26.4232 
G01 X-9.5133 Y26.2654 
G01 X-9.5887 Y26.1175 
G01 X-9.6862 Y25.9833 
G01 X-9.8035 Y25.8660 
G00 Z2.5400  
G00 X-9.8035 Y28.4060 
G01 Z-0.1778 F254   
G01 X-9.9377 Y28.3085 F508   
G01 X-10.0856 Y28.2331 
G01 X-10.2434 Y28.1819 
G01 X-10.4072 Y28.1559 
G01 X-12.4528 Y28.1559 
G01 X-12.6166 Y28.1819 
G01 X-12.7744 Y28.2331 
G01 X-12.9223 Y28.3085 
G01 X-13.0565 Y28.4060 
G01 X-13.1738 Y28.5233 
G01 X-13.2713 Y28.6575 
G01 X-13.2875 Y28.6893 
G01 X-19.3500 Y28.6893 
G01 X-19.8834 Y28.1559 
G01 X-20.7566 Y28.1559 
G01 X-21.2900 Y28.6893 
G01 X-21.8900 Y28.6893 
G01 X-22.4234 Y28.1559 
G01 X-23.2966 Y28.1559 
G01 X-23.9141 Y28.7734 
G01 X-23.9141 Y29.6466 
G01 X-23.2966 Y30.2641 
G01 X-22.4234 Y30.2641 
G01 X-21.8900 Y29.7307 
G01 X-21.2900 Y29.7307 
G01 X-20.7566 Y30.2641 
G01 X-19.8834 Y30.2641 
G01 X-19.3500 Y29.7307 
G01 X-13.2875 Y29.7307 
G01 X-13.2713 Y29.7625 
G01 X-13.1738 Y29.8967 
G01 X-13.0565 Y30.0140 
G01 X-12.9223 Y30.1115 
G01 X-12.7744 Y30.1869 
G01 X-12.6166 Y30.2381 
G01 X-12.4528 Y30.2641 
G01 X-10.4072 Y30.2641 
G01 X-10.2434 Y30.2381 
G01 X-10.0856 Y30.1869 
G01 X-9.9377 Y30.1115 
G01 X-9.8035 Y30.0140 
G01 X-9.6862 Y29.8967 
G01 X-9.5887 Y29.7625 
G01 X-9.5133 Y29.6146 
G01 X-9.4621 Y29.4568 
G01 X-9.4361 Y29.2930 
G01 X-9.4361 Y29.1270 
G01 X-9.4621 Y28.9632 
G01 X-9.5133 Y28.8054 
G01 X-9.5887 Y28.6575 
G01 X-9.6862 Y28.5233 
G01 X-9.8035 Y28.4060 
G00 Z2.5400  
G00 X-9.8035 Y30.9460 
G01 Z-0.1778 F254   
G01 X-9.9377 Y30.8485 F508   
G01 X-10.0856 Y30.7731 
G01 X-10.2434 Y30.7219 
G01 X-10.4072 Y30.6959 
G01 X-12.4528 Y30.6959 
G01 X-12.6166 Y30.7219 
G01 X-12.7744 Y30.7731 
G01 X-12.9223 Y30.8485 
G01 X-13.0565 Y30.9460 
G01 X-13.1738 Y31.0633 
G01 X-13.2713 Y31.1975 
G01 X-13.2875 Y31.2293 
G01 X-19.3500 Y31.2293 
G01 X-19.8834 Y30.6959 
G01 X-20.7566 Y30.6959 
G01 X-21.2900 Y31.2293 
G01 X-21.8900 Y31.2293 
G01 X-22.4234 Y30.6959 
G01 X-23.2966 Y30.6959 
G01 X-23.9141 Y31.3134 
G01 X-23.9141 Y32.1866 
G01 X-23.2966 Y32.8041 
G01 X-22.4234 Y32.8041 
G01 X-21.8900 Y32.2707 
G01 X-21.2900 Y32.2707 
G01 X-20.7566 Y32.8041 
G01 X-19.8834 Y32.8041 
G01 X-19.3500 Y32.2707 
G01 X-13.2875 Y32.2707 
G01 X-13.2713 Y32.3025 
G01 X-13.1738 Y32.4367 
G01 X-13.0565 Y32.5540 
G01 X-12.9223 Y32.6515 
G01 X-12.7744 Y32.7269 
G01 X-12.6166 Y32.7781 
G01 X-12.4528 Y32.8041 
G01 X-10.4072 Y32.8041 
G01 X-10.2434 Y32.7781 
G01 X-10.0856 Y32.7269 
G01 X-9.9377 Y32.6515 
G01 X-9.8035 Y32.5540 
G01 X-9.6862 Y32.4367 
G01 X-9.5887 Y32.3025 
G01 X-9.5133 Y32.1546 
G01 X-9.4621 Y31.9968 
G01 X-9.4361 Y31.8330 
G01 X-9.4361 Y31.6670 
G01 X-9.4621 Y31.5032 
G01 X-9.5133 Y31.3454 
G01 X-9.5887 Y31.1975 
G01 X-9.6862 Y31.0633 
G01 X-9.8035 Y30.9460 
G00 Z2.5400  
G00 X-9.8035 Y33.4860 
G01 Z-0.1778 F254   
G01 X-9.9377 Y33.3885 F508   
G01 X-10.0856 Y33.3131 
G01 X-10.2434 Y33.2619 
G01 X-10.4072 Y33.2359 
G01 X-12.4528 Y33.2359 
G01 X-12.6166 Y33.2619 
G01 X-12.7744 Y33.3131 
G01 X-12.9223 Y33.3885 
G01 X-13.0565 Y33.4860 
G01 X-13.1738 Y33.6033 
G01 X-13.2713 Y33.7375 
G01 X-13.2875 Y33.7693 
G01 X-19.3500 Y33.7693 
G01 X-19.8834 Y33.2359 
G01 X-20.7566 Y33.2359 
G01 X-21.3741 Y33.8534 
G01 X-21.3741 Y34.7266 
G01 X-20.7566 Y35.3441 
G01 X-19.8834 Y35.3441 
G01 X-19.3500 Y34.8107 
G01 X-13.2875 Y34.8107 
G01 X-13.2713 Y34.8425 
G01 X-13.1738 Y34.9767 
G01 X-13.0565 Y35.0940 
G01 X-12.9223 Y35.1915 
G01 X-12.7744 Y35.2669 
G01 X-12.6166 Y35.3181 
G01 X-12.4528 Y35.3441 
G01 X-10.4072 Y35.3441 
G01 X-10.2434 Y35.3181 
G01 X-10.0856 Y35.2669 
G01 X-9.9377 Y35.1915 
G01 X-9.8035 Y35.0940 
G01 X-9.6862 Y34.9767 
G01 X-9.5887 Y34.8425 
G01 X-9.5133 Y34.6946 
G01 X-9.4621 Y34.5368 
G01 X-9.4361 Y34.3730 
G01 X-9.4361 Y34.2070 
G01 X-9.4621 Y34.0432 
G01 X-9.5133 Y33.8854 
G01 X-9.5887 Y33.7375 
G01 X-9.6862 Y33.6033 
G01 X-9.8035 Y33.4860 
G00 Z2.5400  
G00 X-9.8035 Y36.0260 
G01 Z-0.1778 F254   
G01 X-9.9377 Y35.9285 F508   
G01 X-10.0856 Y35.8531 
G01 X-10.2434 Y35.8019 
G01 X-10.4072 Y35.7759 
G01 X-12.4528 Y35.7759 
G01 X-12.6166 Y35.8019 
G01 X-12.7744 Y35.8531 
G01 X-12.9223 Y35.9285 
G01 X-13.0565 Y36.0260 
G01 X-13.1738 Y36.1433 
G01 X-13.2713 Y36.2775 
G01 X-13.2875 Y36.3093 
G01 X-19.3500 Y36.3093 
G01 X-19.8834 Y35.7759 
G01 X-20.6377 Y35.7759 
G01 X-21.8059 Y34.6077 
G01 X-21.8059 Y33.8534 
G01 X-22.4234 Y33.2359 
G01 X-23.2966 Y33.2359 
G01 X-23.9141 Y33.8534 
G01 X-23.9141 Y34.7266 
G01 X-23.2966 Y35.3441 
G01 X-22.5423 Y35.3441 
G01 X-21.3741 Y36.5123 
G01 X-21.3741 Y37.2666 
G01 X-20.7566 Y37.8841 
G01 X-19.8834 Y37.8841 
G01 X-19.3500 Y37.3507 
G01 X-13.2875 Y37.3507 
G01 X-13.2713 Y37.3825 
G01 X-13.1738 Y37.5167 
G01 X-13.0565 Y37.6340 
G01 X-12.9223 Y37.7315 
G01 X-12.7744 Y37.8069 
G01 X-12.6166 Y37.8581 
G01 X-12.4528 Y37.8841 
G01 X-10.4072 Y37.8841 
G01 X-10.2434 Y37.8581 
G01 X-10.0856 Y37.8069 
G01 X-9.9377 Y37.7315 
G01 X-9.8035 Y37.6340 
G01 X-9.6862 Y37.5167 
G01 X-9.5887 Y37.3825 
G01 X-9.5133 Y37.2346 
G01 X-9.4621 Y37.0768 
G01 X-9.4361 Y36.9130 
G01 X-9.4361 Y36.7470 
G01 X-9.4621 Y36.5832 
G01 X-9.5133 Y36.4254 
G01 X-9.5887 Y36.2775 
G01 X-9.6862 Y36.1433 
G01 X-9.8035 Y36.0260 
G00 Z2.5400  
G00 X-9.8035 Y38.5660 
G01 Z-0.1778 F254   
G01 X-9.9377 Y38.4685 F508   
G01 X-10.0856 Y38.3931 
G01 X-10.2434 Y38.3419 
G01 X-10.4072 Y38.3159 
G01 X-12.4528 Y38.3159 
G01 X-12.6166 Y38.3419 
G01 X-12.7744 Y38.3931 
G01 X-12.9223 Y38.4685 
G01 X-13.0565 Y38.5660 
G01 X-13.1738 Y38.6833 
G01 X-13.2713 Y38.8175 
G01 X-13.2875 Y38.8493 
G01 X-19.3500 Y38.8493 
G01 X-19.8834 Y38.3159 
G01 X-20.6377 Y38.3159 
G01 X-21.8059 Y37.1477 
G01 X-21.8059 Y36.3934 
G01 X-22.4234 Y35.7759 
G01 X-23.2966 Y35.7759 
G01 X-23.9141 Y36.3934 
G01 X-23.9141 Y37.2666 
G01 X-23.2966 Y37.8841 
G01 X-22.5423 Y37.8841 
G01 X-21.3741 Y39.0523 
G01 X-21.3741 Y39.8066 
G01 X-20.7566 Y40.4241 
G01 X-19.8834 Y40.4241 
G01 X-19.3500 Y39.8907 
G01 X-13.2875 Y39.8907 
G01 X-13.2713 Y39.9225 
G01 X-13.1738 Y40.0567 
G01 X-13.0565 Y40.1740 
G01 X-12.9223 Y40.2715 
G01 X-12.7744 Y40.3469 
G01 X-12.6166 Y40.3981 
G01 X-12.4528 Y40.4241 
G01 X-10.4072 Y40.4241 
G01 X-10.2434 Y40.3981 
G01 X-10.0856 Y40.3469 
G01 X-9.9377 Y40.2715 
G01 X-9.8035 Y40.1740 
G01 X-9.6862 Y40.0567 
G01 X-9.5887 Y39.9225 
G01 X-9.5133 Y39.7746 
G01 X-9.4621 Y39.6168 
G01 X-9.4361 Y39.4530 
G01 X-9.4361 Y39.2870 
G01 X-9.4621 Y39.1232 
G01 X-9.5133 Y38.9654 
G01 X-9.5887 Y38.8175 
G01 X-9.6862 Y38.6833 
G01 X-9.8035 Y38.5660 
G00 Z2.5400  
G00 X-9.8035 Y41.1060 
G01 Z-0.1778 F254   
G01 X-9.9377 Y41.0085 F508   
G01 X-10.0856 Y40.9331 
G01 X-10.2434 Y40.8819 
G01 X-10.4072 Y40.8559 
G01 X-12.4528 Y40.8559 
G01 X-12.6166 Y40.8819 
G01 X-12.7744 Y40.9331 
G01 X-12.9223 Y41.0085 
G01 X-13.0565 Y41.1060 
G01 X-13.1738 Y41.2233 
G01 X-13.2713 Y41.3575 
G01 X-13.2875 Y41.3893 
G01 X-19.3500 Y41.3893 
G01 X-19.8834 Y40.8559 
G01 X-20.7566 Y40.8559 
G01 X-21.2900 Y41.3893 
G01 X-21.8900 Y41.3893 
G01 X-22.4234 Y40.8559 
G01 X-23.2966 Y40.8559 
G01 X-23.9141 Y41.4734 
G01 X-23.9141 Y42.3466 
G01 X-23.2966 Y42.9641 
G01 X-22.4234 Y42.9641 
G01 X-21.8900 Y42.4307 
G01 X-21.2900 Y42.4307 
G01 X-20.7566 Y42.9641 
G01 X-19.8834 Y42.9641 
G01 X-19.3500 Y42.4307 
G01 X-13.2875 Y42.4307 
G01 X-13.2713 Y42.4625 
G01 X-13.1738 Y42.5967 
G01 X-13.0565 Y42.7140 
G01 X-12.9223 Y42.8115 
G01 X-12.7744 Y42.8869 
G01 X-12.6166 Y42.9381 
G01 X-12.4528 Y42.9641 
G01 X-10.4072 Y42.9641 
G01 X-10.2434 Y42.9381 
G01 X-10.0856 Y42.8869 
G01 X-9.9377 Y42.8115 
G01 X-9.8035 Y42.7140 
G01 X-9.6862 Y42.5967 
G01 X-9.5887 Y42.4625 
G01 X-9.5133 Y42.3146 
G01 X-9.4621 Y42.1568 
G01 X-9.4361 Y41.9930 
G01 X-9.4361 Y41.8270 
G01 X-9.4621 Y41.6632 
G01 X-9.5133 Y41.5054 
G01 X-9.5887 Y41.3575 
G01 X-9.6862 Y41.2233 
G01 X-9.8035 Y41.1060 
G00 Z2.5400  
G00 X-9.8035 Y43.6460 
G01 Z-0.1778 F254   
G01 X-9.9377 Y43.5485 F508   
G01 X-10.0856 Y43.4731 
G01 X-10.2434 Y43.4219 
G01 X-10.4072 Y43.3959 
G01 X-12.4528 Y43.3959 
G01 X-12.6166 Y43.4219 
G01 X-12.7744 Y43.4731 
G01 X-12.9223 Y43.5485 
G01 X-13.0565 Y43.6460 
G01 X-13.1738 Y43.7633 
G01 X-13.2713 Y43.8975 
G01 X-13.2875 Y43.9293 
G01 X-19.3500 Y43.9293 
G01 X-19.8834 Y43.3959 
G01 X-20.7566 Y43.3959 
G01 X-21.2900 Y43.9293 
G01 X-21.8900 Y43.9293 
G01 X-22.4234 Y43.3959 
G01 X-23.2966 Y43.3959 
G01 X-23.9141 Y44.0134 
G01 X-23.9141 Y44.8866 
G01 X-23.2966 Y45.5041 
G01 X-22.4234 Y45.5041 
G01 X-21.8900 Y44.9707 
G01 X-21.2900 Y44.9707 
G01 X-20.7566 Y45.5041 
G01 X-19.8834 Y45.5041 
G01 X-19.3500 Y44.9707 
G01 X-13.2875 Y44.9707 
G01 X-13.2713 Y45.0025 
G01 X-13.1738 Y45.1367 
G01 X-13.0565 Y45.2540 
G01 X-12.9223 Y45.3515 
G01 X-12.7744 Y45.4269 
G01 X-12.6166 Y45.4781 
G01 X-12.4528 Y45.5041 
G01 X-10.4072 Y45.5041 
G01 X-10.2434 Y45.4781 
G01 X-10.0856 Y45.4269 
G01 X-9.9377 Y45.3515 
G01 X-9.8035 Y45.2540 
G01 X-9.6862 Y45.1367 
G01 X-9.5887 Y45.0025 
G01 X-9.5133 Y44.8546 
G01 X-9.4621 Y44.6968 
G01 X-9.4361 Y44.5330 
G01 X-9.4361 Y44.3670 
G01 X-9.4621 Y44.2032 
G01 X-9.5133 Y44.0454 
G01 X-9.5887 Y43.8975 
G01 X-9.6862 Y43.7633 
G01 X-9.8035 Y43.6460 
G00 Z2.5400  
G00 X-21.8059 Y39.8066 
G01 Z-0.1778 F254   
G01 X-21.8059 Y38.9334 F508   
G01 X-22.4234 Y38.3159 
G01 X-23.2966 Y38.3159 
G01 X-23.9141 Y38.9334 
G01 X-23.9141 Y39.8066 
G01 X-23.2966 Y40.4241 
G01 X-22.4234 Y40.4241 
G01 X-21.8059 Y39.8066 
G00 Z2.5400  
G00 X-24.7133 Y51.2660 
G01 Z-0.1778 F254   
G01 X-24.8475 Y51.1685 F508   
G01 X-24.9954 Y51.0931 
G01 X-25.1532 Y51.0419 
G01 X-25.3170 Y51.0159 
G01 X-25.4830 Y51.0159 
G01 X-25.6468 Y51.0419 
G01 X-25.8046 Y51.0931 
G01 X-25.9525 Y51.1685 
G01 X-26.0867 Y51.2660 
G01 X-26.2040 Y51.3833 
G01 X-26.3015 Y51.5175 
G01 X-26.3769 Y51.6654 
G01 X-26.4281 Y51.8232 
G01 X-26.4541 Y51.9870 
G01 X-26.4541 Y52.1530 
G01 X-26.4281 Y52.3168 
G01 X-26.3769 Y52.4746 
G01 X-26.3015 Y52.6225 
G01 X-26.2040 Y52.7567 
G01 X-26.0867 Y52.8740 
G01 X-25.9525 Y52.9715 
G01 X-25.9207 Y52.9877 
G01 X-25.9207 Y56.5625 
G01 X-25.9525 Y56.5787 
G01 X-26.0867 Y56.6762 
G01 X-26.2040 Y56.7935 
G01 X-26.3015 Y56.9277 
G01 X-26.3769 Y57.0756 
G01 X-26.4281 Y57.2334 
G01 X-26.4541 Y57.3972 
G01 X-26.4541 Y59.4428 
G01 X-26.4281 Y59.6066 
G01 X-26.3769 Y59.7644 
G01 X-26.3015 Y59.9123 
G01 X-26.2040 Y60.0465 
G01 X-26.0867 Y60.1638 
G01 X-25.9525 Y60.2613 
G01 X-25.8046 Y60.3367 
G01 X-25.6468 Y60.3879 
G01 X-25.4830 Y60.4139 
G01 X-25.3170 Y60.4139 
G01 X-25.1532 Y60.3879 
G01 X-24.9954 Y60.3367 
G01 X-24.8475 Y60.2613 
G01 X-24.7133 Y60.1638 
G01 X-24.5960 Y60.0465 
G01 X-24.4985 Y59.9123 
G01 X-24.4231 Y59.7644 
G01 X-24.3719 Y59.6066 
G01 X-24.3459 Y59.4428 
G01 X-24.3459 Y57.3972 
G01 X-24.3719 Y57.2334 
G01 X-24.4231 Y57.0756 
G01 X-24.4985 Y56.9277 
G01 X-24.5960 Y56.7935 
G01 X-24.7133 Y56.6762 
G01 X-24.8475 Y56.5787 
G01 X-24.8793 Y56.5625 
G01 X-24.8793 Y52.9877 
G01 X-24.8475 Y52.9715 
G01 X-24.7133 Y52.8740 
G01 X-24.5960 Y52.7567 
G01 X-24.4985 Y52.6225 
G01 X-24.4231 Y52.4746 
G01 X-24.3719 Y52.3168 
G01 X-24.3459 Y52.1530 
G01 X-24.3459 Y51.9870 
G01 X-24.3719 Y51.8232 
G01 X-24.4231 Y51.6654 
G01 X-24.4985 Y51.5175 
G01 X-24.5960 Y51.3833 
G01 X-24.7133 Y51.2660 
G00 Z2.5400  
G00 X-27.2533 Y51.2660 
G01 Z-0.1778 F254   
G01 X-27.3875 Y51.1685 F508   
G01 X-27.5354 Y51.0931 
G01 X-27.6932 Y51.0419 
G01 X-27.8570 Y51.0159 
G01 X-28.0230 Y51.0159 
G01 X-28.1868 Y51.0419 
G01 X-28.3446 Y51.0931 
G01 X-28.4925 Y51.1685 
G01 X-28.6267 Y51.2660 
G01 X-28.7440 Y51.3833 
G01 X-28.8415 Y51.5175 
G01 X-28.9169 Y51.6654 
G01 X-28.9681 Y51.8232 
G01 X-28.9941 Y51.9870 
G01 X-28.9941 Y52.1530 
G01 X-28.9681 Y52.3168 
G01 X-28.9169 Y52.4746 
G01 X-28.8415 Y52.6225 
G01 X-28.7440 Y52.7567 
G01 X-28.6267 Y52.8740 
G01 X-28.4925 Y52.9715 
G01 X-28.4607 Y52.9877 
G01 X-28.4607 Y56.5625 
G01 X-28.4925 Y56.5787 
G01 X-28.6267 Y56.6762 
G01 X-28.7440 Y56.7935 
G01 X-28.8415 Y56.9277 
G01 X-28.9169 Y57.0756 
G01 X-28.9681 Y57.2334 
G01 X-28.9941 Y57.3972 
G01 X-28.9941 Y59.4428 
G01 X-28.9681 Y59.6066 
G01 X-28.9169 Y59.7644 
G01 X-28.8415 Y59.9123 
G01 X-28.7440 Y60.0465 
G01 X-28.6267 Y60.1638 
G01 X-28.4925 Y60.2613 
G01 X-28.3446 Y60.3367 
G01 X-28.1868 Y60.3879 
G01 X-28.0230 Y60.4139 
G01 X-27.8570 Y60.4139 
G01 X-27.6932 Y60.3879 
G01 X-27.5354 Y60.3367 
G01 X-27.3875 Y60.2613 
G01 X-27.2533 Y60.1638 
G01 X-27.1360 Y60.0465 
G01 X-27.0385 Y59.9123 
G01 X-26.9631 Y59.7644 
G01 X-26.9119 Y59.6066 
G01 X-26.8859 Y59.4428 
G01 X-26.8859 Y57.3972 
G01 X-26.9119 Y57.2334 
G01 X-26.9631 Y57.0756 
G01 X-27.0385 Y56.9277 
G01 X-27.1360 Y56.7935 
G01 X-27.2533 Y56.6762 
G01 X-27.3875 Y56.5787 
G01 X-27.4193 Y56.5625 
G01 X-27.4193 Y52.9877 
G01 X-27.3875 Y52.9715 
G01 X-27.2533 Y52.8740 
G01 X-27.1360 Y52.7567 
G01 X-27.0385 Y52.6225 
G01 X-26.9631 Y52.4746 
G01 X-26.9119 Y52.3168 
G01 X-26.8859 Y52.1530 
G01 X-26.8859 Y51.9870 
G01 X-26.9119 Y51.8232 
G01 X-26.9631 Y51.6654 
G01 X-27.0385 Y51.5175 
G01 X-27.1360 Y51.3833 
G01 X-27.2533 Y51.2660 
G00 Z2.5400  
G00 X-29.7933 Y51.2660 
G01 Z-0.1778 F254   
G01 X-29.9275 Y51.1685 F508   
G01 X-30.0754 Y51.0931 
G01 X-30.2332 Y51.0419 
G01 X-30.3970 Y51.0159 
G01 X-30.5630 Y51.0159 
G01 X-30.7268 Y51.0419 
G01 X-30.8846 Y51.0931 
G01 X-31.0325 Y51.1685 
G01 X-31.1667 Y51.2660 
G01 X-31.2840 Y51.3833 
G01 X-31.3815 Y51.5175 
G01 X-31.4569 Y51.6654 
G01 X-31.5081 Y51.8232 
G01 X-31.5341 Y51.9870 
G01 X-31.5341 Y52.1530 
G01 X-31.5081 Y52.3168 
G01 X-31.4569 Y52.4746 
G01 X-31.3815 Y52.6225 
G01 X-31.2840 Y52.7567 
G01 X-31.1667 Y52.8740 
G01 X-31.0325 Y52.9715 
G01 X-31.0007 Y52.9877 
G01 X-31.0007 Y56.5625 
G01 X-31.0325 Y56.5787 
G01 X-31.1667 Y56.6762 
G01 X-31.2840 Y56.7935 
G01 X-31.3815 Y56.9277 
G01 X-31.4569 Y57.0756 
G01 X-31.5081 Y57.2334 
G01 X-31.5341 Y57.3972 
G01 X-31.5341 Y59.4428 
G01 X-31.5081 Y59.6066 
G01 X-31.4569 Y59.7644 
G01 X-31.3815 Y59.9123 
G01 X-31.2840 Y60.0465 
G01 X-31.1667 Y60.1638 
G01 X-31.0325 Y60.2613 
G01 X-30.8846 Y60.3367 
G01 X-30.7268 Y60.3879 
G01 X-30.5630 Y60.4139 
G01 X-30.3970 Y60.4139 
G01 X-30.2332 Y60.3879 
G01 X-30.0754 Y60.3367 
G01 X-29.9275 Y60.2613 
G01 X-29.7933 Y60.1638 
G01 X-29.6760 Y60.0465 
G01 X-29.5785 Y59.9123 
G01 X-29.5031 Y59.7644 
G01 X-29.4519 Y59.6066 
G01 X-29.4259 Y59.4428 
G01 X-29.4259 Y57.3972 
G01 X-29.4519 Y57.2334 
G01 X-29.5031 Y57.0756 
G01 X-29.5785 Y56.9277 
G01 X-29.6760 Y56.7935 
G01 X-29.7933 Y56.6762 
G01 X-29.9275 Y56.5787 
G01 X-29.9593 Y56.5625 
G01 X-29.9593 Y52.9877 
G01 X-29.9275 Y52.9715 
G01 X-29.7933 Y52.8740 
G01 X-29.6760 Y52.7567 
G01 X-29.5785 Y52.6225 
G01 X-29.5031 Y52.4746 
G01 X-29.4519 Y52.3168 
G01 X-29.4259 Y52.1530 
G01 X-29.4259 Y51.9870 
G01 X-29.4519 Y51.8232 
G01 X-29.5031 Y51.6654 
G01 X-29.5785 Y51.5175 
G01 X-29.6760 Y51.3833 
G01 X-29.7933 Y51.2660 
G00 Z2.5400  
G00 X-32.3333 Y51.2660 
G01 Z-0.1778 F254   
G01 X-32.4675 Y51.1685 F508   
G01 X-32.6154 Y51.0931 
G01 X-32.7732 Y51.0419 
G01 X-32.9370 Y51.0159 
G01 X-33.1030 Y51.0159 
G01 X-33.2668 Y51.0419 
G01 X-33.4246 Y51.0931 
G01 X-33.5725 Y51.1685 
G01 X-33.7067 Y51.2660 
G01 X-33.8240 Y51.3833 
G01 X-33.9215 Y51.5175 
G01 X-33.9969 Y51.6654 
G01 X-34.0481 Y51.8232 
G01 X-34.0741 Y51.9870 
G01 X-34.0741 Y52.1530 
G01 X-34.0481 Y52.3168 
G01 X-33.9969 Y52.4746 
G01 X-33.9215 Y52.6225 
G01 X-33.8240 Y52.7567 
G01 X-33.7067 Y52.8740 
G01 X-33.5725 Y52.9715 
G01 X-33.5407 Y52.9877 
G01 X-33.5407 Y56.5625 
G01 X-33.5725 Y56.5787 
G01 X-33.7067 Y56.6762 
G01 X-33.8240 Y56.7935 
G01 X-33.9215 Y56.9277 
G01 X-33.9969 Y57.0756 
G01 X-34.0481 Y57.2334 
G01 X-34.0741 Y57.3972 
G01 X-34.0741 Y59.4428 
G01 X-34.0481 Y59.6066 
G01 X-33.9969 Y59.7644 
G01 X-33.9215 Y59.9123 
G01 X-33.8240 Y60.0465 
G01 X-33.7067 Y60.1638 
G01 X-33.5725 Y60.2613 
G01 X-33.4246 Y60.3367 
G01 X-33.2668 Y60.3879 
G01 X-33.1030 Y60.4139 
G01 X-32.9370 Y60.4139 
G01 X-32.7732 Y60.3879 
G01 X-32.6154 Y60.3367 
G01 X-32.4675 Y60.2613 
G01 X-32.3333 Y60.1638 
G01 X-32.2160 Y60.0465 
G01 X-32.1185 Y59.9123 
G01 X-32.0431 Y59.7644 
G01 X-31.9919 Y59.6066 
G01 X-31.9659 Y59.4428 
G01 X-31.9659 Y57.3972 
G01 X-31.9919 Y57.2334 
G01 X-32.0431 Y57.0756 
G01 X-32.1185 Y56.9277 
G01 X-32.2160 Y56.7935 
G01 X-32.3333 Y56.6762 
G01 X-32.4675 Y56.5787 
G01 X-32.4993 Y56.5625 
G01 X-32.4993 Y52.9877 
G01 X-32.4675 Y52.9715 
G01 X-32.3333 Y52.8740 
G01 X-32.2160 Y52.7567 
G01 X-32.1185 Y52.6225 
G01 X-32.0431 Y52.4746 
G01 X-31.9919 Y52.3168 
G01 X-31.9659 Y52.1530 
G01 X-31.9659 Y51.9870 
G01 X-31.9919 Y51.8232 
G01 X-32.0431 Y51.6654 
G01 X-32.1185 Y51.5175 
G01 X-32.2160 Y51.3833 
G01 X-32.3333 Y51.2660 
G00 Z2.5400  
G00 X-34.8733 Y51.2660 
G01 Z-0.1778 F254   
G01 X-35.0075 Y51.1685 F508   
G01 X-35.1554 Y51.0931 
G01 X-35.3132 Y51.0419 
G01 X-35.4770 Y51.0159 
G01 X-35.6430 Y51.0159 
G01 X-35.8068 Y51.0419 
G01 X-35.9646 Y51.0931 
G01 X-36.1125 Y51.1685 
G01 X-36.2467 Y51.2660 
G01 X-36.3640 Y51.3833 
G01 X-36.4615 Y51.5175 
G01 X-36.5369 Y51.6654 
G01 X-36.5881 Y51.8232 
G01 X-36.6141 Y51.9870 
G01 X-36.6141 Y52.1530 
G01 X-36.5881 Y52.3168 
G01 X-36.5369 Y52.4746 
G01 X-36.4615 Y52.6225 
G01 X-36.3640 Y52.7567 
G01 X-36.2467 Y52.8740 
G01 X-36.1125 Y52.9715 
G01 X-36.0807 Y52.9877 
G01 X-36.0807 Y56.5625 
G01 X-36.1125 Y56.5787 
G01 X-36.2467 Y56.6762 
G01 X-36.3640 Y56.7935 
G01 X-36.4615 Y56.9277 
G01 X-36.5369 Y57.0756 
G01 X-36.5881 Y57.2334 
G01 X-36.6141 Y57.3972 
G01 X-36.6141 Y59.4428 
G01 X-36.5881 Y59.6066 
G01 X-36.5369 Y59.7644 
G01 X-36.4615 Y59.9123 
G01 X-36.3640 Y60.0465 
G01 X-36.2467 Y60.1638 
G01 X-36.1125 Y60.2613 
G01 X-35.9646 Y60.3367 
G01 X-35.8068 Y60.3879 
G01 X-35.6430 Y60.4139 
G01 X-35.4770 Y60.4139 
G01 X-35.3132 Y60.3879 
G01 X-35.1554 Y60.3367 
G01 X-35.0075 Y60.2613 
G01 X-34.8733 Y60.1638 
G01 X-34.7560 Y60.0465 
G01 X-34.6585 Y59.9123 
G01 X-34.5831 Y59.7644 
G01 X-34.5319 Y59.6066 
G01 X-34.5059 Y59.4428 
G01 X-34.5059 Y57.3972 
G01 X-34.5319 Y57.2334 
G01 X-34.5831 Y57.0756 
G01 X-34.6585 Y56.9277 
G01 X-34.7560 Y56.7935 
G01 X-34.8733 Y56.6762 
G01 X-35.0075 Y56.5787 
G01 X-35.0393 Y56.5625 
G01 X-35.0393 Y52.9877 
G01 X-35.0075 Y52.9715 
G01 X-34.8733 Y52.8740 
G01 X-34.7560 Y52.7567 
G01 X-34.6585 Y52.6225 
G01 X-34.5831 Y52.4746 
G01 X-34.5319 Y52.3168 
G01 X-34.5059 Y52.1530 
G01 X-34.5059 Y51.9870 
G01 X-34.5319 Y51.8232 
G01 X-34.5831 Y51.6654 
G01 X-34.6585 Y51.5175 
G01 X-34.7560 Y51.3833 
G01 X-34.8733 Y51.2660 
G00 Z2.5400  
G00 X-37.4133 Y51.2660 
G01 Z-0.1778 F254   
G01 X-37.5475 Y51.1685 F508   
G01 X-37.6954 Y51.0931 
G01 X-37.8532 Y51.0419 
G01 X-38.0170 Y51.0159 
G01 X-38.1830 Y51.0159 
G01 X-38.3468 Y51.0419 
G01 X-38.5046 Y51.0931 
G01 X-38.6525 Y51.1685 
G01 X-38.7867 Y51.2660 
G01 X-38.9040 Y51.3833 
G01 X-39.0015 Y51.5175 
G01 X-39.0769 Y51.6654 
G01 X-39.1281 Y51.8232 
G01 X-39.1541 Y51.9870 
G01 X-39.1541 Y52.1530 
G01 X-39.1281 Y52.3168 
G01 X-39.0769 Y52.4746 
G01 X-39.0015 Y52.6225 
G01 X-38.9040 Y52.7567 
G01 X-38.7867 Y52.8740 
G01 X-38.6525 Y52.9715 
G01 X-38.6207 Y52.9877 
G01 X-38.6207 Y56.5625 
G01 X-38.6525 Y56.5787 
G01 X-38.7867 Y56.6762 
G01 X-38.9040 Y56.7935 
G01 X-39.0015 Y56.9277 
G01 X-39.0769 Y57.0756 
G01 X-39.1281 Y57.2334 
G01 X-39.1541 Y57.3972 
G01 X-39.1541 Y59.4428 
G01 X-39.1281 Y59.6066 
G01 X-39.0769 Y59.7644 
G01 X-39.0015 Y59.9123 
G01 X-38.9040 Y60.0465 
G01 X-38.7867 Y60.1638 
G01 X-38.6525 Y60.2613 
G01 X-38.5046 Y60.3367 
G01 X-38.3468 Y60.3879 
G01 X-38.1830 Y60.4139 
G01 X-38.0170 Y60.4139 
G01 X-37.8532 Y60.3879 
G01 X-37.6954 Y60.3367 
G01 X-37.5475 Y60.2613 
G01 X-37.4133 Y60.1638 
G01 X-37.2960 Y60.0465 
G01 X-37.1985 Y59.9123 
G01 X-37.1231 Y59.7644 
G01 X-37.0719 Y59.6066 
G01 X-37.0459 Y59.4428 
G01 X-37.0459 Y57.3972 
G01 X-37.0719 Y57.2334 
G01 X-37.1231 Y57.0756 
G01 X-37.1985 Y56.9277 
G01 X-37.2960 Y56.7935 
G01 X-37.4133 Y56.6762 
G01 X-37.5475 Y56.5787 
G01 X-37.5793 Y56.5625 
G01 X-37.5793 Y52.9877 
G01 X-37.5475 Y52.9715 
G01 X-37.4133 Y52.8740 
G01 X-37.2960 Y52.7567 
G01 X-37.1985 Y52.6225 
G01 X-37.1231 Y52.4746 
G01 X-37.0719 Y52.3168 
G01 X-37.0459 Y52.1530 
G01 X-37.0459 Y51.9870 
G01 X-37.0719 Y51.8232 
G01 X-37.1231 Y51.6654 
G01 X-37.1985 Y51.5175 
G01 X-37.2960 Y51.3833 
G01 X-37.4133 Y51.2660 
G00 Z2.5400  
G00 X-39.9533 Y51.2660 
G01 Z-0.1778 F254   
G01 X-40.0875 Y51.1685 F508   
G01 X-40.2354 Y51.0931 
G01 X-40.3932 Y51.0419 
G01 X-40.5570 Y51.0159 
G01 X-40.7230 Y51.0159 
G01 X-40.8868 Y51.0419 
G01 X-41.0446 Y51.0931 
G01 X-41.1925 Y51.1685 
G01 X-41.3267 Y51.2660 
G01 X-41.4440 Y51.3833 
G01 X-41.5415 Y51.5175 
G01 X-41.6169 Y51.6654 
G01 X-41.6681 Y51.8232 
G01 X-41.6941 Y51.9870 
G01 X-41.6941 Y52.1530 
G01 X-41.6681 Y52.3168 
G01 X-41.6169 Y52.4746 
G01 X-41.5415 Y52.6225 
G01 X-41.4440 Y52.7567 
G01 X-41.3267 Y52.8740 
G01 X-41.1925 Y52.9715 
G01 X-41.1607 Y52.9877 
G01 X-41.1607 Y56.5625 
G01 X-41.1925 Y56.5787 
G01 X-41.3267 Y56.6762 
G01 X-41.4440 Y56.7935 
G01 X-41.5415 Y56.9277 
G01 X-41.6169 Y57.0756 
G01 X-41.6681 Y57.2334 
G01 X-41.6941 Y57.3972 
G01 X-41.6941 Y59.4428 
G01 X-41.6681 Y59.6066 
G01 X-41.6169 Y59.7644 
G01 X-41.5415 Y59.9123 
G01 X-41.4440 Y60.0465 
G01 X-41.3267 Y60.1638 
G01 X-41.1925 Y60.2613 
G01 X-41.1607 Y60.2775 
G01 X-41.1607 Y61.2826 
G01 X-41.1252 Y61.4150 
G01 X-41.0567 Y61.5337 
G01 X-40.9597 Y61.6307 
G01 X-40.8410 Y61.6992 
G01 X-40.7086 Y61.7347 
G01 X-29.6797 Y61.7347 
G01 X-12.2599 Y79.1544 
G01 X-12.2781 Y79.2690 
G01 X-12.2781 Y79.4350 
G01 X-12.2521 Y79.5988 
G01 X-12.2009 Y79.7566 
G01 X-12.1255 Y79.9045 
G01 X-12.0280 Y80.0387 
G01 X-11.9107 Y80.1560 
G01 X-11.7765 Y80.2535 
G01 X-11.6286 Y80.3289 
G01 X-11.4708 Y80.3801 
G01 X-11.3070 Y80.4061 
G01 X-11.1410 Y80.4061 
G01 X-10.9772 Y80.3801 
G01 X-10.8194 Y80.3289 
G01 X-10.6715 Y80.2535 
G01 X-10.5373 Y80.1560 
G01 X-10.4200 Y80.0387 
G01 X-10.3225 Y79.9045 
G01 X-10.2471 Y79.7566 
G01 X-10.1959 Y79.5988 
G01 X-10.1699 Y79.4350 
G01 X-10.1699 Y79.2690 
G01 X-10.1727 Y79.2514 
G01 X-10.1727 Y79.1742 
G01 X-10.2015 Y79.0294 
G01 X-10.2580 Y78.8931 
G01 X-10.3400 Y78.7703 
G01 X-10.3534 Y78.7569 
G01 X-10.4200 Y78.6653 
G01 X-10.5373 Y78.5480 
G01 X-10.6715 Y78.4505 
G01 X-10.8194 Y78.3751 
G01 X-10.9772 Y78.3239 
G01 X-11.1410 Y78.2979 
G01 X-11.3070 Y78.2979 
G01 X-11.4708 Y78.3239 
G01 X-11.5817 Y78.3599 
G01 X-29.0473 Y60.8943 
G01 X-29.1443 Y60.7973 
G01 X-29.2630 Y60.7288 
G01 X-29.3954 Y60.6933 
G01 X-40.1193 Y60.6933 
G01 X-40.1193 Y60.2775 
G01 X-40.0875 Y60.2613 
G01 X-39.9533 Y60.1638 
G01 X-39.8360 Y60.0465 
G01 X-39.7385 Y59.9123 
G01 X-39.6631 Y59.7644 
G01 X-39.6119 Y59.6066 
G01 X-39.5859 Y59.4428 
G01 X-39.5859 Y57.3972 
G01 X-39.6119 Y57.2334 
G01 X-39.6631 Y57.0756 
G01 X-39.7385 Y56.9277 
G01 X-39.8360 Y56.7935 
G01 X-39.9533 Y56.6762 
G01 X-40.0875 Y56.5787 
G01 X-40.1193 Y56.5625 
G01 X-40.1193 Y52.9877 
G01 X-40.0875 Y52.9715 
G01 X-39.9533 Y52.8740 
G01 X-39.8360 Y52.7567 
G01 X-39.7385 Y52.6225 
G01 X-39.6631 Y52.4746 
G01 X-39.6119 Y52.3168 
G01 X-39.5859 Y52.1530 
G01 X-39.5859 Y51.9870 
G01 X-39.6119 Y51.8232 
G01 X-39.6631 Y51.6654 
G01 X-39.7385 Y51.5175 
G01 X-39.8360 Y51.3833 
G01 X-39.9533 Y51.2660 
G00 Z2.5400  
G00 X-42.4933 Y51.2660 
G01 Z-0.1778 F254   
G01 X-42.6275 Y51.1685 F508   
G01 X-42.7754 Y51.0931 
G01 X-42.9332 Y51.0419 
G01 X-43.0970 Y51.0159 
G01 X-43.2630 Y51.0159 
G01 X-43.4268 Y51.0419 
G01 X-43.5846 Y51.0931 
G01 X-43.7325 Y51.1685 
G01 X-43.8667 Y51.2660 
G01 X-43.9840 Y51.3833 
G01 X-44.0815 Y51.5175 
G01 X-44.1569 Y51.6654 
G01 X-44.2081 Y51.8232 
G01 X-44.2341 Y51.9870 
G01 X-44.2341 Y52.1530 
G01 X-44.2081 Y52.3168 
G01 X-44.1569 Y52.4746 
G01 X-44.0815 Y52.6225 
G01 X-43.9840 Y52.7567 
G01 X-43.8667 Y52.8740 
G01 X-43.7325 Y52.9715 
G01 X-43.7007 Y52.9877 
G01 X-43.7007 Y56.5625 
G01 X-43.7325 Y56.5787 
G01 X-43.8667 Y56.6762 
G01 X-43.9840 Y56.7935 
G01 X-44.0815 Y56.9277 
G01 X-44.1569 Y57.0756 
G01 X-44.2081 Y57.2334 
G01 X-44.2341 Y57.3972 
G01 X-44.2341 Y59.4428 
G01 X-44.2081 Y59.6066 
G01 X-44.1569 Y59.7644 
G01 X-44.0815 Y59.9123 
G01 X-43.9840 Y60.0465 
G01 X-43.8667 Y60.1638 
G01 X-43.7325 Y60.2613 
G01 X-43.7007 Y60.2775 
G01 X-43.7007 Y63.0605 
G01 X-43.6652 Y63.1930 
G01 X-43.5967 Y63.3117 
G01 X-43.4997 Y63.4087 
G01 X-43.3810 Y63.4772 
G01 X-43.2486 Y63.5127 
G01 X-30.4417 Y63.5127 
G01 X-14.9797 Y78.9746 
G01 X-15.0221 Y79.1052 
G01 X-15.0481 Y79.2690 
G01 X-15.0481 Y79.4350 
G01 X-15.0221 Y79.5988 
G01 X-14.9709 Y79.7566 
G01 X-14.8955 Y79.9045 
G01 X-14.7980 Y80.0387 
G01 X-14.6807 Y80.1560 
G01 X-14.5465 Y80.2535 
G01 X-14.3986 Y80.3289 
G01 X-14.2408 Y80.3801 
G01 X-14.0770 Y80.4061 
G01 X-13.9110 Y80.4061 
G01 X-13.7472 Y80.3801 
G01 X-13.5894 Y80.3289 
G01 X-13.4415 Y80.2535 
G01 X-13.3073 Y80.1560 
G01 X-13.1900 Y80.0387 
G01 X-13.0925 Y79.9045 
G01 X-13.0171 Y79.7566 
G01 X-12.9659 Y79.5988 
G01 X-12.9399 Y79.4350 
G01 X-12.9399 Y79.2690 
G01 X-12.9659 Y79.1052 
G01 X-13.0171 Y78.9474 
G01 X-13.0925 Y78.7995 
G01 X-13.1900 Y78.6653 
G01 X-13.3073 Y78.5480 
G01 X-13.4415 Y78.4505 
G01 X-13.5894 Y78.3751 
G01 X-13.7472 Y78.3239 
G01 X-13.9110 Y78.2979 
G01 X-14.0770 Y78.2979 
G01 X-14.1691 Y78.3125 
G01 X-29.8093 Y62.6723 
G01 X-29.9063 Y62.5753 
G01 X-30.0250 Y62.5068 
G01 X-30.1574 Y62.4713 
G01 X-42.6593 Y62.4713 
G01 X-42.6593 Y60.2775 
G01 X-42.6275 Y60.2613 
G01 X-42.4933 Y60.1638 
G01 X-42.3760 Y60.0465 
G01 X-42.2785 Y59.9123 
G01 X-42.2031 Y59.7644 
G01 X-42.1519 Y59.6066 
G01 X-42.1259 Y59.4428 
G01 X-42.1259 Y57.3972 
G01 X-42.1519 Y57.2334 
G01 X-42.2031 Y57.0756 
G01 X-42.2785 Y56.9277 
G01 X-42.3760 Y56.7935 
G01 X-42.4933 Y56.6762 
G01 X-42.6275 Y56.5787 
G01 X-42.6593 Y56.5625 
G01 X-42.6593 Y52.9877 
G01 X-42.6275 Y52.9715 
G01 X-42.4933 Y52.8740 
G01 X-42.3760 Y52.7567 
G01 X-42.2785 Y52.6225 
G01 X-42.2031 Y52.4746 
G01 X-42.1519 Y52.3168 
G01 X-42.1259 Y52.1530 
G01 X-42.1259 Y51.9870 
G01 X-42.1519 Y51.8232 
G01 X-42.2031 Y51.6654 
G01 X-42.2785 Y51.5175 
G01 X-42.3760 Y51.3833 
G01 X-42.4933 Y51.2660 
G00 Z2.5400  
G00 X-47.5733 Y51.2660 
G01 Z-0.1778 F254   
G01 X-47.7075 Y51.1685 F508   
G01 X-47.8554 Y51.0931 
G01 X-48.0132 Y51.0419 
G01 X-48.1770 Y51.0159 
G01 X-48.3430 Y51.0159 
G01 X-48.5068 Y51.0419 
G01 X-48.6646 Y51.0931 
G01 X-48.8125 Y51.1685 
G01 X-48.9467 Y51.2660 
G01 X-49.0640 Y51.3833 
G01 X-49.1615 Y51.5175 
G01 X-49.2369 Y51.6654 
G01 X-49.2881 Y51.8232 
G01 X-49.3141 Y51.9870 
G01 X-49.3141 Y52.1530 
G01 X-49.2881 Y52.3168 
G01 X-49.2369 Y52.4746 
G01 X-49.1615 Y52.6225 
G01 X-49.0640 Y52.7567 
G01 X-48.9467 Y52.8740 
G01 X-48.8125 Y52.9715 
G01 X-48.7807 Y52.9877 
G01 X-48.7807 Y56.5625 
G01 X-48.8125 Y56.5787 
G01 X-48.9467 Y56.6762 
G01 X-49.0640 Y56.7935 
G01 X-49.1615 Y56.9277 
G01 X-49.2369 Y57.0756 
G01 X-49.2881 Y57.2334 
G01 X-49.3141 Y57.3972 
G01 X-49.3141 Y59.4428 
G01 X-49.2881 Y59.6066 
G01 X-49.2369 Y59.7644 
G01 X-49.1615 Y59.9123 
G01 X-49.0640 Y60.0465 
G01 X-48.9467 Y60.1638 
G01 X-48.8125 Y60.2613 
G01 X-48.7807 Y60.2775 
G01 X-48.7807 Y64.8385 
G01 X-48.7452 Y64.9710 
G01 X-48.6767 Y65.0897 
G01 X-48.5797 Y65.1867 
G01 X-48.4610 Y65.2552 
G01 X-48.3285 Y65.2907 
G01 X-31.4577 Y65.2907 
G01 X-17.7556 Y78.9928 
G01 X-17.7921 Y79.1052 
G01 X-17.8181 Y79.2690 
G01 X-17.8181 Y79.4350 
G01 X-17.7921 Y79.5988 
G01 X-17.7409 Y79.7566 
G01 X-17.6655 Y79.9045 
G01 X-17.5680 Y80.0387 
G01 X-17.4507 Y80.1560 
G01 X-17.3165 Y80.2535 
G01 X-17.1686 Y80.3289 
G01 X-17.0108 Y80.3801 
G01 X-16.8470 Y80.4061 
G01 X-16.6810 Y80.4061 
G01 X-16.5172 Y80.3801 
G01 X-16.3594 Y80.3289 
G01 X-16.2115 Y80.2535 
G01 X-16.0773 Y80.1560 
G01 X-15.9600 Y80.0387 
G01 X-15.8625 Y79.9045 
G01 X-15.7871 Y79.7566 
G01 X-15.7359 Y79.5988 
G01 X-15.7099 Y79.4350 
G01 X-15.7099 Y79.2690 
G01 X-15.7359 Y79.1052 
G01 X-15.7871 Y78.9474 
G01 X-15.8625 Y78.7995 
G01 X-15.9600 Y78.6653 
G01 X-16.0773 Y78.5480 
G01 X-16.2115 Y78.4505 
G01 X-16.3594 Y78.3751 
G01 X-16.5172 Y78.3239 
G01 X-16.6810 Y78.2979 
G01 X-16.8470 Y78.2979 
G01 X-16.9598 Y78.3158 
G01 X-30.8253 Y64.4503 
G01 X-30.9223 Y64.3533 
G01 X-31.0410 Y64.2848 
G01 X-31.1734 Y64.2493 
G01 X-47.7393 Y64.2493 
G01 X-47.7393 Y60.2775 
G01 X-47.7075 Y60.2613 
G01 X-47.5733 Y60.1638 
G01 X-47.4560 Y60.0465 
G01 X-47.3585 Y59.9123 
G01 X-47.2831 Y59.7644 
G01 X-47.2319 Y59.6066 
G01 X-47.2059 Y59.4428 
G01 X-47.2059 Y57.3972 
G01 X-47.2319 Y57.2334 
G01 X-47.2831 Y57.0756 
G01 X-47.3585 Y56.9277 
G01 X-47.4560 Y56.7935 
G01 X-47.5733 Y56.6762 
G01 X-47.7075 Y56.5787 
G01 X-47.7393 Y56.5625 
G01 X-47.7393 Y52.9877 
G01 X-47.7075 Y52.9715 
G01 X-47.5733 Y52.8740 
G01 X-47.4560 Y52.7567 
G01 X-47.3585 Y52.6225 
G01 X-47.2831 Y52.4746 
G01 X-47.2319 Y52.3168 
G01 X-47.2059 Y52.1530 
G01 X-47.2059 Y51.9870 
G01 X-47.2319 Y51.8232 
G01 X-47.2831 Y51.6654 
G01 X-47.3585 Y51.5175 
G01 X-47.4560 Y51.3833 
G01 X-47.5733 Y51.2660 
G00 Z2.5400  
G00 X-50.1133 Y51.2660 
G01 Z-0.1778 F254   
G01 X-50.2475 Y51.1685 F508   
G01 X-50.3954 Y51.0931 
G01 X-50.5532 Y51.0419 
G01 X-50.7170 Y51.0159 
G01 X-50.8830 Y51.0159 
G01 X-51.0468 Y51.0419 
G01 X-51.2046 Y51.0931 
G01 X-51.3525 Y51.1685 
G01 X-51.4867 Y51.2660 
G01 X-51.6040 Y51.3833 
G01 X-51.7015 Y51.5175 
G01 X-51.7769 Y51.6654 
G01 X-51.8281 Y51.8232 
G01 X-51.8541 Y51.9870 
G01 X-51.8541 Y52.1530 
G01 X-51.8281 Y52.3168 
G01 X-51.7769 Y52.4746 
G01 X-51.7015 Y52.6225 
G01 X-51.6040 Y52.7567 
G01 X-51.4867 Y52.8740 
G01 X-51.3525 Y52.9715 
G01 X-51.3207 Y52.9877 
G01 X-51.3207 Y56.5625 
G01 X-51.3525 Y56.5787 
G01 X-51.4867 Y56.6762 
G01 X-51.6040 Y56.7935 
G01 X-51.7015 Y56.9277 
G01 X-51.7769 Y57.0756 
G01 X-51.8281 Y57.2334 
G01 X-51.8541 Y57.3972 
G01 X-51.8541 Y59.4428 
G01 X-51.8281 Y59.6066 
G01 X-51.7769 Y59.7644 
G01 X-51.7015 Y59.9123 
G01 X-51.6040 Y60.0465 
G01 X-51.4867 Y60.1638 
G01 X-51.3525 Y60.2613 
G01 X-51.3207 Y60.2775 
G01 X-51.3207 Y66.6166 
G01 X-51.2852 Y66.7490 
G01 X-51.2167 Y66.8677 
G01 X-51.1197 Y66.9647 
G01 X-51.0010 Y67.0332 
G01 X-50.8685 Y67.0687 
G01 X-32.4737 Y67.0687 
G01 X-20.5315 Y79.0109 
G01 X-20.5621 Y79.1052 
G01 X-20.5881 Y79.2690 
G01 X-20.5881 Y79.4350 
G01 X-20.5621 Y79.5988 
G01 X-20.5109 Y79.7566 
G01 X-20.4355 Y79.9045 
G01 X-20.3380 Y80.0387 
G01 X-20.2207 Y80.1560 
G01 X-20.0865 Y80.2535 
G01 X-19.9386 Y80.3289 
G01 X-19.7808 Y80.3801 
G01 X-19.6170 Y80.4061 
G01 X-19.4510 Y80.4061 
G01 X-19.2872 Y80.3801 
G01 X-19.1294 Y80.3289 
G01 X-18.9815 Y80.2535 
G01 X-18.8473 Y80.1560 
G01 X-18.7300 Y80.0387 
G01 X-18.6325 Y79.9045 
G01 X-18.5571 Y79.7566 
G01 X-18.5059 Y79.5988 
G01 X-18.4799 Y79.4350 
G01 X-18.4799 Y79.2690 
G01 X-18.5059 Y79.1052 
G01 X-18.5571 Y78.9474 
G01 X-18.6325 Y78.7995 
G01 X-18.7300 Y78.6653 
G01 X-18.8473 Y78.5480 
G01 X-18.9815 Y78.4505 
G01 X-19.1294 Y78.3751 
G01 X-19.2872 Y78.3239 
G01 X-19.4510 Y78.2979 
G01 X-19.6170 Y78.2979 
G01 X-19.7506 Y78.3191 
G01 X-31.8413 Y66.2283 
G01 X-31.9383 Y66.1313 
G01 X-32.0570 Y66.0628 
G01 X-32.1894 Y66.0273 
G01 X-50.2793 Y66.0273 
G01 X-50.2793 Y60.2775 
G01 X-50.2475 Y60.2613 
G01 X-50.1133 Y60.1638 
G01 X-49.9960 Y60.0465 
G01 X-49.8985 Y59.9123 
G01 X-49.8231 Y59.7644 
G01 X-49.7719 Y59.6066 
G01 X-49.7459 Y59.4428 
G01 X-49.7459 Y57.3972 
G01 X-49.7719 Y57.2334 
G01 X-49.8231 Y57.0756 
G01 X-49.8985 Y56.9277 
G01 X-49.9960 Y56.7935 
G01 X-50.1133 Y56.6762 
G01 X-50.2475 Y56.5787 
G01 X-50.2793 Y56.5625 
G01 X-50.2793 Y52.9877 
G01 X-50.2475 Y52.9715 
G01 X-50.1133 Y52.8740 
G01 X-49.9960 Y52.7567 
G01 X-49.8985 Y52.6225 
G01 X-49.8231 Y52.4746 
G01 X-49.7719 Y52.3168 
G01 X-49.7459 Y52.1530 
G01 X-49.7459 Y51.9870 
G01 X-49.7719 Y51.8232 
G01 X-49.8231 Y51.6654 
G01 X-49.8985 Y51.5175 
G01 X-49.9960 Y51.3833 
G01 X-50.1133 Y51.2660 
G00 Z2.5400  
G00 X-52.6533 Y51.2660 
G01 Z-0.1778 F254   
G01 X-52.7875 Y51.1685 F508   
G01 X-52.9354 Y51.0931 
G01 X-53.0932 Y51.0419 
G01 X-53.2570 Y51.0159 
G01 X-53.4230 Y51.0159 
G01 X-53.5868 Y51.0419 
G01 X-53.7446 Y51.0931 
G01 X-53.8925 Y51.1685 
G01 X-54.0267 Y51.2660 
G01 X-54.1440 Y51.3833 
G01 X-54.2415 Y51.5175 
G01 X-54.3169 Y51.6654 
G01 X-54.3681 Y51.8232 
G01 X-54.3941 Y51.9870 
G01 X-54.3941 Y52.1530 
G01 X-54.3681 Y52.3168 
G01 X-54.3169 Y52.4746 
G01 X-54.2415 Y52.6225 
G01 X-54.1440 Y52.7567 
G01 X-54.0267 Y52.8740 
G01 X-53.8925 Y52.9715 
G01 X-53.8607 Y52.9877 
G01 X-53.8607 Y56.5625 
G01 X-53.8925 Y56.5787 
G01 X-54.0267 Y56.6762 
G01 X-54.1440 Y56.7935 
G01 X-54.2415 Y56.9277 
G01 X-54.3169 Y57.0756 
G01 X-54.3681 Y57.2334 
G01 X-54.3941 Y57.3972 
G01 X-54.3941 Y59.4428 
G01 X-54.3681 Y59.6066 
G01 X-54.3169 Y59.7644 
G01 X-54.2415 Y59.9123 
G01 X-54.1440 Y60.0465 
G01 X-54.0267 Y60.1638 
G01 X-53.8925 Y60.2613 
G01 X-53.8607 Y60.2775 
G01 X-53.8607 Y68.3945 
G01 X-53.8252 Y68.5270 
G01 X-53.7567 Y68.6457 
G01 X-53.6597 Y68.7427 
G01 X-53.5410 Y68.8112 
G01 X-53.4085 Y68.8467 
G01 X-33.4897 Y68.8467 
G01 X-23.3581 Y78.9783 
G01 X-23.3581 Y80.2995 
G01 X-27.6203 Y76.0373 
G01 X-27.7390 Y75.9688 
G01 X-27.8714 Y75.9333 
G01 X-48.8366 Y75.9333 
G01 X-48.9690 Y75.9688 
G01 X-49.0877 Y76.0373 
G01 X-49.1847 Y76.1343 
G01 X-54.8257 Y81.7753 
G01 X-55.0773 Y81.7753 
G01 X-55.1465 Y81.6395 
G01 X-55.2440 Y81.5053 
G01 X-55.3613 Y81.3880 
G01 X-55.4955 Y81.2905 
G01 X-55.6434 Y81.2151 
G01 X-55.8012 Y81.1639 
G01 X-55.9650 Y81.1379 
G01 X-56.1310 Y81.1379 
G01 X-56.2948 Y81.1639 
G01 X-56.4526 Y81.2151 
G01 X-56.6005 Y81.2905 
G01 X-56.7347 Y81.3880 
G01 X-56.8520 Y81.5053 
G01 X-56.9495 Y81.6395 
G01 X-57.0249 Y81.7874 
G01 X-57.0761 Y81.9452 
G01 X-57.1021 Y82.1090 
G01 X-57.1021 Y82.2750 
G01 X-57.0761 Y82.4388 
G01 X-57.0249 Y82.5966 
G01 X-56.9495 Y82.7445 
G01 X-56.8520 Y82.8787 
G01 X-56.7347 Y82.9960 
G01 X-56.6005 Y83.0935 
G01 X-56.4526 Y83.1689 
G01 X-56.2948 Y83.2201 
G01 X-56.1310 Y83.2461 
G01 X-55.9650 Y83.2461 
G01 X-55.8012 Y83.2201 
G01 X-55.6434 Y83.1689 
G01 X-55.4955 Y83.0935 
G01 X-55.3613 Y82.9960 
G01 X-55.2440 Y82.8787 
G01 X-55.1989 Y82.8167 
G01 X-54.5414 Y82.8167 
G01 X-54.4090 Y82.7812 
G01 X-54.2903 Y82.7127 
G01 X-48.5523 Y76.9747 
G01 X-38.1127 Y76.9747 
G01 X-38.1127 Y81.3783 
G01 X-38.1445 Y81.3945 
G01 X-38.2787 Y81.4920 
G01 X-38.3960 Y81.6093 
G01 X-38.4935 Y81.7435 
G01 X-38.5689 Y81.8914 
G01 X-38.6201 Y82.0492 
G01 X-38.6461 Y82.2130 
G01 X-38.6461 Y82.3790 
G01 X-38.6201 Y82.5428 
G01 X-38.5689 Y82.7006 
G01 X-38.4935 Y82.8485 
G01 X-38.3960 Y82.9827 
G01 X-38.2787 Y83.1000 
G01 X-38.1445 Y83.1975 
G01 X-37.9966 Y83.2729 
G01 X-37.8388 Y83.3241 
G01 X-37.6750 Y83.3501 
G01 X-37.5090 Y83.3501 
G01 X-37.3452 Y83.3241 
G01 X-37.1874 Y83.2729 
G01 X-37.0395 Y83.1975 
G01 X-36.9053 Y83.1000 
G01 X-36.7880 Y82.9827 
G01 X-36.6905 Y82.8485 
G01 X-36.6151 Y82.7006 
G01 X-36.5639 Y82.5428 
G01 X-36.5379 Y82.3790 
G01 X-36.5379 Y82.2130 
G01 X-36.5639 Y82.0492 
G01 X-36.6151 Y81.8914 
G01 X-36.6905 Y81.7435 
G01 X-36.7880 Y81.6093 
G01 X-36.9053 Y81.4920 
G01 X-37.0395 Y81.3945 
G01 X-37.0713 Y81.3783 
G01 X-37.0713 Y76.9747 
G01 X-28.1557 Y76.9747 
G01 X-22.5147 Y82.6157 
G01 X-22.4177 Y82.7127 
G01 X-22.2990 Y82.7812 
G01 X-22.1666 Y82.8167 
G01 X-21.7631 Y82.8167 
G01 X-21.7180 Y82.8787 
G01 X-21.6007 Y82.9960 
G01 X-21.4665 Y83.0935 
G01 X-21.3186 Y83.1689 
G01 X-21.1608 Y83.2201 
G01 X-20.9970 Y83.2461 
G01 X-20.8310 Y83.2461 
G01 X-20.6672 Y83.2201 
G01 X-20.5094 Y83.1689 
G01 X-20.3615 Y83.0935 
G01 X-20.2273 Y82.9960 
G01 X-20.1100 Y82.8787 
G01 X-20.0125 Y82.7445 
G01 X-19.9371 Y82.5966 
G01 X-19.8859 Y82.4388 
G01 X-19.8599 Y82.2750 
G01 X-19.8599 Y82.1090 
G01 X-19.8859 Y81.9452 
G01 X-19.9371 Y81.7874 
G01 X-20.0125 Y81.6395 
G01 X-20.1100 Y81.5053 
G01 X-20.2273 Y81.3880 
G01 X-20.3615 Y81.2905 
G01 X-20.5094 Y81.2151 
G01 X-20.6672 Y81.1639 
G01 X-20.8310 Y81.1379 
G01 X-20.9970 Y81.1379 
G01 X-21.1608 Y81.1639 
G01 X-21.3186 Y81.2151 
G01 X-21.4665 Y81.2905 
G01 X-21.6007 Y81.3880 
G01 X-21.7180 Y81.5053 
G01 X-21.8155 Y81.6395 
G01 X-21.8839 Y81.7737 
G01 X-23.2515 Y80.4061 
G01 X-21.3415 Y80.4061 
G01 X-21.2995 Y80.3887 
G01 X-21.2673 Y80.3565 
G01 X-21.2499 Y80.3145 
G01 X-21.2499 Y78.3895 
G01 X-21.2673 Y78.3475 
G01 X-21.2995 Y78.3153 
G01 X-21.3415 Y78.2979 
G01 X-22.5657 Y78.2979 
G01 X-32.8573 Y68.0063 
G01 X-32.9543 Y67.9093 
G01 X-33.0730 Y67.8408 
G01 X-33.2054 Y67.8053 
G01 X-52.8193 Y67.8053 
G01 X-52.8193 Y60.2775 
G01 X-52.7875 Y60.2613 
G01 X-52.6533 Y60.1638 
G01 X-52.5360 Y60.0465 
G01 X-52.4385 Y59.9123 
G01 X-52.3631 Y59.7644 
G01 X-52.3119 Y59.6066 
G01 X-52.2859 Y59.4428 
G01 X-52.2859 Y57.3972 
G01 X-52.3119 Y57.2334 
G01 X-52.3631 Y57.0756 
G01 X-52.4385 Y56.9277 
G01 X-52.5360 Y56.7935 
G01 X-52.6533 Y56.6762 
G01 X-52.7875 Y56.5787 
G01 X-52.8193 Y56.5625 
G01 X-52.8193 Y52.9877 
G01 X-52.7875 Y52.9715 
G01 X-52.6533 Y52.8740 
G01 X-52.5360 Y52.7567 
G01 X-52.4385 Y52.6225 
G01 X-52.3631 Y52.4746 
G01 X-52.3119 Y52.3168 
G01 X-52.2859 Y52.1530 
G01 X-52.2859 Y51.9870 
G01 X-52.3119 Y51.8232 
G01 X-52.3631 Y51.6654 
G01 X-52.4385 Y51.5175 
G01 X-52.5360 Y51.3833 
G01 X-52.6533 Y51.2660 
G00 Z2.5400  
G00 X-55.1933 Y51.2660 
G01 Z-0.1778 F254   
G01 X-55.3275 Y51.1685 F508   
G01 X-55.4754 Y51.0931 
G01 X-55.6332 Y51.0419 
G01 X-55.7970 Y51.0159 
G01 X-55.9630 Y51.0159 
G01 X-56.1268 Y51.0419 
G01 X-56.2846 Y51.0931 
G01 X-56.4325 Y51.1685 
G01 X-56.5667 Y51.2660 
G01 X-56.6840 Y51.3833 
G01 X-56.7815 Y51.5175 
G01 X-56.8569 Y51.6654 
G01 X-56.9081 Y51.8232 
G01 X-56.9341 Y51.9870 
G01 X-56.9341 Y52.1530 
G01 X-56.9081 Y52.3168 
G01 X-56.8569 Y52.4746 
G01 X-56.7815 Y52.6225 
G01 X-56.6840 Y52.7567 
G01 X-56.5667 Y52.8740 
G01 X-56.4325 Y52.9715 
G01 X-56.4007 Y52.9877 
G01 X-56.4007 Y56.5625 
G01 X-56.4325 Y56.5787 
G01 X-56.5667 Y56.6762 
G01 X-56.6840 Y56.7935 
G01 X-56.7815 Y56.9277 
G01 X-56.8569 Y57.0756 
G01 X-56.9081 Y57.2334 
G01 X-56.9341 Y57.3972 
G01 X-56.9341 Y59.4428 
G01 X-56.9081 Y59.6066 
G01 X-56.8569 Y59.7644 
G01 X-56.7815 Y59.9123 
G01 X-56.6840 Y60.0465 
G01 X-56.5667 Y60.1638 
G01 X-56.4325 Y60.2613 
G01 X-56.4007 Y60.2775 
G01 X-56.4007 Y78.0465 
G01 X-56.3652 Y78.1790 
G01 X-56.2967 Y78.2977 
G01 X-55.6378 Y78.9565 
G01 X-55.6861 Y79.1052 
G01 X-55.7121 Y79.2690 
G01 X-55.7121 Y79.4350 
G01 X-55.6861 Y79.5988 
G01 X-55.6349 Y79.7566 
G01 X-55.5595 Y79.9045 
G01 X-55.4620 Y80.0387 
G01 X-55.3447 Y80.1560 
G01 X-55.2105 Y80.2535 
G01 X-55.0626 Y80.3289 
G01 X-54.9048 Y80.3801 
G01 X-54.7410 Y80.4061 
G01 X-54.5750 Y80.4061 
G01 X-54.4112 Y80.3801 
G01 X-54.2534 Y80.3289 
G01 X-54.1055 Y80.2535 
G01 X-53.9713 Y80.1560 
G01 X-53.8540 Y80.0387 
G01 X-53.7565 Y79.9045 
G01 X-53.6811 Y79.7566 
G01 X-53.6299 Y79.5988 
G01 X-53.6039 Y79.4350 
G01 X-53.6039 Y79.2690 
G01 X-53.6299 Y79.1052 
G01 X-53.6811 Y78.9474 
G01 X-53.7565 Y78.7995 
G01 X-53.8540 Y78.6653 
G01 X-53.9713 Y78.5480 
G01 X-54.1055 Y78.4505 
G01 X-54.2534 Y78.3751 
G01 X-54.4112 Y78.3239 
G01 X-54.5750 Y78.2979 
G01 X-54.7410 Y78.2979 
G01 X-54.8124 Y78.3092 
G01 X-55.3593 Y77.7623 
G01 X-55.3593 Y60.2775 
G01 X-55.3275 Y60.2613 
G01 X-55.1933 Y60.1638 
G01 X-55.0760 Y60.0465 
G01 X-54.9785 Y59.9123 
G01 X-54.9031 Y59.7644 
G01 X-54.8519 Y59.6066 
G01 X-54.8259 Y59.4428 
G01 X-54.8259 Y57.3972 
G01 X-54.8519 Y57.2334 
G01 X-54.9031 Y57.0756 
G01 X-54.9785 Y56.9277 
G01 X-55.0760 Y56.7935 
G01 X-55.1933 Y56.6762 
G01 X-55.3275 Y56.5787 
G01 X-55.3593 Y56.5625 
G01 X-55.3593 Y52.9877 
G01 X-55.3275 Y52.9715 
G01 X-55.1933 Y52.8740 
G01 X-55.0760 Y52.7567 
G01 X-54.9785 Y52.6225 
G01 X-54.9031 Y52.4746 
G01 X-54.8519 Y52.3168 
G01 X-54.8259 Y52.1530 
G01 X-54.8259 Y51.9870 
G01 X-54.8519 Y51.8232 
G01 X-54.9031 Y51.6654 
G01 X-54.9785 Y51.5175 
G01 X-55.0760 Y51.3833 
G01 X-55.1933 Y51.2660 
G00 Z2.5400  
G00 X-57.7333 Y51.2660 
G01 Z-0.1778 F254   
G01 X-57.8675 Y51.1685 F508   
G01 X-58.0154 Y51.0931 
G01 X-58.1732 Y51.0419 
G01 X-58.3370 Y51.0159 
G01 X-58.5030 Y51.0159 
G01 X-58.6668 Y51.0419 
G01 X-58.8246 Y51.0931 
G01 X-58.9725 Y51.1685 
G01 X-59.1067 Y51.2660 
G01 X-59.2240 Y51.3833 
G01 X-59.3215 Y51.5175 
G01 X-59.3969 Y51.6654 
G01 X-59.4481 Y51.8232 
G01 X-59.4741 Y51.9870 
G01 X-59.4741 Y52.1530 
G01 X-59.4481 Y52.3168 
G01 X-59.3969 Y52.4746 
G01 X-59.3215 Y52.6225 
G01 X-59.2240 Y52.7567 
G01 X-59.1067 Y52.8740 
G01 X-58.9725 Y52.9715 
G01 X-58.9407 Y52.9877 
G01 X-58.9407 Y56.5625 
G01 X-58.9725 Y56.5787 
G01 X-59.1067 Y56.6762 
G01 X-59.2240 Y56.7935 
G01 X-59.3215 Y56.9277 
G01 X-59.3969 Y57.0756 
G01 X-59.4481 Y57.2334 
G01 X-59.4741 Y57.3972 
G01 X-59.4741 Y59.4428 
G01 X-59.4481 Y59.6066 
G01 X-59.3969 Y59.7644 
G01 X-59.3215 Y59.9123 
G01 X-59.2240 Y60.0465 
G01 X-59.1067 Y60.1638 
G01 X-58.9725 Y60.2613 
G01 X-58.9407 Y60.2775 
G01 X-58.9407 Y78.3006 
G01 X-58.9052 Y78.4330 
G01 X-58.8367 Y78.5517 
G01 X-58.4137 Y78.9746 
G01 X-58.4561 Y79.1052 
G01 X-58.4821 Y79.2690 
G01 X-58.4821 Y79.4350 
G01 X-58.4561 Y79.5988 
G01 X-58.4049 Y79.7566 
G01 X-58.3295 Y79.9045 
G01 X-58.2320 Y80.0387 
G01 X-58.1147 Y80.1560 
G01 X-57.9805 Y80.2535 
G01 X-57.8326 Y80.3289 
G01 X-57.6748 Y80.3801 
G01 X-57.5110 Y80.4061 
G01 X-57.3450 Y80.4061 
G01 X-57.1812 Y80.3801 
G01 X-57.0234 Y80.3289 
G01 X-56.8755 Y80.2535 
G01 X-56.7413 Y80.1560 
G01 X-56.6240 Y80.0387 
G01 X-56.5265 Y79.9045 
G01 X-56.4511 Y79.7566 
G01 X-56.3999 Y79.5988 
G01 X-56.3739 Y79.4350 
G01 X-56.3739 Y79.2690 
G01 X-56.3999 Y79.1052 
G01 X-56.4511 Y78.9474 
G01 X-56.5265 Y78.7995 
G01 X-56.6240 Y78.6653 
G01 X-56.7413 Y78.5480 
G01 X-56.8755 Y78.4505 
G01 X-57.0234 Y78.3751 
G01 X-57.1812 Y78.3239 
G01 X-57.3450 Y78.2979 
G01 X-57.5110 Y78.2979 
G01 X-57.6031 Y78.3125 
G01 X-57.8993 Y78.0163 
G01 X-57.8993 Y60.2775 
G01 X-57.8675 Y60.2613 
G01 X-57.7333 Y60.1638 
G01 X-57.6160 Y60.0465 
G01 X-57.5185 Y59.9123 
G01 X-57.4431 Y59.7644 
G01 X-57.3919 Y59.6066 
G01 X-57.3659 Y59.4428 
G01 X-57.3659 Y57.3972 
G01 X-57.3919 Y57.2334 
G01 X-57.4431 Y57.0756 
G01 X-57.5185 Y56.9277 
G01 X-57.6160 Y56.7935 
G01 X-57.7333 Y56.6762 
G01 X-57.8675 Y56.5787 
G01 X-57.8993 Y56.5625 
G01 X-57.8993 Y52.9877 
G01 X-57.8675 Y52.9715 
G01 X-57.7333 Y52.8740 
G01 X-57.6160 Y52.7567 
G01 X-57.5185 Y52.6225 
G01 X-57.4431 Y52.4746 
G01 X-57.3919 Y52.3168 
G01 X-57.3659 Y52.1530 
G01 X-57.3659 Y51.9870 
G01 X-57.3919 Y51.8232 
G01 X-57.4431 Y51.6654 
G01 X-57.5185 Y51.5175 
G01 X-57.6160 Y51.3833 
G01 X-57.7333 Y51.2660 
G00 Z2.5400  
G00 X-60.2733 Y51.2660 
G01 Z-0.1778 F254   
G01 X-60.4075 Y51.1685 F508   
G01 X-60.5554 Y51.0931 
G01 X-60.7132 Y51.0419 
G01 X-60.8770 Y51.0159 
G01 X-61.0430 Y51.0159 
G01 X-61.2068 Y51.0419 
G01 X-61.3646 Y51.0931 
G01 X-61.5125 Y51.1685 
G01 X-61.6467 Y51.2660 
G01 X-61.7640 Y51.3833 
G01 X-61.8615 Y51.5175 
G01 X-61.9369 Y51.6654 
G01 X-61.9881 Y51.8232 
G01 X-62.0141 Y51.9870 
G01 X-62.0141 Y52.1530 
G01 X-61.9881 Y52.3168 
G01 X-61.9369 Y52.4746 
G01 X-61.8615 Y52.6225 
G01 X-61.7640 Y52.7567 
G01 X-61.6467 Y52.8740 
G01 X-61.5125 Y52.9715 
G01 X-61.4807 Y52.9877 
G01 X-61.4807 Y56.5625 
G01 X-61.5125 Y56.5787 
G01 X-61.6467 Y56.6762 
G01 X-61.7640 Y56.7935 
G01 X-61.8615 Y56.9277 
G01 X-61.9369 Y57.0756 
G01 X-61.9881 Y57.2334 
G01 X-62.0141 Y57.3972 
G01 X-62.0141 Y59.4428 
G01 X-61.9881 Y59.6066 
G01 X-61.9369 Y59.7644 
G01 X-61.8615 Y59.9123 
G01 X-61.7640 Y60.0465 
G01 X-61.6467 Y60.1638 
G01 X-61.5125 Y60.2613 
G01 X-61.4807 Y60.2775 
G01 X-61.4807 Y78.5546 
G01 X-61.4452 Y78.6870 
G01 X-61.3767 Y78.8057 
G01 X-61.1896 Y78.9928 
G01 X-61.2261 Y79.1052 
G01 X-61.2521 Y79.2690 
G01 X-61.2521 Y79.4350 
G01 X-61.2261 Y79.5988 
G01 X-61.1749 Y79.7566 
G01 X-61.0995 Y79.9045 
G01 X-61.0020 Y80.0387 
G01 X-60.8847 Y80.1560 
G01 X-60.7505 Y80.2535 
G01 X-60.6026 Y80.3289 
G01 X-60.4448 Y80.3801 
G01 X-60.2810 Y80.4061 
G01 X-60.1150 Y80.4061 
G01 X-59.9512 Y80.3801 
G01 X-59.7934 Y80.3289 
G01 X-59.6455 Y80.2535 
G01 X-59.5113 Y80.1560 
G01 X-59.3940 Y80.0387 
G01 X-59.2965 Y79.9045 
G01 X-59.2211 Y79.7566 
G01 X-59.1699 Y79.5988 
G01 X-59.1439 Y79.4350 
G01 X-59.1439 Y79.2690 
G01 X-59.1699 Y79.1052 
G01 X-59.2211 Y78.9474 
G01 X-59.2965 Y78.7995 
G01 X-59.3940 Y78.6653 
G01 X-59.5113 Y78.5480 
G01 X-59.6455 Y78.4505 
G01 X-59.7934 Y78.3751 
G01 X-59.9512 Y78.3239 
G01 X-60.1150 Y78.2979 
G01 X-60.2810 Y78.2979 
G01 X-60.3938 Y78.3158 
G01 X-60.4393 Y78.2703 
G01 X-60.4393 Y60.2775 
G01 X-60.4075 Y60.2613 
G01 X-60.2733 Y60.1638 
G01 X-60.1560 Y60.0465 
G01 X-60.0585 Y59.9123 
G01 X-59.9831 Y59.7644 
G01 X-59.9319 Y59.6066 
G01 X-59.9059 Y59.4428 
G01 X-59.9059 Y57.3972 
G01 X-59.9319 Y57.2334 
G01 X-59.9831 Y57.0756 
G01 X-60.0585 Y56.9277 
G01 X-60.1560 Y56.7935 
G01 X-60.2733 Y56.6762 
G01 X-60.4075 Y56.5787 
G01 X-60.4393 Y56.5625 
G01 X-60.4393 Y52.9877 
G01 X-60.4075 Y52.9715 
G01 X-60.2733 Y52.8740 
G01 X-60.1560 Y52.7567 
G01 X-60.0585 Y52.6225 
G01 X-59.9831 Y52.4746 
G01 X-59.9319 Y52.3168 
G01 X-59.9059 Y52.1530 
G01 X-59.9059 Y51.9870 
G01 X-59.9319 Y51.8232 
G01 X-59.9831 Y51.6654 
G01 X-60.0585 Y51.5175 
G01 X-60.1560 Y51.3833 
G01 X-60.2733 Y51.2660 
G00 Z2.5400  
G00 X-62.8133 Y51.2660 
G01 Z-0.1778 F254   
G01 X-62.9475 Y51.1685 F508   
G01 X-63.0954 Y51.0931 
G01 X-63.2532 Y51.0419 
G01 X-63.4170 Y51.0159 
G01 X-63.5830 Y51.0159 
G01 X-63.7468 Y51.0419 
G01 X-63.9046 Y51.0931 
G01 X-64.0525 Y51.1685 
G01 X-64.1867 Y51.2660 
G01 X-64.3040 Y51.3833 
G01 X-64.4015 Y51.5175 
G01 X-64.4769 Y51.6654 
G01 X-64.5281 Y51.8232 
G01 X-64.5541 Y51.9870 
G01 X-64.5541 Y52.1530 
G01 X-64.5281 Y52.3168 
G01 X-64.4769 Y52.4746 
G01 X-64.4015 Y52.6225 
G01 X-64.3040 Y52.7567 
G01 X-64.1867 Y52.8740 
G01 X-64.0525 Y52.9715 
G01 X-64.0207 Y52.9877 
G01 X-64.0207 Y56.5625 
G01 X-64.0525 Y56.5787 
G01 X-64.1867 Y56.6762 
G01 X-64.3040 Y56.7935 
G01 X-64.4015 Y56.9277 
G01 X-64.4769 Y57.0756 
G01 X-64.5281 Y57.2334 
G01 X-64.5541 Y57.3972 
G01 X-64.5541 Y59.4428 
G01 X-64.5281 Y59.6066 
G01 X-64.4769 Y59.7644 
G01 X-64.4015 Y59.9123 
G01 X-64.3040 Y60.0465 
G01 X-64.1867 Y60.1638 
G01 X-64.0525 Y60.2613 
G01 X-64.0207 Y60.2775 
G01 X-64.0207 Y78.8085 
G01 X-63.9852 Y78.9410 
G01 X-63.9581 Y78.9880 
G01 X-63.9961 Y79.1052 
G01 X-64.0221 Y79.2690 
G01 X-64.0221 Y79.4350 
G01 X-63.9961 Y79.5988 
G01 X-63.9449 Y79.7566 
G01 X-63.8695 Y79.9045 
G01 X-63.7720 Y80.0387 
G01 X-63.6547 Y80.1560 
G01 X-63.5205 Y80.2535 
G01 X-63.3726 Y80.3289 
G01 X-63.2148 Y80.3801 
G01 X-63.0510 Y80.4061 
G01 X-62.8850 Y80.4061 
G01 X-62.7212 Y80.3801 
G01 X-62.5634 Y80.3289 
G01 X-62.4155 Y80.2535 
G01 X-62.2813 Y80.1560 
G01 X-62.1640 Y80.0387 
G01 X-62.0665 Y79.9045 
G01 X-61.9911 Y79.7566 
G01 X-61.9399 Y79.5988 
G01 X-61.9139 Y79.4350 
G01 X-61.9139 Y79.2690 
G01 X-61.9399 Y79.1052 
G01 X-61.9911 Y78.9474 
G01 X-62.0665 Y78.7995 
G01 X-62.1640 Y78.6653 
G01 X-62.2813 Y78.5480 
G01 X-62.4155 Y78.4505 
G01 X-62.5634 Y78.3751 
G01 X-62.7212 Y78.3239 
G01 X-62.8850 Y78.2979 
G01 X-62.9793 Y78.2979 
G01 X-62.9793 Y60.2775 
G01 X-62.9475 Y60.2613 
G01 X-62.8133 Y60.1638 
G01 X-62.6960 Y60.0465 
G01 X-62.5985 Y59.9123 
G01 X-62.5231 Y59.7644 
G01 X-62.4719 Y59.6066 
G01 X-62.4459 Y59.4428 
G01 X-62.4459 Y57.3972 
G01 X-62.4719 Y57.2334 
G01 X-62.5231 Y57.0756 
G01 X-62.5985 Y56.9277 
G01 X-62.6960 Y56.7935 
G01 X-62.8133 Y56.6762 
G01 X-62.9475 Y56.5787 
G01 X-62.9793 Y56.5625 
G01 X-62.9793 Y52.9877 
G01 X-62.9475 Y52.9715 
G01 X-62.8133 Y52.8740 
G01 X-62.6960 Y52.7567 
G01 X-62.5985 Y52.6225 
G01 X-62.5231 Y52.4746 
G01 X-62.4719 Y52.3168 
G01 X-62.4459 Y52.1530 
G01 X-62.4459 Y51.9870 
G01 X-62.4719 Y51.8232 
G01 X-62.5231 Y51.6654 
G01 X-62.5985 Y51.5175 
G01 X-62.6960 Y51.3833 
G01 X-62.8133 Y51.2660 
G00 Z2.5400  
G00 X-65.3533 Y51.2660 
G01 Z-0.1778 F254   
G01 X-65.4875 Y51.1685 F508   
G01 X-65.6354 Y51.0931 
G01 X-65.7932 Y51.0419 
G01 X-65.9570 Y51.0159 
G01 X-66.1230 Y51.0159 
G01 X-66.2868 Y51.0419 
G01 X-66.4446 Y51.0931 
G01 X-66.5925 Y51.1685 
G01 X-66.7267 Y51.2660 
G01 X-66.8440 Y51.3833 
G01 X-66.9415 Y51.5175 
G01 X-67.0169 Y51.6654 
G01 X-67.0681 Y51.8232 
G01 X-67.0941 Y51.9870 
G01 X-67.0941 Y52.1530 
G01 X-67.0681 Y52.3168 
G01 X-67.0169 Y52.4746 
G01 X-66.9415 Y52.6225 
G01 X-66.8440 Y52.7567 
G01 X-66.7267 Y52.8740 
G01 X-66.5925 Y52.9715 
G01 X-66.5607 Y52.9877 
G01 X-66.5607 Y56.5625 
G01 X-66.5925 Y56.5787 
G01 X-66.7267 Y56.6762 
G01 X-66.8440 Y56.7935 
G01 X-66.9415 Y56.9277 
G01 X-67.0169 Y57.0756 
G01 X-67.0681 Y57.2334 
G01 X-67.0941 Y57.3972 
G01 X-67.0941 Y59.4428 
G01 X-67.0681 Y59.6066 
G01 X-67.0169 Y59.7644 
G01 X-66.9415 Y59.9123 
G01 X-66.8440 Y60.0465 
G01 X-66.7267 Y60.1638 
G01 X-66.5925 Y60.2613 
G01 X-66.5607 Y60.2775 
G01 X-66.5607 Y78.2979 
G01 X-66.7005 Y78.2979 
G01 X-66.7425 Y78.3153 
G01 X-66.7747 Y78.3475 
G01 X-66.7921 Y78.3895 
G01 X-66.7921 Y80.3145 
G01 X-66.7747 Y80.3565 
G01 X-66.7425 Y80.3887 
G01 X-66.7005 Y80.4061 
G01 X-64.7755 Y80.4061 
G01 X-64.7335 Y80.3887 
G01 X-64.7013 Y80.3565 
G01 X-64.6839 Y80.3145 
G01 X-64.6839 Y78.3895 
G01 X-64.7013 Y78.3475 
G01 X-64.7335 Y78.3153 
G01 X-64.7755 Y78.2979 
G01 X-65.5193 Y78.2979 
G01 X-65.5193 Y60.2775 
G01 X-65.4875 Y60.2613 
G01 X-65.3533 Y60.1638 
G01 X-65.2360 Y60.0465 
G01 X-65.1385 Y59.9123 
G01 X-65.0631 Y59.7644 
G01 X-65.0119 Y59.6066 
G01 X-64.9859 Y59.4428 
G01 X-64.9859 Y57.3972 
G01 X-65.0119 Y57.2334 
G01 X-65.0631 Y57.0756 
G01 X-65.1385 Y56.9277 
G01 X-65.2360 Y56.7935 
G01 X-65.3533 Y56.6762 
G01 X-65.4875 Y56.5787 
G01 X-65.5193 Y56.5625 
G01 X-65.5193 Y52.9877 
G01 X-65.4875 Y52.9715 
G01 X-65.3533 Y52.8740 
G01 X-65.2360 Y52.7567 
G01 X-65.1385 Y52.6225 
G01 X-65.0631 Y52.4746 
G01 X-65.0119 Y52.3168 
G01 X-64.9859 Y52.1530 
G01 X-64.9859 Y51.9870 
G01 X-65.0119 Y51.8232 
G01 X-65.0631 Y51.6654 
G01 X-65.1385 Y51.5175 
G01 X-65.2360 Y51.3833 
G01 X-65.3533 Y51.2660 
G00 Z2.5400  
G00 X-70.4333 Y51.2660 
G01 Z-0.1778 F254   
G01 X-70.5675 Y51.1685 F508   
G01 X-70.7154 Y51.0931 
G01 X-70.8732 Y51.0419 
G01 X-71.0370 Y51.0159 
G01 X-71.2030 Y51.0159 
G01 X-71.3668 Y51.0419 
G01 X-71.5246 Y51.0931 
G01 X-71.6725 Y51.1685 
G01 X-71.8067 Y51.2660 
G01 X-71.9240 Y51.3833 
G01 X-72.0215 Y51.5175 
G01 X-72.0969 Y51.6654 
G01 X-72.1481 Y51.8232 
G01 X-72.1741 Y51.9870 
G01 X-72.1741 Y52.1530 
G01 X-72.1481 Y52.3168 
G01 X-72.0969 Y52.4746 
G01 X-72.0215 Y52.6225 
G01 X-71.9240 Y52.7567 
G01 X-71.8067 Y52.8740 
G01 X-71.6725 Y52.9715 
G01 X-71.6407 Y52.9877 
G01 X-71.6407 Y56.5625 
G01 X-71.6725 Y56.5787 
G01 X-71.8067 Y56.6762 
G01 X-71.9240 Y56.7935 
G01 X-72.0215 Y56.9277 
G01 X-72.0969 Y57.0756 
G01 X-72.1481 Y57.2334 
G01 X-72.1741 Y57.3972 
G01 X-72.1741 Y59.4428 
G01 X-72.1481 Y59.6066 
G01 X-72.0969 Y59.7644 
G01 X-72.0215 Y59.9123 
G01 X-71.9240 Y60.0465 
G01 X-71.8067 Y60.1638 
G01 X-71.6725 Y60.2613 
G01 X-71.5246 Y60.3367 
G01 X-71.3668 Y60.3879 
G01 X-71.2030 Y60.4139 
G01 X-71.0370 Y60.4139 
G01 X-70.8732 Y60.3879 
G01 X-70.7154 Y60.3367 
G01 X-70.5675 Y60.2613 
G01 X-70.4333 Y60.1638 
G01 X-70.3160 Y60.0465 
G01 X-70.2185 Y59.9123 
G01 X-70.1431 Y59.7644 
G01 X-70.0919 Y59.6066 
G01 X-70.0659 Y59.4428 
G01 X-70.0659 Y57.3972 
G01 X-70.0919 Y57.2334 
G01 X-70.1431 Y57.0756 
G01 X-70.2185 Y56.9277 
G01 X-70.3160 Y56.7935 
G01 X-70.4333 Y56.6762 
G01 X-70.5675 Y56.5787 
G01 X-70.5993 Y56.5625 
G01 X-70.5993 Y52.9877 
G01 X-70.5675 Y52.9715 
G01 X-70.4333 Y52.8740 
G01 X-70.3160 Y52.7567 
G01 X-70.2185 Y52.6225 
G01 X-70.1431 Y52.4746 
G01 X-70.0919 Y52.3168 
G01 X-70.0659 Y52.1530 
G01 X-70.0659 Y51.9870 
G01 X-70.0919 Y51.8232 
G01 X-70.1431 Y51.6654 
G01 X-70.2185 Y51.5175 
G01 X-70.3160 Y51.3833 
G01 X-70.4333 Y51.2660 
G00 Z2.5400  
G00 X-72.9733 Y51.2660 
G01 Z-0.1778 F254   
G01 X-73.1075 Y51.1685 F508   
G01 X-73.2554 Y51.0931 
G01 X-73.4132 Y51.0419 
G01 X-73.5770 Y51.0159 
G01 X-73.7430 Y51.0159 
G01 X-73.9068 Y51.0419 
G01 X-74.0646 Y51.0931 
G01 X-74.2125 Y51.1685 
G01 X-74.3467 Y51.2660 
G01 X-74.4640 Y51.3833 
G01 X-74.5615 Y51.5175 
G01 X-74.6369 Y51.6654 
G01 X-74.6881 Y51.8232 
G01 X-74.7141 Y51.9870 
G01 X-74.7141 Y52.1530 
G01 X-74.6881 Y52.3168 
G01 X-74.6369 Y52.4746 
G01 X-74.5615 Y52.6225 
G01 X-74.4640 Y52.7567 
G01 X-74.3467 Y52.8740 
G01 X-74.2125 Y52.9715 
G01 X-74.1807 Y52.9877 
G01 X-74.1807 Y56.5625 
G01 X-74.2125 Y56.5787 
G01 X-74.3467 Y56.6762 
G01 X-74.4640 Y56.7935 
G01 X-74.5615 Y56.9277 
G01 X-74.6369 Y57.0756 
G01 X-74.6881 Y57.2334 
G01 X-74.7141 Y57.3972 
G01 X-74.7141 Y59.4428 
G01 X-74.6881 Y59.6066 
G01 X-74.6369 Y59.7644 
G01 X-74.5615 Y59.9123 
G01 X-74.4640 Y60.0465 
G01 X-74.3467 Y60.1638 
G01 X-74.2125 Y60.2613 
G01 X-74.0646 Y60.3367 
G01 X-73.9068 Y60.3879 
G01 X-73.7430 Y60.4139 
G01 X-73.5770 Y60.4139 
G01 X-73.4132 Y60.3879 
G01 X-73.2554 Y60.3367 
G01 X-73.1075 Y60.2613 
G01 X-72.9733 Y60.1638 
G01 X-72.8560 Y60.0465 
G01 X-72.7585 Y59.9123 
G01 X-72.6831 Y59.7644 
G01 X-72.6319 Y59.6066 
G01 X-72.6059 Y59.4428 
G01 X-72.6059 Y57.3972 
G01 X-72.6319 Y57.2334 
G01 X-72.6831 Y57.0756 
G01 X-72.7585 Y56.9277 
G01 X-72.8560 Y56.7935 
G01 X-72.9733 Y56.6762 
G01 X-73.1075 Y56.5787 
G01 X-73.1393 Y56.5625 
G01 X-73.1393 Y52.9877 
G01 X-73.1075 Y52.9715 
G01 X-72.9733 Y52.8740 
G01 X-72.8560 Y52.7567 
G01 X-72.7585 Y52.6225 
G01 X-72.6831 Y52.4746 
G01 X-72.6319 Y52.3168 
G01 X-72.6059 Y52.1530 
G01 X-72.6059 Y51.9870 
G01 X-72.6319 Y51.8232 
G01 X-72.6831 Y51.6654 
G01 X-72.7585 Y51.5175 
G01 X-72.8560 Y51.3833 
G01 X-72.9733 Y51.2660 
G00 Z2.5400  
G00 X-75.5133 Y51.2660 
G01 Z-0.1778 F254   
G01 X-75.6475 Y51.1685 F508   
G01 X-75.7954 Y51.0931 
G01 X-75.9532 Y51.0419 
G01 X-76.1170 Y51.0159 
G01 X-76.2830 Y51.0159 
G01 X-76.4468 Y51.0419 
G01 X-76.4807 Y51.0529 
G01 X-79.4363 Y48.0973 
G01 X-79.5550 Y48.0288 
G01 X-79.6874 Y47.9933 
G01 X-119.7026 Y47.9933 
G01 X-119.8350 Y48.0288 
G01 X-119.9537 Y48.0973 
G01 X-120.0507 Y48.1943 
G01 X-120.1192 Y48.3130 
G01 X-120.1547 Y48.4454 
G01 X-120.1547 Y77.9909 
G01 X-136.3853 Y61.7603 
G01 X-136.3853 Y45.2247 
G01 X-135.2837 Y45.2247 
G01 X-135.2675 Y45.2565 
G01 X-135.1700 Y45.3907 
G01 X-135.0527 Y45.5080 
G01 X-134.9185 Y45.6055 
G01 X-134.7706 Y45.6809 
G01 X-134.6128 Y45.7321 
G01 X-134.4490 Y45.7581 
G01 X-134.2830 Y45.7581 
G01 X-134.1192 Y45.7321 
G01 X-133.9614 Y45.6809 
G01 X-133.8135 Y45.6055 
G01 X-133.6793 Y45.5080 
G01 X-133.5620 Y45.3907 
G01 X-133.4645 Y45.2565 
G01 X-133.3891 Y45.1086 
G01 X-133.3379 Y44.9508 
G01 X-133.3119 Y44.7870 
G01 X-133.3119 Y44.6210 
G01 X-133.3379 Y44.4572 
G01 X-133.3891 Y44.2994 
G01 X-133.4645 Y44.1515 
G01 X-133.5620 Y44.0173 
G01 X-133.6793 Y43.9000 
G01 X-133.8135 Y43.8025 
G01 X-133.8453 Y43.7863 
G01 X-133.8453 Y40.5417 
G01 X-133.8135 Y40.5255 
G01 X-133.6793 Y40.4280 
G01 X-133.5620 Y40.3107 
G01 X-133.4645 Y40.1765 
G01 X-133.3891 Y40.0286 
G01 X-133.3379 Y39.8708 
G01 X-133.3119 Y39.7070 
G01 X-133.3119 Y39.5410 
G01 X-133.3379 Y39.3772 
G01 X-133.3891 Y39.2194 
G01 X-133.4645 Y39.0715 
G01 X-133.5620 Y38.9373 
G01 X-133.6793 Y38.8200 
G01 X-133.8135 Y38.7225 
G01 X-133.8453 Y38.7063 
G01 X-133.8453 Y35.4617 
G01 X-133.8135 Y35.4455 
G01 X-133.6793 Y35.3480 
G01 X-133.5620 Y35.2307 
G01 X-133.4645 Y35.0965 
G01 X-133.3891 Y34.9486 
G01 X-133.3379 Y34.7908 
G01 X-133.3119 Y34.6270 
G01 X-133.3119 Y34.4610 
G01 X-133.3379 Y34.2972 
G01 X-133.3891 Y34.1394 
G01 X-133.4645 Y33.9915 
G01 X-133.5620 Y33.8573 
G01 X-133.6793 Y33.7400 
G01 X-133.8135 Y33.6425 
G01 X-133.8453 Y33.6263 
G01 X-133.8453 Y30.3817 
G01 X-133.8135 Y30.3655 
G01 X-133.6793 Y30.2680 
G01 X-133.5620 Y30.1507 
G01 X-133.4645 Y30.0165 
G01 X-133.3891 Y29.8686 
G01 X-133.3379 Y29.7108 
G01 X-133.3119 Y29.5470 
G01 X-133.3119 Y29.3810 
G01 X-133.3379 Y29.2172 
G01 X-133.3891 Y29.0594 
G01 X-133.4645 Y28.9115 
G01 X-133.5620 Y28.7773 
G01 X-133.6793 Y28.6600 
G01 X-133.8135 Y28.5625 
G01 X-133.9614 Y28.4871 
G01 X-134.1192 Y28.4359 
G01 X-134.2830 Y28.4099 
G01 X-134.4490 Y28.4099 
G01 X-134.6128 Y28.4359 
G01 X-134.7706 Y28.4871 
G01 X-134.9185 Y28.5625 
G01 X-135.0527 Y28.6600 
G01 X-135.1700 Y28.7773 
G01 X-135.2675 Y28.9115 
G01 X-135.3429 Y29.0594 
G01 X-135.3941 Y29.2172 
G01 X-135.4201 Y29.3810 
G01 X-135.4201 Y29.5470 
G01 X-135.3941 Y29.7108 
G01 X-135.3429 Y29.8686 
G01 X-135.2675 Y30.0165 
G01 X-135.1700 Y30.1507 
G01 X-135.0527 Y30.2680 
G01 X-134.9185 Y30.3655 
G01 X-134.8867 Y30.3817 
G01 X-134.8867 Y33.6263 
G01 X-134.9185 Y33.6425 
G01 X-135.0527 Y33.7400 
G01 X-135.1700 Y33.8573 
G01 X-135.2675 Y33.9915 
G01 X-135.3429 Y34.1394 
G01 X-135.3941 Y34.2972 
G01 X-135.4201 Y34.4610 
G01 X-135.4201 Y34.6270 
G01 X-135.3941 Y34.7908 
G01 X-135.3429 Y34.9486 
G01 X-135.2675 Y35.0965 
G01 X-135.1700 Y35.2307 
G01 X-135.0527 Y35.3480 
G01 X-134.9185 Y35.4455 
G01 X-134.8867 Y35.4617 
G01 X-134.8867 Y38.7063 
G01 X-134.9185 Y38.7225 
G01 X-135.0527 Y38.8200 
G01 X-135.1700 Y38.9373 
G01 X-135.2675 Y39.0715 
G01 X-135.3429 Y39.2194 
G01 X-135.3941 Y39.3772 
G01 X-135.4201 Y39.5410 
G01 X-135.4201 Y39.7070 
G01 X-135.3941 Y39.8708 
G01 X-135.3429 Y40.0286 
G01 X-135.2675 Y40.1765 
G01 X-135.1700 Y40.3107 
G01 X-135.0527 Y40.4280 
G01 X-134.9185 Y40.5255 
G01 X-134.8867 Y40.5417 
G01 X-134.8867 Y43.7863 
G01 X-134.9185 Y43.8025 
G01 X-135.0527 Y43.9000 
G01 X-135.1700 Y44.0173 
G01 X-135.2675 Y44.1515 
G01 X-135.2837 Y44.1833 
G01 X-136.3853 Y44.1833 
G01 X-136.3853 Y20.0787 
G01 X-131.2084 Y20.0787 
G01 X-131.1865 Y20.1115 
G01 X-131.0655 Y20.2325 
G01 X-130.9233 Y20.3275 
G01 X-130.7653 Y20.3929 
G01 X-130.5975 Y20.4263 
G01 X-130.4265 Y20.4263 
G01 X-130.2587 Y20.3929 
G01 X-130.1007 Y20.3275 
G01 X-129.9585 Y20.2325 
G01 X-129.8375 Y20.1115 
G01 X-129.7425 Y19.9693 
G01 X-129.6771 Y19.8113 
G01 X-129.6437 Y19.6435 
G01 X-129.6437 Y19.4725 
G01 X-129.6771 Y19.3047 
G01 X-129.7425 Y19.1467 
G01 X-129.8375 Y19.0045 
G01 X-129.9585 Y18.8835 
G01 X-130.1007 Y18.7885 
G01 X-130.2587 Y18.7231 
G01 X-130.4265 Y18.6897 
G01 X-130.5975 Y18.6897 
G01 X-130.7653 Y18.7231 
G01 X-130.9233 Y18.7885 
G01 X-131.0655 Y18.8835 
G01 X-131.1865 Y19.0045 
G01 X-131.2084 Y19.0373 
G01 X-136.3853 Y19.0373 
G01 X-136.3853 Y-14.4653 
G01 X-133.2517 Y-14.4653 
G01 X-133.2355 Y-14.4335 
G01 X-133.1380 Y-14.2993 
G01 X-133.0207 Y-14.1820 
G01 X-132.8865 Y-14.0845 
G01 X-132.7386 Y-14.0091 
G01 X-132.5808 Y-13.9579 
G01 X-132.4170 Y-13.9319 
G01 X-132.2510 Y-13.9319 
G01 X-132.0872 Y-13.9579 
G01 X-131.9294 Y-14.0091 
G01 X-131.7815 Y-14.0845 
G01 X-131.6473 Y-14.1820 
G01 X-131.5300 Y-14.2993 
G01 X-131.4325 Y-14.4335 
G01 X-131.4163 Y-14.4653 
G01 X-128.1717 Y-14.4653 
G01 X-128.1555 Y-14.4335 
G01 X-128.0580 Y-14.2993 
G01 X-127.9407 Y-14.1820 
G01 X-127.8065 Y-14.0845 
G01 X-127.6586 Y-14.0091 
G01 X-127.5008 Y-13.9579 
G01 X-127.3370 Y-13.9319 
G01 X-127.1710 Y-13.9319 
G01 X-127.0072 Y-13.9579 
G01 X-126.8494 Y-14.0091 
G01 X-126.7015 Y-14.0845 
G01 X-126.5673 Y-14.1820 
G01 X-126.4500 Y-14.2993 
G01 X-126.3525 Y-14.4335 
G01 X-126.3363 Y-14.4653 
G01 X-124.6757 Y-14.4653 
G01 X-117.8687 Y-7.6583 
G01 X-117.8687 Y-2.4714 
G01 X-117.8332 Y-2.3390 
G01 X-117.7647 Y-2.2203 
G01 X-117.6677 Y-2.1233 
G01 X-117.5490 Y-2.0548 
G01 X-117.4166 Y-2.0193 
G01 X-116.4877 Y-2.0193 
G01 X-116.4715 Y-1.9875 
G01 X-116.3740 Y-1.8533 
G01 X-116.2567 Y-1.7360 
G01 X-116.1225 Y-1.6385 
G01 X-115.9746 Y-1.5631 
G01 X-115.8168 Y-1.5119 
G01 X-115.6530 Y-1.4859 
G01 X-115.4870 Y-1.4859 
G01 X-115.3232 Y-1.5119 
G01 X-115.1654 Y-1.5631 
G01 X-115.0175 Y-1.6385 
G01 X-114.8833 Y-1.7360 
G01 X-114.7660 Y-1.8533 
G01 X-114.6685 Y-1.9875 
G01 X-114.5931 Y-2.1354 
G01 X-114.5419 Y-2.2932 
G01 X-114.5159 Y-2.4570 
G01 X-114.5159 Y-2.6230 
G01 X-114.5419 Y-2.7868 
G01 X-114.5931 Y-2.9446 
