(.../pcb-gcode-3.6.2.4/pcb-gcode.ulp)
(Copyright 2005 - 2012 by John Johnson)
(See readme.txt for licensing terms.)
(This file generated from the board:)
(.../main_board/rev_1/integration_board.brd)
(Current profile is .../pcb-gcode-3.6.2.4/profiles/mach.pp  )
(This file generated 4/18/2015 1:12:51 PM)
(Settings from pcb-machine.h)
(spindle on time = 3.0000)
(spindle speed = 20000.0000)
(tool change at 0.0000  0.0000  1.0000  )
(feed rate xy = F0     )
(feed rate z  = F20    )
(Z Axis Settings)
(  High     Up        Down     Drill)
(0.5000  	0.1000  	-0.0070 	-0.0320 )
(Settings from pcb-defaults.h)
(isolate min = 0.0010)
(isolate max = 0.0200)
(isolate step = 0.0050)
(Generated top outlines, top drill, bottom outlines, bottom drill, )
(Unit of measure: inch)
( Tool|       Size       |  Min Sub |  Max Sub |   Count )
( T01 | 0.813mm 0.0320in | 0.0000in | 0.0000in |       0 )
( T02 | 0.900mm 0.0354in | 0.0000in | 0.0000in |       0 )
( T03 | 1.000mm 0.0394in | 0.0000in | 0.0000in |       0 )
( T04 | 1.016mm 0.0400in | 0.0000in | 0.0000in |       0 )
( T05 | 1.118mm 0.0440in | 0.0000in | 0.0000in |       0 )
( T06 | 1.300mm 0.0512in | 0.0000in | 0.0000in |       0 )
( T07 | 2.500mm 0.0984in | 0.0000in | 0.0000in |       0 )
( T08 | 2.997mm 0.1180in | 0.0000in | 0.0000in |       0 )
( T09 | 3.200mm 0.1260in | 0.0000in | 0.0000in |       0 )
( T10 | 3.302mm 0.1300in | 0.0000in | 0.0000in |       0 )
(Inch Mode)
G20
(Absolute Coordinates)
G90
S20000
G00 Z0.5000  
G00 X0.0000  Y0.0000  
M03
G04 P3.000000
M05
G00 Z1.0000  
M06 T01  ; 0.0320  
G01 Z0.0000  F20    
M06 
G00 Z0.1000  
M03
G04 P3.000000
G82 X4.4500  Y-0.1000 Z-0.0320 F20    R0.1000  P1.000000
G82 X4.5500  Y-0.1000 
G82 X5.0100  Y-0.4900 
G82 X5.0100  Y-0.5900 
G82 X5.2100  Y-0.5900 
G82 X5.2100  Y-0.4900 
G82 X5.1900  Y1.1600  
G82 X5.2900  Y1.1600  
G82 X5.2900  Y1.3600  
G82 X5.1900  Y1.3600  
G82 X5.1900  Y1.5600  
G82 X5.2900  Y1.5600  
G82 X5.2900  Y1.7600  
G82 X5.1900  Y1.7600  
M05
G00 Z1.0000  
G00 X0.0000  Y0.0000  
M06 T02  ; 0.0354  
G01 Z0.0000  F20    
M06 
G00 Z0.1000  
M03
G04 P3.000000
G82 X4.0000  Y-0.1000 Z-0.0320 F20    R0.1000  P1.000000
G82 X4.3000  Y-0.1000 
G82 X5.0100  Y-0.0400 
G82 X5.2100  Y-0.0400 
G82 X5.2100  Y-0.3400 
G82 X5.0100  Y-0.3400 
G82 X5.0400  Y1.1600  
G82 X5.0400  Y1.3600  
G82 X5.0400  Y1.5600  
G82 X5.0400  Y1.7600  
G82 X4.7400  Y1.7600  
G82 X4.7400  Y1.5600  
G82 X4.7400  Y1.3600  
G82 X4.7400  Y1.1600  
M05
G00 Z1.0000  
G00 X0.0000  Y0.0000  
M06 T03  ; 0.0394  
G01 Z0.0000  F20    
M06 
G00 Z0.1000  
M03
G04 P3.000000
G82 X4.2117  Y2.4700  Z-0.0320 F20    R0.1000  P1.000000
G82 X4.4283  Y2.4700  
G82 X4.9217  Y0.7700  
G82 X5.1383  Y0.7700  
M05
G00 Z1.0000  
G00 X0.0000  Y0.0000  
M06 T04  ; 0.0400  
G01 Z0.0000  F20    
M06 
G00 Z0.1000  
M03
G04 P3.000000
G82 X0.4419  Y3.1241  Z-0.0320 F20    R0.1000  P1.000000
G82 X0.5509  Y3.1241  
G82 X0.6600  Y3.1241  
G82 X0.7691  Y3.1241  
G82 X0.8781  Y3.1241  
G82 X0.8234  Y3.2359  
G82 X0.7143  Y3.2359  
G82 X0.6057  Y3.2359  
G82 X0.4966  Y3.2359  
G82 X1.4800  Y3.2400  
G82 X1.5800  Y3.2400  
G82 X2.1519  Y3.1241  
G82 X2.2609  Y3.1241  
G82 X2.3700  Y3.1241  
G82 X2.4791  Y3.1241  
G82 X2.5881  Y3.1241  
G82 X2.5334  Y3.2359  
G82 X2.4243  Y3.2359  
G82 X2.3157  Y3.2359  
G82 X2.2066  Y3.2359  
G82 X2.2000  Y2.0500  
G82 X2.3000  Y2.0500  
G82 X2.4000  Y2.0500  
G82 X2.5000  Y2.0500  
G82 X2.6000  Y2.0500  
G82 X2.8000  Y2.0500  
G82 X2.9000  Y2.0500  
G82 X3.0000  Y2.0500  
G82 X3.1000  Y2.0500  
G82 X3.2000  Y2.0500  
G82 X3.3000  Y2.0500  
G82 X3.6200  Y2.5300  
G82 X3.6200  Y2.6300  
G82 X3.6200  Y2.7300  
G82 X3.6200  Y2.8300  
G82 X3.7200  Y2.8300  
G82 X3.7200  Y2.7300  
G82 X3.7200  Y2.6300  
G82 X3.7200  Y2.5300  
G82 X2.1000  Y2.0500  
G82 X2.0000  Y2.0500  
G82 X1.9000  Y2.0500  
G82 X1.7000  Y2.0500  
G82 X1.6000  Y2.0500  
G82 X1.5000  Y2.0500  
G82 X1.4000  Y2.0500  
G82 X1.3000  Y2.0500  
G82 X1.2000  Y2.0500  
G82 X1.1000  Y2.0500  
G82 X1.0000  Y2.0500  
G82 X0.9000  Y1.8500  
G82 X0.8000  Y1.8500  
G82 X0.8000  Y1.7500  
G82 X0.9000  Y1.7500  
G82 X0.9000  Y1.6500  
G82 X0.9000  Y1.5500  
G82 X0.8000  Y1.5500  
G82 X0.8000  Y1.6500  
G82 X0.8000  Y1.4500  
G82 X0.8000  Y1.3500  
G82 X0.9000  Y1.3500  
G82 X0.9000  Y1.4500  
G82 X0.9000  Y1.2500  
G82 X0.8000  Y1.2500  
G82 X0.8000  Y1.1500  
G82 X0.8000  Y1.0500  
G82 X0.9000  Y1.0500  
G82 X0.9000  Y1.1500  
G82 X0.9000  Y0.9500  
G82 X0.9000  Y0.8500  
G82 X0.9000  Y0.7500  
G82 X0.9000  Y0.6500  
G82 X0.9000  Y0.5500  
G82 X0.8000  Y0.5500  
G82 X0.8000  Y0.6500  
G82 X0.8000  Y0.7500  
G82 X0.8000  Y0.8500  
G82 X0.8000  Y0.9500  
G82 X0.8000  Y0.4500  
G82 X0.9000  Y0.4500  
G82 X0.9000  Y0.3500  
G82 X0.9000  Y0.2500  
G82 X0.8000  Y0.2500  
G82 X0.8000  Y0.3500  
G82 X0.8000  Y0.1500  
G82 X0.9000  Y0.1500  
G82 X0.7600  Y-0.0800 
G82 X0.6600  Y-0.0800 
G82 X0.5600  Y-0.0800 
G82 X0.5600  Y-0.1800 
G82 X0.6600  Y-0.1800 
G82 X0.7600  Y-0.1800 
G82 X1.2000  Y0.1500  
G82 X1.3000  Y0.1500  
G82 X1.4000  Y0.1500  
G82 X1.5000  Y0.1500  
G82 X1.6000  Y0.1500  
G82 X1.7000  Y0.1500  
G82 X1.8000  Y0.1500  
G82 X1.9000  Y0.1500  
G82 X2.1000  Y0.1500  
G82 X2.2000  Y0.1500  
G82 X2.3000  Y0.1500  
G82 X2.4000  Y0.1500  
G82 X2.5000  Y0.1500  
G82 X2.6000  Y0.1500  
G82 X2.7000  Y0.1500  
G82 X2.8000  Y0.1500  
G82 X2.9600  Y0.1500  
G82 X3.0600  Y0.1500  
G82 X3.1600  Y0.1500  
G82 X3.2600  Y0.1500  
G82 X3.3600  Y0.1500  
G82 X3.4600  Y0.1500  
G82 X3.5600  Y0.1500  
G82 X3.6600  Y0.1500  
G82 X5.0700  Y0.3000  
G82 X5.1700  Y0.3000  
G82 X7.5300  Y-0.3100 
G82 X7.5300  Y-0.4100 
G82 X7.5300  Y-0.5100 
G82 X7.5300  Y-0.6100 
G82 X7.5300  Y-0.9400 
G82 X7.5300  Y-1.0400 
G82 X7.5300  Y-1.1400 
G82 X7.5300  Y-1.2400 
G82 X-0.1500 Y0.1000  
G82 X-0.1500 Y0.2000  
G82 X-0.1500 Y0.3000  
G82 X-0.1500 Y0.4000  
G82 X-0.1500 Y1.5000  
G82 X-0.1500 Y1.6000  
G82 X-0.1500 Y1.7000  
G82 X-0.1500 Y1.8000  
M05
G00 Z1.0000  
G00 X0.0000  Y0.0000  
M06 T05  ; 0.0440  
G01 Z0.0000  F20    
M06 
G00 Z0.1000  
M03
G04 P3.000000
G82 X0.4500  Y0.1500  Z-0.0320 F20    R0.1000  P1.000000
G82 X0.4500  Y0.2500  
G82 X0.4500  Y0.3500  
G82 X0.4500  Y0.4500  
G82 X0.4500  Y0.5500  
G82 X0.4500  Y0.6500  
G82 X0.4500  Y0.7500  
G82 X0.4500  Y0.8500  
G82 X0.4500  Y0.9500  
G82 X0.4500  Y1.0500  
G82 X0.4500  Y1.1500  
G82 X0.4500  Y1.2500  
G82 X0.4500  Y1.3500  
G82 X0.4500  Y1.4500  
G82 X0.4500  Y1.5500  
G82 X0.4500  Y1.6500  
G82 X0.4500  Y1.7500  
G82 X0.4500  Y1.8500  
G82 X1.0000  Y2.3000  
G82 X1.1000  Y2.3000  
G82 X1.2000  Y2.3000  
G82 X1.3000  Y2.3000  
G82 X1.4000  Y2.3000  
G82 X1.5000  Y2.3000  
G82 X1.6000  Y2.3000  
G82 X1.7000  Y2.3000  
G82 X1.9000  Y2.3000  
G82 X2.0000  Y2.3000  
G82 X2.1000  Y2.3000  
G82 X2.2000  Y2.3000  
G82 X2.3000  Y2.3000  
G82 X2.4000  Y2.3000  
G82 X2.5000  Y2.3000  
G82 X2.6000  Y2.3000  
G82 X2.8000  Y2.3000  
G82 X2.9000  Y2.3000  
G82 X3.0000  Y2.3000  
G82 X3.1000  Y2.3000  
G82 X3.2000  Y2.3000  
G82 X3.3000  Y2.3000  
G82 X3.2600  Y-0.1000 
G82 X3.1600  Y-0.1000 
G82 X3.0600  Y-0.1000 
G82 X2.9600  Y-0.1000 
G82 X2.8000  Y-0.1000 
G82 X2.7000  Y-0.1000 
G82 X2.6000  Y-0.1000 
G82 X2.5000  Y-0.1000 
G82 X2.4000  Y-0.1000 
G82 X2.3000  Y-0.1000 
G82 X2.2000  Y-0.1000 
G82 X2.1000  Y-0.1000 
G82 X1.9000  Y-0.1000 
G82 X1.8000  Y-0.1000 
G82 X1.7000  Y-0.1000 
G82 X1.6000  Y-0.1000 
G82 X1.5000  Y-0.1000 
G82 X1.4000  Y-0.1000 
G82 X1.3000  Y-0.1000 
G82 X1.2000  Y-0.1000 
G82 X3.3600  Y-0.1000 
G82 X3.4600  Y-0.1000 
G82 X3.5600  Y-0.1000 
G82 X3.6600  Y-0.1000 
M05
G00 Z1.0000  
G00 X0.0000  Y0.0000  
M06 T06  ; 0.0512  
G01 Z0.0000  F20    
M06 
G00 Z0.1000  
M03
G04 P3.000000
G82 X0.3900  Y-0.8963 Z-0.0320 F20    R0.1000  P1.000000
G82 X0.3900  Y-1.0931 
G82 X0.3900  Y-1.2900 
G82 X1.1400  Y-1.2900 
G82 X1.1400  Y-1.0931 
G82 X1.1400  Y-0.8963 
G82 X1.8900  Y-0.8963 
G82 X1.8900  Y-1.0931 
G82 X1.8900  Y-1.2900 
G82 X2.6400  Y-1.2900 
G82 X2.6400  Y-1.0931 
G82 X2.6400  Y-0.8963 
M05
G00 Z1.0000  
G00 X0.0000  Y0.0000  
M06 T07  ; 0.0984  
G01 Z0.0000  F20    
M06 
G00 Z0.1000  
M03
G04 P3.000000
G82 X4.3200  Y2.4700  Z-0.0320 F20    R0.1000  P1.000000
G82 X5.0300  Y0.7700  
M05
G00 Z1.0000  
G00 X0.0000  Y0.0000  
M06 T08  ; 0.1180  
G01 Z0.0000  F20    
M06 
G00 Z0.1000  
M03
G04 P3.000000
G82 X3.4150  Y-1.0287 Z-0.0320 F20    R0.1000  P1.000000
G82 X3.6000  Y-0.9106 
G82 X3.6000  Y-1.1469 
G82 X4.3800  Y3.1506  
G82 X4.5650  Y3.2687  
G82 X4.3800  Y3.3869  
M05
G00 Z1.0000  
G00 X0.0000  Y0.0000  
M06 T09  ; 0.1260  
G01 Z0.0000  F20    
M06 
G00 Z0.1000  
M03
G04 P3.000000
G82 X0.8000  Y2.0500  Z-0.0320 F20    R0.1000  P1.000000
G82 X2.0000  Y1.8500  
G82 X2.0000  Y0.7500  
G82 X1.0500  Y0.1500  
G82 X4.0000  Y0.1500  
G82 X4.0500  Y2.0500  
M05
G00 Z1.0000  
G00 X0.0000  Y0.0000  
M06 T10  ; 0.1300  
G01 Z0.0000  F20    
M06 
G00 Z0.1000  
M03
G04 P3.000000
G82 X0.1679  Y3.1800  Z-0.0320 F20    R0.1000  P1.000000
G82 X1.1521  Y3.1800  
G82 X1.8779  Y3.1800  
G82 X2.8621  Y3.1800  
T01 
G00 Z0.5000  
M05
M02
