(.../pcb-gcode-3.6.2.4/pcb-gcode.ulp)
(Copyright 2005 - 2012 by John Johnson)
(See readme.txt for licensing terms.)
(This file generated from the board:)
(.../main_board/rev_1/integration_board.brd)
(Current profile is .../pcb-gcode-3.6.2.4/profiles/mach.pp  )
(This file generated 4/18/2015 1:11:45 PM)
(Settings from pcb-machine.h)
(spindle on time = 3.0000)
(  Tool Size)
(0.0070  )
(spindle speed = 30000.0000)
(tool change at 0.0000  0.0000  1.0000  )
(feed rate xy = F20    )
(feed rate z  = F10    )
(Z Axis Settings)
(  High     Up        Down     Drill)
(0.5000  	0.1000  	-0.0070 	-0.0320 )
(Settings from pcb-defaults.h)
(isolate min = 0.0010)
(isolate max = 0.0200)
(isolate step = 0.0050)
(Generated top outlines, top drill, bottom outlines, bottom drill, )
(Unit of measure: inch)
(Inch Mode)
G20
(Absolute Coordinates)
G90
S30000
G00 Z0.5000  
G00 X0.0000  Y0.0000  
M03
G04 P3.000000
G00 Z0.1000  
G00 X-0.1092 Y0.0605  
G01 Z-0.0070 F10    
G01 X-0.1105 Y0.0592  F20    
G01 X-0.1121 Y0.0585  
G01 X-0.1879 Y0.0585  
G01 X-0.1895 Y0.0592  
G01 X-0.1908 Y0.0605  
G01 X-0.1915 Y0.0621  
G01 X-0.1915 Y0.1379  
G01 X-0.1908 Y0.1395  
G01 X-0.1895 Y0.1408  
G01 X-0.1879 Y0.1415  
G01 X-0.1121 Y0.1415  
G01 X-0.1105 Y0.1408  
G01 X-0.1092 Y0.1395  
G01 X-0.1085 Y0.1379  
G01 X-0.1085 Y0.0621  
G01 X-0.1092 Y0.0605  
G00 Z0.1000  
G00 X-0.1183 Y0.1730  
G01 Z-0.0070 F10    
G01 X-0.1230 Y0.1683  F20    
G01 X-0.1282 Y0.1645  
G01 X-0.1341 Y0.1615  
G01 X-0.1403 Y0.1595  
G01 X-0.1467 Y0.1585  
G01 X-0.1533 Y0.1585  
G01 X-0.1597 Y0.1595  
G01 X-0.1659 Y0.1615  
G01 X-0.1718 Y0.1645  
G01 X-0.1770 Y0.1683  
G01 X-0.1817 Y0.1730  
G01 X-0.1855 Y0.1782  
G01 X-0.1885 Y0.1841  
G01 X-0.1905 Y0.1903  
G01 X-0.1915 Y0.1967  
G01 X-0.1915 Y0.2033  
G01 X-0.1905 Y0.2097  
G01 X-0.1885 Y0.2159  
G01 X-0.1855 Y0.2218  
G01 X-0.1817 Y0.2270  
G01 X-0.1770 Y0.2317  
G01 X-0.1718 Y0.2355  
G01 X-0.1659 Y0.2385  
G01 X-0.1597 Y0.2405  
G01 X-0.1533 Y0.2415  
G01 X-0.1467 Y0.2415  
G01 X-0.1403 Y0.2405  
G01 X-0.1341 Y0.2385  
G01 X-0.1282 Y0.2355  
G01 X-0.1230 Y0.2317  
G01 X-0.1183 Y0.2270  
G01 X-0.1145 Y0.2218  
G01 X-0.1115 Y0.2159  
G01 X-0.1095 Y0.2097  
G01 X-0.1085 Y0.2033  
G01 X-0.1085 Y0.1967  
G01 X-0.1095 Y0.1903  
G01 X-0.1115 Y0.1841  
G01 X-0.1145 Y0.1782  
G01 X-0.1183 Y0.1730  
G00 Z0.1000  
G00 X-0.1183 Y0.2730  
G01 Z-0.0070 F10    
G01 X-0.1230 Y0.2683  F20    
G01 X-0.1282 Y0.2645  
G01 X-0.1341 Y0.2615  
G01 X-0.1403 Y0.2595  
G01 X-0.1467 Y0.2585  
G01 X-0.1533 Y0.2585  
G01 X-0.1597 Y0.2595  
G01 X-0.1659 Y0.2615  
G01 X-0.1718 Y0.2645  
G01 X-0.1770 Y0.2683  
G01 X-0.1817 Y0.2730  
G01 X-0.1855 Y0.2782  
G01 X-0.1885 Y0.2841  
G01 X-0.1905 Y0.2903  
G01 X-0.1915 Y0.2967  
G01 X-0.1915 Y0.3033  
G01 X-0.1905 Y0.3097  
G01 X-0.1885 Y0.3159  
G01 X-0.1855 Y0.3218  
G01 X-0.1817 Y0.3270  
G01 X-0.1770 Y0.3317  
G01 X-0.1718 Y0.3355  
G01 X-0.1659 Y0.3385  
G01 X-0.1597 Y0.3405  
G01 X-0.1533 Y0.3415  
G01 X-0.1467 Y0.3415  
G01 X-0.1403 Y0.3405  
G01 X-0.1341 Y0.3385  
G01 X-0.1282 Y0.3355  
G01 X-0.1230 Y0.3317  
G01 X-0.1183 Y0.3270  
G01 X-0.1145 Y0.3218  
G01 X-0.1115 Y0.3159  
G01 X-0.1095 Y0.3097  
G01 X-0.1085 Y0.3033  
G01 X-0.1085 Y0.2967  
G01 X-0.1095 Y0.2903  
G01 X-0.1115 Y0.2841  
G01 X-0.1145 Y0.2782  
G01 X-0.1183 Y0.2730  
G00 Z0.1000  
G00 X-0.1183 Y0.3730  
G01 Z-0.0070 F10    
G01 X-0.1230 Y0.3683  F20    
G01 X-0.1282 Y0.3645  
G01 X-0.1341 Y0.3615  
G01 X-0.1403 Y0.3595  
G01 X-0.1467 Y0.3585  
G01 X-0.1533 Y0.3585  
G01 X-0.1597 Y0.3595  
G01 X-0.1659 Y0.3615  
G01 X-0.1718 Y0.3645  
G01 X-0.1770 Y0.3683  
G01 X-0.1817 Y0.3730  
G01 X-0.1855 Y0.3782  
G01 X-0.1885 Y0.3841  
G01 X-0.1905 Y0.3903  
G01 X-0.1915 Y0.3967  
G01 X-0.1915 Y0.4033  
G01 X-0.1905 Y0.4097  
G01 X-0.1885 Y0.4159  
G01 X-0.1855 Y0.4218  
G01 X-0.1817 Y0.4270  
G01 X-0.1770 Y0.4317  
G01 X-0.1718 Y0.4355  
G01 X-0.1659 Y0.4385  
G01 X-0.1597 Y0.4405  
G01 X-0.1533 Y0.4415  
G01 X-0.1467 Y0.4415  
G01 X-0.1403 Y0.4405  
G01 X-0.1341 Y0.4385  
G01 X-0.1282 Y0.4355  
G01 X-0.1230 Y0.4317  
G01 X-0.1183 Y0.4270  
G01 X-0.1145 Y0.4218  
G01 X-0.1115 Y0.4159  
G01 X-0.1095 Y0.4097  
G01 X-0.1085 Y0.4033  
G01 X-0.1085 Y0.3967  
G01 X-0.1095 Y0.3903  
G01 X-0.1115 Y0.3841  
G01 X-0.1145 Y0.3782  
G01 X-0.1183 Y0.3730  
G00 Z0.1000  
G00 X0.3775  Y0.3718  
G01 Z-0.0070 F10    
G01 X0.3813  Y0.3770  F20    
G01 X0.3860  Y0.3817  
G01 X0.3912  Y0.3855  
G01 X0.3971  Y0.3885  
G01 X0.4033  Y0.3905  
G01 X0.4097  Y0.3915  
G01 X0.4903  Y0.3915  
G01 X0.4967  Y0.3905  
G01 X0.5029  Y0.3885  
G01 X0.5088  Y0.3855  
G01 X0.5140  Y0.3817  
G01 X0.5187  Y0.3770  
G01 X0.5225  Y0.3718  
G01 X0.5255  Y0.3659  
G01 X0.5275  Y0.3597  
G01 X0.5285  Y0.3533  
G01 X0.5285  Y0.3467  
G01 X0.5275  Y0.3403  
G01 X0.5255  Y0.3341  
G01 X0.5225  Y0.3282  
G01 X0.5187  Y0.3230  
G01 X0.5140  Y0.3183  
G01 X0.5088  Y0.3145  
G01 X0.5029  Y0.3115  
G01 X0.4967  Y0.3095  
G01 X0.4903  Y0.3085  
G01 X0.4097  Y0.3085  
G01 X0.4033  Y0.3095  
G01 X0.3971  Y0.3115  
G01 X0.3912  Y0.3145  
G01 X0.3860  Y0.3183  
G01 X0.3813  Y0.3230  
G01 X0.3775  Y0.3282  
G01 X0.3745  Y0.3341  
G01 X0.3725  Y0.3403  
G01 X0.3715  Y0.3467  
G01 X0.3715  Y0.3533  
G01 X0.3725  Y0.3597  
G01 X0.3745  Y0.3659  
G01 X0.3775  Y0.3718  
G00 Z0.1000  
G00 X0.3860  Y0.4183  
G01 Z-0.0070 F10    
G01 X0.3813  Y0.4230  F20    
G01 X0.3775  Y0.4282  
G01 X0.3745  Y0.4341  
G01 X0.3725  Y0.4403  
G01 X0.3715  Y0.4467  
G01 X0.3715  Y0.4533  
G01 X0.3725  Y0.4597  
G01 X0.3745  Y0.4659  
G01 X0.3775  Y0.4718  
G01 X0.3813  Y0.4770  
G01 X0.3860  Y0.4817  
G01 X0.3912  Y0.4855  
G01 X0.3971  Y0.4885  
G01 X0.4033  Y0.4905  
G01 X0.4097  Y0.4915  
G01 X0.4903  Y0.4915  
G01 X0.4967  Y0.4905  
G01 X0.5029  Y0.4885  
G01 X0.5088  Y0.4855  
G01 X0.5140  Y0.4817  
G01 X0.5187  Y0.4770  
G01 X0.5225  Y0.4718  
G01 X0.5255  Y0.4659  
G01 X0.5275  Y0.4597  
G01 X0.5285  Y0.4533  
G01 X0.5285  Y0.4467  
G01 X0.5275  Y0.4403  
G01 X0.5255  Y0.4341  
G01 X0.5225  Y0.4282  
G01 X0.5187  Y0.4230  
G01 X0.5140  Y0.4183  
G01 X0.5088  Y0.4145  
G01 X0.5029  Y0.4115  
G01 X0.4967  Y0.4095  
G01 X0.4903  Y0.4085  
G01 X0.4097  Y0.4085  
G01 X0.4033  Y0.4095  
G01 X0.3971  Y0.4115  
G01 X0.3912  Y0.4145  
G01 X0.3860  Y0.4183  
G00 Z0.1000  
G00 X0.3860  Y0.5183  
G01 Z-0.0070 F10    
G01 X0.3813  Y0.5230  F20    
G01 X0.3775  Y0.5282  
G01 X0.3745  Y0.5341  
G01 X0.3725  Y0.5403  
G01 X0.3715  Y0.5467  
G01 X0.3715  Y0.5533  
G01 X0.3725  Y0.5597  
G01 X0.3745  Y0.5659  
G01 X0.3775  Y0.5718  
G01 X0.3813  Y0.5770  
G01 X0.3860  Y0.5817  
G01 X0.3912  Y0.5855  
G01 X0.3971  Y0.5885  
G01 X0.4033  Y0.5905  
G01 X0.4097  Y0.5915  
G01 X0.4903  Y0.5915  
G01 X0.4967  Y0.5905  
G01 X0.5029  Y0.5885  
G01 X0.5088  Y0.5855  
G01 X0.5140  Y0.5817  
G01 X0.5187  Y0.5770  
G01 X0.5225  Y0.5718  
G01 X0.5255  Y0.5659  
G01 X0.5275  Y0.5597  
G01 X0.5285  Y0.5533  
G01 X0.5285  Y0.5467  
G01 X0.5275  Y0.5403  
G01 X0.5255  Y0.5341  
G01 X0.5225  Y0.5282  
G01 X0.5187  Y0.5230  
G01 X0.5140  Y0.5183  
G01 X0.5088  Y0.5145  
G01 X0.5029  Y0.5115  
G01 X0.4967  Y0.5095  
G01 X0.4903  Y0.5085  
G01 X0.4097  Y0.5085  
G01 X0.4033  Y0.5095  
G01 X0.3971  Y0.5115  
G01 X0.3912  Y0.5145  
G01 X0.3860  Y0.5183  
G00 Z0.1000  
G00 X0.3860  Y0.6183  
G01 Z-0.0070 F10    
G01 X0.3813  Y0.6230  F20    
G01 X0.3775  Y0.6282  
G01 X0.3745  Y0.6341  
G01 X0.3725  Y0.6403  
G01 X0.3715  Y0.6467  
G01 X0.3715  Y0.6533  
G01 X0.3725  Y0.6597  
G01 X0.3745  Y0.6659  
G01 X0.3775  Y0.6718  
G01 X0.3813  Y0.6770  
G01 X0.3860  Y0.6817  
G01 X0.3912  Y0.6855  
G01 X0.3971  Y0.6885  
G01 X0.4033  Y0.6905  
G01 X0.4097  Y0.6915  
G01 X0.4903  Y0.6915  
G01 X0.4967  Y0.6905  
G01 X0.5029  Y0.6885  
G01 X0.5088  Y0.6855  
G01 X0.5140  Y0.6817  
G01 X0.5187  Y0.6770  
G01 X0.5225  Y0.6718  
G01 X0.5255  Y0.6659  
G01 X0.5275  Y0.6597  
G01 X0.5285  Y0.6533  
G01 X0.5285  Y0.6467  
G01 X0.5275  Y0.6403  
G01 X0.5255  Y0.6341  
G01 X0.5225  Y0.6282  
G01 X0.5187  Y0.6230  
G01 X0.5140  Y0.6183  
G01 X0.5088  Y0.6145  
G01 X0.5029  Y0.6115  
G01 X0.4967  Y0.6095  
G01 X0.4903  Y0.6085  
G01 X0.4097  Y0.6085  
G01 X0.4033  Y0.6095  
G01 X0.3971  Y0.6115  
G01 X0.3912  Y0.6145  
G01 X0.3860  Y0.6183  
G00 Z0.1000  
G00 X0.3860  Y0.7183  
G01 Z-0.0070 F10    
G01 X0.3813  Y0.7230  F20    
G01 X0.3775  Y0.7282  
G01 X0.3745  Y0.7341  
G01 X0.3725  Y0.7403  
G01 X0.3715  Y0.7467  
G01 X0.3715  Y0.7533  
G01 X0.3725  Y0.7597  
G01 X0.3745  Y0.7659  
G01 X0.3775  Y0.7718  
G01 X0.3813  Y0.7770  
G01 X0.3860  Y0.7817  
G01 X0.3912  Y0.7855  
G01 X0.3971  Y0.7885  
G01 X0.4033  Y0.7905  
G01 X0.4097  Y0.7915  
G01 X0.4903  Y0.7915  
G01 X0.4967  Y0.7905  
G01 X0.5029  Y0.7885  
G01 X0.5088  Y0.7855  
G01 X0.5140  Y0.7817  
G01 X0.5187  Y0.7770  
G01 X0.5225  Y0.7718  
G01 X0.5255  Y0.7659  
G01 X0.5275  Y0.7597  
G01 X0.5285  Y0.7533  
G01 X0.5285  Y0.7467  
G01 X0.5275  Y0.7403  
G01 X0.5255  Y0.7341  
G01 X0.5225  Y0.7282  
G01 X0.5187  Y0.7230  
G01 X0.5140  Y0.7183  
G01 X0.5088  Y0.7145  
G01 X0.5029  Y0.7115  
G01 X0.4967  Y0.7095  
G01 X0.4903  Y0.7085  
G01 X0.4097  Y0.7085  
G01 X0.4033  Y0.7095  
G01 X0.3971  Y0.7115  
G01 X0.3912  Y0.7145  
G01 X0.3860  Y0.7183  
G00 Z0.1000  
G00 X0.3860  Y0.8183  
G01 Z-0.0070 F10    
G01 X0.3813  Y0.8230  F20    
G01 X0.3775  Y0.8282  
G01 X0.3745  Y0.8341  
G01 X0.3725  Y0.8403  
G01 X0.3715  Y0.8467  
G01 X0.3715  Y0.8533  
G01 X0.3725  Y0.8597  
G01 X0.3745  Y0.8659  
G01 X0.3775  Y0.8718  
G01 X0.3813  Y0.8770  
G01 X0.3860  Y0.8817  
G01 X0.3912  Y0.8855  
G01 X0.3971  Y0.8885  
G01 X0.4033  Y0.8905  
G01 X0.4097  Y0.8915  
G01 X0.4903  Y0.8915  
G01 X0.4967  Y0.8905  
G01 X0.5029  Y0.8885  
G01 X0.5088  Y0.8855  
G01 X0.5140  Y0.8817  
G01 X0.5187  Y0.8770  
G01 X0.5225  Y0.8718  
G01 X0.5255  Y0.8659  
G01 X0.5275  Y0.8597  
G01 X0.5285  Y0.8533  
G01 X0.5285  Y0.8467  
G01 X0.5275  Y0.8403  
G01 X0.5255  Y0.8341  
G01 X0.5225  Y0.8282  
G01 X0.5187  Y0.8230  
G01 X0.5140  Y0.8183  
G01 X0.5088  Y0.8145  
G01 X0.5029  Y0.8115  
G01 X0.4967  Y0.8095  
G01 X0.4903  Y0.8085  
G01 X0.4097  Y0.8085  
G01 X0.4033  Y0.8095  
G01 X0.3971  Y0.8115  
G01 X0.3912  Y0.8145  
G01 X0.3860  Y0.8183  
G00 Z0.1000  
G00 X0.3860  Y0.9183  
G01 Z-0.0070 F10    
G01 X0.3813  Y0.9230  F20    
G01 X0.3775  Y0.9282  
G01 X0.3745  Y0.9341  
G01 X0.3725  Y0.9403  
G01 X0.3715  Y0.9467  
G01 X0.3715  Y0.9533  
G01 X0.3725  Y0.9597  
G01 X0.3745  Y0.9659  
G01 X0.3775  Y0.9718  
G01 X0.3813  Y0.9770  
G01 X0.3860  Y0.9817  
G01 X0.3912  Y0.9855  
G01 X0.3971  Y0.9885  
G01 X0.4033  Y0.9905  
G01 X0.4097  Y0.9915  
G01 X0.4903  Y0.9915  
G01 X0.4967  Y0.9905  
G01 X0.5029  Y0.9885  
G01 X0.5088  Y0.9855  
G01 X0.5140  Y0.9817  
G01 X0.5187  Y0.9770  
G01 X0.5225  Y0.9718  
G01 X0.5255  Y0.9659  
G01 X0.5275  Y0.9597  
G01 X0.5285  Y0.9533  
G01 X0.5285  Y0.9467  
G01 X0.5275  Y0.9403  
G01 X0.5255  Y0.9341  
G01 X0.5225  Y0.9282  
G01 X0.5187  Y0.9230  
G01 X0.5140  Y0.9183  
G01 X0.5088  Y0.9145  
G01 X0.5029  Y0.9115  
G01 X0.4967  Y0.9095  
G01 X0.4903  Y0.9085  
G01 X0.4097  Y0.9085  
G01 X0.4033  Y0.9095  
G01 X0.3971  Y0.9115  
G01 X0.3912  Y0.9145  
G01 X0.3860  Y0.9183  
G00 Z0.1000  
G00 X0.3860  Y1.0183  
G01 Z-0.0070 F10    
G01 X0.3813  Y1.0230  F20    
G01 X0.3775  Y1.0282  
G01 X0.3745  Y1.0341  
G01 X0.3725  Y1.0403  
G01 X0.3715  Y1.0467  
G01 X0.3715  Y1.0533  
G01 X0.3725  Y1.0597  
G01 X0.3745  Y1.0659  
G01 X0.3775  Y1.0718  
G01 X0.3813  Y1.0770  
G01 X0.3860  Y1.0817  
G01 X0.3912  Y1.0855  
G01 X0.3971  Y1.0885  
G01 X0.4033  Y1.0905  
G01 X0.4097  Y1.0915  
G01 X0.4903  Y1.0915  
G01 X0.4967  Y1.0905  
G01 X0.5029  Y1.0885  
G01 X0.5088  Y1.0855  
G01 X0.5140  Y1.0817  
G01 X0.5187  Y1.0770  
G01 X0.5225  Y1.0718  
G01 X0.5255  Y1.0659  
G01 X0.5275  Y1.0597  
G01 X0.5285  Y1.0533  
G01 X0.5285  Y1.0467  
G01 X0.5275  Y1.0403  
G01 X0.5255  Y1.0341  
G01 X0.5225  Y1.0282  
G01 X0.5187  Y1.0230  
G01 X0.5140  Y1.0183  
G01 X0.5088  Y1.0145  
G01 X0.5029  Y1.0115  
G01 X0.4967  Y1.0095  
G01 X0.4903  Y1.0085  
G01 X0.4097  Y1.0085  
G01 X0.4033  Y1.0095  
G01 X0.3971  Y1.0115  
G01 X0.3912  Y1.0145  
G01 X0.3860  Y1.0183  
G00 Z0.1000  
G00 X0.3860  Y1.1183  
G01 Z-0.0070 F10    
G01 X0.3813  Y1.1230  F20    
G01 X0.3775  Y1.1282  
G01 X0.3745  Y1.1341  
G01 X0.3725  Y1.1403  
G01 X0.3715  Y1.1467  
G01 X0.3715  Y1.1533  
G01 X0.3725  Y1.1597  
G01 X0.3745  Y1.1659  
G01 X0.3775  Y1.1718  
G01 X0.3813  Y1.1770  
G01 X0.3860  Y1.1817  
G01 X0.3912  Y1.1855  
G01 X0.3971  Y1.1885  
G01 X0.4033  Y1.1905  
G01 X0.4097  Y1.1915  
G01 X0.4903  Y1.1915  
G01 X0.4967  Y1.1905  
G01 X0.5029  Y1.1885  
G01 X0.5088  Y1.1855  
G01 X0.5140  Y1.1817  
G01 X0.5187  Y1.1770  
G01 X0.5225  Y1.1718  
G01 X0.5255  Y1.1659  
G01 X0.5275  Y1.1597  
G01 X0.5285  Y1.1533  
G01 X0.5285  Y1.1467  
G01 X0.5275  Y1.1403  
G01 X0.5255  Y1.1341  
G01 X0.5225  Y1.1282  
G01 X0.5187  Y1.1230  
G01 X0.5140  Y1.1183  
G01 X0.5088  Y1.1145  
G01 X0.5029  Y1.1115  
G01 X0.4967  Y1.1095  
G01 X0.4903  Y1.1085  
G01 X0.4097  Y1.1085  
G01 X0.4033  Y1.1095  
G01 X0.3971  Y1.1115  
G01 X0.3912  Y1.1145  
G01 X0.3860  Y1.1183  
G00 Z0.1000  
G00 X0.3860  Y1.2183  
G01 Z-0.0070 F10    
G01 X0.3813  Y1.2230  F20    
G01 X0.3775  Y1.2282  
G01 X0.3745  Y1.2341  
G01 X0.3725  Y1.2403  
G01 X0.3715  Y1.2467  
G01 X0.3715  Y1.2533  
G01 X0.3725  Y1.2597  
G01 X0.3745  Y1.2659  
G01 X0.3775  Y1.2718  
G01 X0.3813  Y1.2770  
G01 X0.3860  Y1.2817  
G01 X0.3912  Y1.2855  
G01 X0.3971  Y1.2885  
G01 X0.4033  Y1.2905  
G01 X0.4097  Y1.2915  
G01 X0.4903  Y1.2915  
G01 X0.4967  Y1.2905  
G01 X0.5029  Y1.2885  
G01 X0.5088  Y1.2855  
G01 X0.5140  Y1.2817  
G01 X0.5187  Y1.2770  
G01 X0.5225  Y1.2718  
G01 X0.5255  Y1.2659  
G01 X0.5275  Y1.2597  
G01 X0.5285  Y1.2533  
G01 X0.5285  Y1.2467  
G01 X0.5275  Y1.2403  
G01 X0.5255  Y1.2341  
G01 X0.5225  Y1.2282  
G01 X0.5187  Y1.2230  
G01 X0.5140  Y1.2183  
G01 X0.5088  Y1.2145  
G01 X0.5029  Y1.2115  
G01 X0.4967  Y1.2095  
G01 X0.4903  Y1.2085  
G01 X0.4097  Y1.2085  
G01 X0.4033  Y1.2095  
G01 X0.3971  Y1.2115  
G01 X0.3912  Y1.2145  
G01 X0.3860  Y1.2183  
G00 Z0.1000  
G00 X0.3860  Y1.3183  
G01 Z-0.0070 F10    
G01 X0.3813  Y1.3230  F20    
G01 X0.3775  Y1.3282  
G01 X0.3745  Y1.3341  
G01 X0.3725  Y1.3403  
G01 X0.3715  Y1.3467  
G01 X0.3715  Y1.3533  
G01 X0.3725  Y1.3597  
G01 X0.3745  Y1.3659  
G01 X0.3775  Y1.3718  
G01 X0.3813  Y1.3770  
G01 X0.3860  Y1.3817  
G01 X0.3912  Y1.3855  
G01 X0.3971  Y1.3885  
G01 X0.4033  Y1.3905  
G01 X0.4097  Y1.3915  
G01 X0.4903  Y1.3915  
G01 X0.4967  Y1.3905  
G01 X0.5029  Y1.3885  
G01 X0.5088  Y1.3855  
G01 X0.5140  Y1.3817  
G01 X0.5187  Y1.3770  
G01 X0.5225  Y1.3718  
G01 X0.5255  Y1.3659  
G01 X0.5275  Y1.3597  
G01 X0.5285  Y1.3533  
G01 X0.5285  Y1.3467  
G01 X0.5275  Y1.3403  
G01 X0.5255  Y1.3341  
G01 X0.5225  Y1.3282  
G01 X0.5187  Y1.3230  
G01 X0.5140  Y1.3183  
G01 X0.5088  Y1.3145  
G01 X0.5029  Y1.3115  
G01 X0.4967  Y1.3095  
G01 X0.4903  Y1.3085  
G01 X0.4097  Y1.3085  
G01 X0.4033  Y1.3095  
G01 X0.3971  Y1.3115  
G01 X0.3912  Y1.3145  
G01 X0.3860  Y1.3183  
G00 Z0.1000  
G00 X0.3860  Y1.4183  
G01 Z-0.0070 F10    
G01 X0.3813  Y1.4230  F20    
G01 X0.3775  Y1.4282  
G01 X0.3745  Y1.4341  
G01 X0.3725  Y1.4403  
G01 X0.3715  Y1.4467  
G01 X0.3715  Y1.4533  
G01 X0.3725  Y1.4597  
G01 X0.3745  Y1.4659  
G01 X0.3775  Y1.4718  
G01 X0.3813  Y1.4770  
G01 X0.3860  Y1.4817  
G01 X0.3912  Y1.4855  
G01 X0.3971  Y1.4885  
G01 X0.4033  Y1.4905  
G01 X0.4097  Y1.4915  
G01 X0.4903  Y1.4915  
G01 X0.4967  Y1.4905  
G01 X0.5029  Y1.4885  
G01 X0.5088  Y1.4855  
G01 X0.5140  Y1.4817  
G01 X0.5187  Y1.4770  
G01 X0.5225  Y1.4718  
G01 X0.5255  Y1.4659  
G01 X0.5275  Y1.4597  
G01 X0.5285  Y1.4533  
G01 X0.5285  Y1.4467  
G01 X0.5275  Y1.4403  
G01 X0.5255  Y1.4341  
G01 X0.5225  Y1.4282  
G01 X0.5187  Y1.4230  
G01 X0.5140  Y1.4183  
G01 X0.5088  Y1.4145  
G01 X0.5029  Y1.4115  
G01 X0.4967  Y1.4095  
G01 X0.4903  Y1.4085  
G01 X0.4097  Y1.4085  
G01 X0.4033  Y1.4095  
G01 X0.3971  Y1.4115  
G01 X0.3912  Y1.4145  
G01 X0.3860  Y1.4183  
G00 Z0.1000  
G00 X0.3860  Y1.5183  
G01 Z-0.0070 F10    
G01 X0.3813  Y1.5230  F20    
G01 X0.3775  Y1.5282  
G01 X0.3745  Y1.5341  
G01 X0.3725  Y1.5403  
G01 X0.3715  Y1.5467  
G01 X0.3715  Y1.5533  
G01 X0.3725  Y1.5597  
G01 X0.3745  Y1.5659  
G01 X0.3775  Y1.5718  
G01 X0.3813  Y1.5770  
G01 X0.3860  Y1.5817  
G01 X0.3912  Y1.5855  
G01 X0.3971  Y1.5885  
G01 X0.4033  Y1.5905  
G01 X0.4097  Y1.5915  
G01 X0.4903  Y1.5915  
G01 X0.4967  Y1.5905  
G01 X0.5029  Y1.5885  
G01 X0.5088  Y1.5855  
G01 X0.5140  Y1.5817  
G01 X0.5187  Y1.5770  
G01 X0.5225  Y1.5718  
G01 X0.5255  Y1.5659  
G01 X0.5275  Y1.5597  
G01 X0.5285  Y1.5533  
G01 X0.5285  Y1.5467  
G01 X0.5275  Y1.5403  
G01 X0.5255  Y1.5341  
G01 X0.5225  Y1.5282  
G01 X0.5187  Y1.5230  
G01 X0.5140  Y1.5183  
G01 X0.5088  Y1.5145  
G01 X0.5029  Y1.5115  
G01 X0.4967  Y1.5095  
G01 X0.4903  Y1.5085  
G01 X0.4097  Y1.5085  
G01 X0.4033  Y1.5095  
G01 X0.3971  Y1.5115  
G01 X0.3912  Y1.5145  
G01 X0.3860  Y1.5183  
G00 Z0.1000  
G00 X0.3860  Y1.6183  
G01 Z-0.0070 F10    
G01 X0.3813  Y1.6230  F20    
G01 X0.3775  Y1.6282  
G01 X0.3745  Y1.6341  
G01 X0.3725  Y1.6403  
G01 X0.3715  Y1.6467  
G01 X0.3715  Y1.6533  
G01 X0.3725  Y1.6597  
G01 X0.3745  Y1.6659  
G01 X0.3775  Y1.6718  
G01 X0.3813  Y1.6770  
G01 X0.3860  Y1.6817  
G01 X0.3912  Y1.6855  
G01 X0.3971  Y1.6885  
G01 X0.4033  Y1.6905  
G01 X0.4097  Y1.6915  
G01 X0.4903  Y1.6915  
G01 X0.4967  Y1.6905  
G01 X0.5029  Y1.6885  
G01 X0.5088  Y1.6855  
G01 X0.5140  Y1.6817  
G01 X0.5187  Y1.6770  
G01 X0.5225  Y1.6718  
G01 X0.5255  Y1.6659  
G01 X0.5275  Y1.6597  
G01 X0.5285  Y1.6533  
G01 X0.5285  Y1.6467  
G01 X0.5275  Y1.6403  
G01 X0.5255  Y1.6341  
G01 X0.5225  Y1.6282  
G01 X0.5187  Y1.6230  
G01 X0.5140  Y1.6183  
G01 X0.5088  Y1.6145  
G01 X0.5029  Y1.6115  
G01 X0.4967  Y1.6095  
G01 X0.4903  Y1.6085  
G01 X0.4097  Y1.6085  
G01 X0.4033  Y1.6095  
G01 X0.3971  Y1.6115  
G01 X0.3912  Y1.6145  
G01 X0.3860  Y1.6183  
G00 Z0.1000  
G00 X0.3860  Y1.7183  
G01 Z-0.0070 F10    
G01 X0.3813  Y1.7230  F20    
G01 X0.3775  Y1.7282  
G01 X0.3745  Y1.7341  
G01 X0.3725  Y1.7403  
G01 X0.3715  Y1.7467  
G01 X0.3715  Y1.7533  
G01 X0.3725  Y1.7597  
G01 X0.3745  Y1.7659  
G01 X0.3775  Y1.7718  
G01 X0.3813  Y1.7770  
G01 X0.3860  Y1.7817  
G01 X0.3912  Y1.7855  
G01 X0.3971  Y1.7885  
G01 X0.4033  Y1.7905  
G01 X0.4097  Y1.7915  
G01 X0.4903  Y1.7915  
G01 X0.4967  Y1.7905  
G01 X0.5029  Y1.7885  
G01 X0.5088  Y1.7855  
G01 X0.5140  Y1.7817  
G01 X0.5187  Y1.7770  
G01 X0.5225  Y1.7718  
G01 X0.5255  Y1.7659  
G01 X0.5275  Y1.7597  
G01 X0.5285  Y1.7533  
G01 X0.5285  Y1.7467  
G01 X0.5275  Y1.7403  
G01 X0.5255  Y1.7341  
G01 X0.5225  Y1.7282  
G01 X0.5187  Y1.7230  
G01 X0.5140  Y1.7183  
G01 X0.5088  Y1.7145  
G01 X0.5029  Y1.7115  
G01 X0.4967  Y1.7095  
G01 X0.4903  Y1.7085  
G01 X0.4097  Y1.7085  
G01 X0.4033  Y1.7095  
G01 X0.3971  Y1.7115  
G01 X0.3912  Y1.7145  
G01 X0.3860  Y1.7183  
G00 Z0.1000  
G00 X0.3860  Y1.8183  
G01 Z-0.0070 F10    
G01 X0.3813  Y1.8230  F20    
G01 X0.3775  Y1.8282  
G01 X0.3745  Y1.8341  
G01 X0.3725  Y1.8403  
G01 X0.3715  Y1.8467  
G01 X0.3715  Y1.8533  
G01 X0.3725  Y1.8597  
G01 X0.3745  Y1.8659  
G01 X0.3775  Y1.8718  
G01 X0.3813  Y1.8770  
G01 X0.3860  Y1.8817  
G01 X0.3912  Y1.8855  
G01 X0.3971  Y1.8885  
G01 X0.4033  Y1.8905  
G01 X0.4097  Y1.8915  
G01 X0.4903  Y1.8915  
G01 X0.4967  Y1.8905  
G01 X0.5029  Y1.8885  
G01 X0.5088  Y1.8855  
G01 X0.5140  Y1.8817  
G01 X0.5187  Y1.8770  
G01 X0.5225  Y1.8718  
G01 X0.5255  Y1.8659  
G01 X0.5275  Y1.8597  
G01 X0.5285  Y1.8533  
G01 X0.5285  Y1.8467  
G01 X0.5275  Y1.8403  
G01 X0.5255  Y1.8341  
G01 X0.5225  Y1.8282  
G01 X0.5187  Y1.8230  
G01 X0.5140  Y1.8183  
G01 X0.5088  Y1.8145  
G01 X0.5029  Y1.8115  
G01 X0.4967  Y1.8095  
G01 X0.4903  Y1.8085  
G01 X0.4097  Y1.8085  
G01 X0.4033  Y1.8095  
G01 X0.3971  Y1.8115  
G01 X0.3912  Y1.8145  
G01 X0.3860  Y1.8183  
G00 Z0.1000  
G00 X0.7730  Y1.8183  
G01 Z-0.0070 F10    
G01 X0.7683  Y1.8230  F20    
G01 X0.7645  Y1.8282  
G01 X0.7615  Y1.8341  
G01 X0.7595  Y1.8403  
G01 X0.7585  Y1.8467  
G01 X0.7585  Y1.8533  
G01 X0.7595  Y1.8597  
G01 X0.7615  Y1.8659  
G01 X0.7645  Y1.8718  
G01 X0.7683  Y1.8770  
G01 X0.7730  Y1.8817  
G01 X0.7782  Y1.8855  
G01 X0.7841  Y1.8885  
G01 X0.7903  Y1.8905  
G01 X0.7967  Y1.8915  
G01 X0.8033  Y1.8915  
G01 X0.8097  Y1.8905  
G01 X0.8159  Y1.8885  
G01 X0.8218  Y1.8855  
G01 X0.8270  Y1.8817  
G01 X0.8317  Y1.8770  
G01 X0.8355  Y1.8718  
G01 X0.8385  Y1.8659  
G01 X0.8405  Y1.8597  
G01 X0.8415  Y1.8533  
G01 X0.8415  Y1.8467  
G01 X0.8405  Y1.8403  
G01 X0.8385  Y1.8341  
G01 X0.8355  Y1.8282  
G01 X0.8317  Y1.8230  
G01 X0.8270  Y1.8183  
G01 X0.8218  Y1.8145  
G01 X0.8159  Y1.8115  
G01 X0.8097  Y1.8095  
G01 X0.8033  Y1.8085  
G01 X0.7967  Y1.8085  
G01 X0.7903  Y1.8095  
G01 X0.7841  Y1.8115  
G01 X0.7782  Y1.8145  
G01 X0.7730  Y1.8183  
G00 Z0.1000  
G00 X0.7828  Y1.7915  
G01 Z-0.0070 F10    
G01 X0.8172  Y1.7915  F20    
G01 X0.8415  Y1.7672  
G01 X0.8415  Y1.7328  
G01 X0.8172  Y1.7085  
G01 X0.7828  Y1.7085  
G01 X0.7585  Y1.7328  
G01 X0.7585  Y1.7672  
G01 X0.7828  Y1.7915  
G00 Z0.1000  
G00 X0.8585  Y1.7672  
G01 Z-0.0070 F10    
G01 X0.8828  Y1.7915  F20    
G01 X0.9172  Y1.7915  
G01 X0.9415  Y1.7672  
G01 X0.9415  Y1.7328  
G01 X0.9172  Y1.7085  
G01 X0.8828  Y1.7085  
G01 X0.8585  Y1.7328  
G01 X0.8585  Y1.7672  
G00 Z0.1000  
G00 X0.8730  Y1.8183  
G01 Z-0.0070 F10    
G01 X0.8683  Y1.8230  F20    
G01 X0.8645  Y1.8282  
G01 X0.8615  Y1.8341  
G01 X0.8595  Y1.8403  
G01 X0.8585  Y1.8467  
G01 X0.8585  Y1.8533  
G01 X0.8595  Y1.8597  
G01 X0.8615  Y1.8659  
G01 X0.8645  Y1.8718  
G01 X0.8683  Y1.8770  
G01 X0.8730  Y1.8817  
G01 X0.8782  Y1.8855  
G01 X0.8841  Y1.8885  
G01 X0.8903  Y1.8905  
G01 X0.8967  Y1.8915  
G01 X0.9033  Y1.8915  
G01 X0.9097  Y1.8905  
G01 X0.9159  Y1.8885  
G01 X0.9218  Y1.8855  
G01 X0.9270  Y1.8817  
G01 X0.9317  Y1.8770  
G01 X0.9355  Y1.8718  
G01 X0.9385  Y1.8659  
G01 X0.9405  Y1.8597  
G01 X0.9415  Y1.8533  
G01 X0.9415  Y1.8467  
G01 X0.9405  Y1.8403  
G01 X0.9385  Y1.8341  
G01 X0.9355  Y1.8282  
G01 X0.9317  Y1.8230  
G01 X0.9270  Y1.8183  
G01 X0.9218  Y1.8145  
G01 X0.9159  Y1.8115  
G01 X0.9097  Y1.8095  
G01 X0.9033  Y1.8085  
G01 X0.8967  Y1.8085  
G01 X0.8903  Y1.8095  
G01 X0.8841  Y1.8115  
G01 X0.8782  Y1.8145  
G01 X0.8730  Y1.8183  
G00 Z0.1000  
G00 X0.8828  Y1.6915  
G01 Z-0.0070 F10    
G01 X0.9172  Y1.6915  F20    
G01 X0.9415  Y1.6672  
G01 X0.9415  Y1.6328  
G01 X0.9172  Y1.6085  
G01 X0.8828  Y1.6085  
G01 X0.8585  Y1.6328  
G01 X0.8585  Y1.6672  
G01 X0.8828  Y1.6915  
G00 Z0.1000  
G00 X0.8172  Y1.6915  
G01 Z-0.0070 F10    
G01 X0.8415  Y1.6672  F20    
G01 X0.8415  Y1.6328  
G01 X0.8172  Y1.6085  
G01 X0.7828  Y1.6085  
G01 X0.7585  Y1.6328  
G01 X0.7585  Y1.6672  
G01 X0.7828  Y1.6915  
G01 X0.8172  Y1.6915  
G00 Z0.1000  
G00 X0.8172  Y1.5915  
G01 Z-0.0070 F10    
G01 X0.8415  Y1.5672  F20    
G01 X0.8415  Y1.5328  
G01 X0.8172  Y1.5085  
G01 X0.7828  Y1.5085  
G01 X0.7585  Y1.5328  
G01 X0.7585  Y1.5672  
G01 X0.7828  Y1.5915  
G01 X0.8172  Y1.5915  
G00 Z0.1000  
G00 X0.8585  Y1.5672  
G01 Z-0.0070 F10    
G01 X0.8828  Y1.5915  F20    
G01 X0.9172  Y1.5915  
G01 X0.9415  Y1.5672  
G01 X0.9415  Y1.5328  
G01 X0.9172  Y1.5085  
G01 X0.8828  Y1.5085  
G01 X0.8585  Y1.5328  
G01 X0.8585  Y1.5672  
G00 Z0.1000  
G00 X0.8585  Y1.4672  
G01 Z-0.0070 F10    
G01 X0.8828  Y1.4915  F20    
G01 X0.9172  Y1.4915  
G01 X0.9415  Y1.4672  
G01 X0.9415  Y1.4328  
G01 X0.9172  Y1.4085  
G01 X0.8828  Y1.4085  
G01 X0.8585  Y1.4328  
G01 X0.8585  Y1.4672  
G00 Z0.1000  
G00 X0.8415  Y1.4672  
G01 Z-0.0070 F10    
G01 X0.8415  Y1.4328  F20    
G01 X0.8172  Y1.4085  
G01 X0.7828  Y1.4085  
G01 X0.7585  Y1.4328  
G01 X0.7585  Y1.4672  
G01 X0.7828  Y1.4915  
G01 X0.8172  Y1.4915  
G01 X0.8415  Y1.4672  
G00 Z0.1000  
G00 X0.8172  Y1.3915  
G01 Z-0.0070 F10    
G01 X0.8415  Y1.3672  F20    
G01 X0.8415  Y1.3328  
G01 X0.8172  Y1.3085  
G01 X0.7828  Y1.3085  
G01 X0.7585  Y1.3328  
G01 X0.7585  Y1.3672  
G01 X0.7828  Y1.3915  
G01 X0.8172  Y1.3915  
G00 Z0.1000  
G00 X0.8585  Y1.3672  
G01 Z-0.0070 F10    
G01 X0.8828  Y1.3915  F20    
G01 X0.9172  Y1.3915  
G01 X0.9415  Y1.3672  
G01 X0.9415  Y1.3328  
G01 X0.9172  Y1.3085  
G01 X0.8828  Y1.3085  
G01 X0.8585  Y1.3328  
G01 X0.8585  Y1.3672  
G00 Z0.1000  
G00 X0.8585  Y1.2672  
G01 Z-0.0070 F10    
G01 X0.8828  Y1.2915  F20    
G01 X0.9172  Y1.2915  
G01 X0.9415  Y1.2672  
G01 X0.9415  Y1.2328  
G01 X0.9172  Y1.2085  
G01 X0.8828  Y1.2085  
G01 X0.8585  Y1.2328  
G01 X0.8585  Y1.2672  
G00 Z0.1000  
G00 X0.8415  Y1.2672  
G01 Z-0.0070 F10    
G01 X0.8415  Y1.2328  F20    
G01 X0.8172  Y1.2085  
G01 X0.7828  Y1.2085  
G01 X0.7585  Y1.2328  
G01 X0.7585  Y1.2672  
G01 X0.7828  Y1.2915  
G01 X0.8172  Y1.2915  
G01 X0.8415  Y1.2672  
G00 Z0.1000  
G00 X0.8172  Y1.1915  
G01 Z-0.0070 F10    
G01 X0.8415  Y1.1672  F20    
G01 X0.8415  Y1.1328  
G01 X0.8172  Y1.1085  
G01 X0.7828  Y1.1085  
G01 X0.7585  Y1.1328  
G01 X0.7585  Y1.1672  
G01 X0.7828  Y1.1915  
G01 X0.8172  Y1.1915  
G00 Z0.1000  
G00 X0.8585  Y1.1672  
G01 Z-0.0070 F10    
G01 X0.8828  Y1.1915  F20    
G01 X0.9172  Y1.1915  
G01 X0.9415  Y1.1672  
G01 X0.9415  Y1.1328  
G01 X0.9172  Y1.1085  
G01 X0.8828  Y1.1085  
G01 X0.8585  Y1.1328  
G01 X0.8585  Y1.1672  
G00 Z0.1000  
G00 X0.8585  Y1.0672  
G01 Z-0.0070 F10    
G01 X0.8828  Y1.0915  F20    
G01 X0.9172  Y1.0915  
G01 X0.9415  Y1.0672  
G01 X0.9415  Y1.0328  
G01 X0.9172  Y1.0085  
G01 X0.8828  Y1.0085  
G01 X0.8585  Y1.0328  
G01 X0.8585  Y1.0672  
G00 Z0.1000  
G00 X0.8415  Y1.0672  
G01 Z-0.0070 F10    
G01 X0.8415  Y1.0328  F20    
G01 X0.8172  Y1.0085  
G01 X0.7828  Y1.0085  
G01 X0.7585  Y1.0328  
G01 X0.7585  Y1.0672  
G01 X0.7828  Y1.0915  
G01 X0.8172  Y1.0915  
G01 X0.8415  Y1.0672  
G00 Z0.1000  
G00 X0.8172  Y0.9915  
G01 Z-0.0070 F10    
G01 X0.8415  Y0.9672  F20    
G01 X0.8415  Y0.9328  
G01 X0.8172  Y0.9085  
G01 X0.7828  Y0.9085  
G01 X0.7585  Y0.9328  
G01 X0.7585  Y0.9672  
G01 X0.7828  Y0.9915  
G01 X0.8172  Y0.9915  
G00 Z0.1000  
G00 X0.8585  Y0.9672  
G01 Z-0.0070 F10    
G01 X0.8828  Y0.9915  F20    
G01 X0.9172  Y0.9915  
G01 X0.9415  Y0.9672  
G01 X0.9415  Y0.9328  
G01 X0.9172  Y0.9085  
G01 X0.8828  Y0.9085  
G01 X0.8585  Y0.9328  
G01 X0.8585  Y0.9672  
G00 Z0.1000  
G00 X0.8585  Y0.8672  
G01 Z-0.0070 F10    
G01 X0.8828  Y0.8915  F20    
G01 X0.9172  Y0.8915  
G01 X0.9415  Y0.8672  
G01 X0.9415  Y0.8328  
G01 X0.9172  Y0.8085  
G01 X0.8828  Y0.8085  
G01 X0.8585  Y0.8328  
G01 X0.8585  Y0.8672  
G00 Z0.1000  
G00 X0.8415  Y0.8672  
G01 Z-0.0070 F10    
G01 X0.8415  Y0.8328  F20    
G01 X0.8172  Y0.8085  
G01 X0.7828  Y0.8085  
G01 X0.7585  Y0.8328  
G01 X0.7585  Y0.8672  
G01 X0.7828  Y0.8915  
G01 X0.8172  Y0.8915  
G01 X0.8415  Y0.8672  
G00 Z0.1000  
G00 X0.8172  Y0.7915  
G01 Z-0.0070 F10    
G01 X0.8415  Y0.7672  F20    
G01 X0.8415  Y0.7328  
G01 X0.8172  Y0.7085  
G01 X0.7828  Y0.7085  
G01 X0.7585  Y0.7328  
G01 X0.7585  Y0.7672  
G01 X0.7828  Y0.7915  
G01 X0.8172  Y0.7915  
G00 Z0.1000  
G00 X0.8585  Y0.7672  
G01 Z-0.0070 F10    
G01 X0.8828  Y0.7915  F20    
G01 X0.9172  Y0.7915  
G01 X0.9415  Y0.7672  
G01 X0.9415  Y0.7328  
G01 X0.9172  Y0.7085  
G01 X0.8828  Y0.7085  
G01 X0.8585  Y0.7328  
G01 X0.8585  Y0.7672  
G00 Z0.1000  
G00 X0.8585  Y0.6672  
G01 Z-0.0070 F10    
G01 X0.8828  Y0.6915  F20    
G01 X0.9172  Y0.6915  
G01 X0.9415  Y0.6672  
G01 X0.9415  Y0.6328  
G01 X0.9172  Y0.6085  
G01 X0.8828  Y0.6085  
G01 X0.8585  Y0.6328  
G01 X0.8585  Y0.6672  
G00 Z0.1000  
G00 X0.8415  Y0.6672  
G01 Z-0.0070 F10    
G01 X0.8415  Y0.6328  F20    
G01 X0.8172  Y0.6085  
G01 X0.7828  Y0.6085  
G01 X0.7585  Y0.6328  
G01 X0.7585  Y0.6672  
G01 X0.7828  Y0.6915  
G01 X0.8172  Y0.6915  
G01 X0.8415  Y0.6672  
G00 Z0.1000  
G00 X0.8172  Y0.5915  
G01 Z-0.0070 F10    
G01 X0.8415  Y0.5672  F20    
G01 X0.8415  Y0.5328  
G01 X0.8172  Y0.5085  
G01 X0.7828  Y0.5085  
G01 X0.7585  Y0.5328  
G01 X0.7585  Y0.5672  
G01 X0.7828  Y0.5915  
G01 X0.8172  Y0.5915  
G00 Z0.1000  
G00 X0.8585  Y0.5672  
G01 Z-0.0070 F10    
G01 X0.8828  Y0.5915  F20    
G01 X0.9172  Y0.5915  
G01 X0.9415  Y0.5672  
G01 X0.9415  Y0.5328  
G01 X0.9172  Y0.5085  
G01 X0.8828  Y0.5085  
G01 X0.8585  Y0.5328  
G01 X0.8585  Y0.5672  
G00 Z0.1000  
G00 X0.8585  Y0.4672  
G01 Z-0.0070 F10    
G01 X0.8828  Y0.4915  F20    
G01 X0.9172  Y0.4915  
G01 X0.9415  Y0.4672  
G01 X0.9415  Y0.4328  
G01 X0.9172  Y0.4085  
G01 X0.8828  Y0.4085  
G01 X0.8585  Y0.4328  
G01 X0.8585  Y0.4672  
G00 Z0.1000  
G00 X0.8415  Y0.4672  
G01 Z-0.0070 F10    
G01 X0.8415  Y0.4328  F20    
G01 X0.8172  Y0.4085  
G01 X0.7828  Y0.4085  
G01 X0.7585  Y0.4328  
G01 X0.7585  Y0.4672  
G01 X0.7828  Y0.4915  
G01 X0.8172  Y0.4915  
G01 X0.8415  Y0.4672  
G00 Z0.1000  
G00 X0.8172  Y0.3915  
G01 Z-0.0070 F10    
G01 X0.8415  Y0.3672  F20    
G01 X0.8415  Y0.3328  
G01 X0.8172  Y0.3085  
G01 X0.7828  Y0.3085  
G01 X0.7585  Y0.3328  
G01 X0.7585  Y0.3672  
G01 X0.7828  Y0.3915  
G01 X0.8172  Y0.3915  
G00 Z0.1000  
G00 X0.8585  Y0.3672  
G01 Z-0.0070 F10    
G01 X0.8828  Y0.3915  F20    
G01 X0.9172  Y0.3915  
G01 X0.9415  Y0.3672  
G01 X0.9415  Y0.3328  
G01 X0.9172  Y0.3085  
G01 X0.8828  Y0.3085  
G01 X0.8585  Y0.3328  
G01 X0.8585  Y0.3672  
G00 Z0.1000  
G00 X0.8585  Y0.2672  
G01 Z-0.0070 F10    
G01 X0.8828  Y0.2915  F20    
G01 X0.9172  Y0.2915  
G01 X0.9415  Y0.2672  
G01 X0.9415  Y0.2328  
G01 X0.9172  Y0.2085  
G01 X0.8828  Y0.2085  
G01 X0.8585  Y0.2328  
G01 X0.8585  Y0.2672  
G00 Z0.1000  
G00 X0.8415  Y0.2672  
G01 Z-0.0070 F10    
G01 X0.8415  Y0.2328  F20    
G01 X0.8172  Y0.2085  
G01 X0.7828  Y0.2085  
G01 X0.7585  Y0.2328  
G01 X0.7585  Y0.2672  
G01 X0.7828  Y0.2915  
G01 X0.8172  Y0.2915  
G01 X0.8415  Y0.2672  
G00 Z0.1000  
G00 X0.8270  Y0.1817  
G01 Z-0.0070 F10    
G01 X0.8317  Y0.1770  F20    
G01 X0.8355  Y0.1718  
G01 X0.8385  Y0.1659  
G01 X0.8405  Y0.1597  
G01 X0.8415  Y0.1533  
G01 X0.8415  Y0.1467  
G01 X0.8405  Y0.1403  
G01 X0.8385  Y0.1341  
G01 X0.8355  Y0.1282  
G01 X0.8317  Y0.1230  
G01 X0.8270  Y0.1183  
G01 X0.8218  Y0.1145  
G01 X0.8159  Y0.1115  
G01 X0.8097  Y0.1095  
G01 X0.8033  Y0.1085  
G01 X0.7967  Y0.1085  
G01 X0.7903  Y0.1095  
G01 X0.7841  Y0.1115  
G01 X0.7782  Y0.1145  
G01 X0.7730  Y0.1183  
G01 X0.7683  Y0.1230  
G01 X0.7645  Y0.1282  
G01 X0.7615  Y0.1341  
G01 X0.7595  Y0.1403  
G01 X0.7585  Y0.1467  
G01 X0.7585  Y0.1533  
G01 X0.7595  Y0.1597  
G01 X0.7615  Y0.1659  
G01 X0.7645  Y0.1718  
G01 X0.7683  Y0.1770  
G01 X0.7730  Y0.1817  
G01 X0.7782  Y0.1855  
G01 X0.7841  Y0.1885  
G01 X0.7903  Y0.1905  
G01 X0.7967  Y0.1915  
G01 X0.8033  Y0.1915  
G01 X0.8097  Y0.1905  
G01 X0.8159  Y0.1885  
G01 X0.8218  Y0.1855  
G01 X0.8270  Y0.1817  
G00 Z0.1000  
G00 X0.8683  Y0.1770  
G01 Z-0.0070 F10    
G01 X0.8730  Y0.1817  F20    
G01 X0.8782  Y0.1855  
G01 X0.8841  Y0.1885  
G01 X0.8903  Y0.1905  
G01 X0.8967  Y0.1915  
G01 X0.9033  Y0.1915  
G01 X0.9097  Y0.1905  
G01 X0.9159  Y0.1885  
G01 X0.9218  Y0.1855  
G01 X0.9270  Y0.1817  
G01 X0.9317  Y0.1770  
G01 X0.9355  Y0.1718  
G01 X0.9385  Y0.1659  
G01 X0.9405  Y0.1597  
G01 X0.9415  Y0.1533  
G01 X0.9415  Y0.1467  
G01 X0.9405  Y0.1403  
G01 X0.9385  Y0.1341  
G01 X0.9355  Y0.1282  
G01 X0.9317  Y0.1230  
G01 X0.9270  Y0.1183  
G01 X0.9218  Y0.1145  
G01 X0.9159  Y0.1115  
G01 X0.9097  Y0.1095  
G01 X0.9033  Y0.1085  
G01 X0.8967  Y0.1085  
G01 X0.8903  Y0.1095  
G01 X0.8841  Y0.1115  
G01 X0.8782  Y0.1145  
G01 X0.8730  Y0.1183  
G01 X0.8683  Y0.1230  
G01 X0.8645  Y0.1282  
G01 X0.8615  Y0.1341  
G01 X0.8595  Y0.1403  
G01 X0.8585  Y0.1467  
G01 X0.8585  Y0.1533  
G01 X0.8595  Y0.1597  
G01 X0.8615  Y0.1659  
G01 X0.8645  Y0.1718  
G01 X0.8683  Y0.1770  
G00 Z0.1000  
G00 X1.1683  Y0.1770  
G01 Z-0.0070 F10    
G01 X1.1730  Y0.1817  F20    
G01 X1.1782  Y0.1855  
G01 X1.1841  Y0.1885  
G01 X1.1903  Y0.1905  
G01 X1.1967  Y0.1915  
G01 X1.2033  Y0.1915  
G01 X1.2097  Y0.1905  
G01 X1.2159  Y0.1885  
G01 X1.2218  Y0.1855  
G01 X1.2270  Y0.1817  
G01 X1.2317  Y0.1770  
G01 X1.2355  Y0.1718  
G01 X1.2385  Y0.1659  
G01 X1.2405  Y0.1597  
G01 X1.2415  Y0.1533  
G01 X1.2415  Y0.1467  
G01 X1.2405  Y0.1403  
G01 X1.2385  Y0.1341  
G01 X1.2355  Y0.1282  
G01 X1.2317  Y0.1230  
G01 X1.2270  Y0.1183  
G01 X1.2218  Y0.1145  
G01 X1.2159  Y0.1115  
G01 X1.2097  Y0.1095  
G01 X1.2033  Y0.1085  
G01 X1.1967  Y0.1085  
G01 X1.1903  Y0.1095  
G01 X1.1841  Y0.1115  
G01 X1.1782  Y0.1145  
G01 X1.1730  Y0.1183  
G01 X1.1683  Y0.1230  
G01 X1.1645  Y0.1282  
G01 X1.1615  Y0.1341  
G01 X1.1595  Y0.1403  
G01 X1.1585  Y0.1467  
G01 X1.1585  Y0.1533  
G01 X1.1595  Y0.1597  
G01 X1.1615  Y0.1659  
G01 X1.1645  Y0.1718  
G01 X1.1683  Y0.1770  
G00 Z0.1000  
G00 X1.2683  Y0.1770  
G01 Z-0.0070 F10    
G01 X1.2730  Y0.1817  F20    
G01 X1.2782  Y0.1855  
G01 X1.2841  Y0.1885  
G01 X1.2903  Y0.1905  
G01 X1.2967  Y0.1915  
G01 X1.3033  Y0.1915  
G01 X1.3097  Y0.1905  
G01 X1.3159  Y0.1885  
G01 X1.3218  Y0.1855  
G01 X1.3270  Y0.1817  
G01 X1.3317  Y0.1770  
G01 X1.3355  Y0.1718  
G01 X1.3385  Y0.1659  
G01 X1.3405  Y0.1597  
G01 X1.3415  Y0.1533  
G01 X1.3415  Y0.1467  
G01 X1.3405  Y0.1403  
G01 X1.3385  Y0.1341  
G01 X1.3355  Y0.1282  
G01 X1.3317  Y0.1230  
G01 X1.3270  Y0.1183  
G01 X1.3218  Y0.1145  
G01 X1.3159  Y0.1115  
G01 X1.3097  Y0.1095  
G01 X1.3033  Y0.1085  
G01 X1.2967  Y0.1085  
G01 X1.2903  Y0.1095  
G01 X1.2841  Y0.1115  
G01 X1.2782  Y0.1145  
G01 X1.2730  Y0.1183  
G01 X1.2683  Y0.1230  
G01 X1.2645  Y0.1282  
G01 X1.2615  Y0.1341  
G01 X1.2595  Y0.1403  
G01 X1.2585  Y0.1467  
G01 X1.2585  Y0.1533  
G01 X1.2595  Y0.1597  
G01 X1.2615  Y0.1659  
G01 X1.2645  Y0.1718  
G01 X1.2683  Y0.1770  
G00 Z0.1000  
G00 X1.3683  Y0.1770  
G01 Z-0.0070 F10    
G01 X1.3730  Y0.1817  F20    
G01 X1.3782  Y0.1855  
G01 X1.3841  Y0.1885  
G01 X1.3903  Y0.1905  
G01 X1.3967  Y0.1915  
G01 X1.4033  Y0.1915  
G01 X1.4097  Y0.1905  
G01 X1.4159  Y0.1885  
G01 X1.4218  Y0.1855  
G01 X1.4270  Y0.1817  
G01 X1.4317  Y0.1770  
G01 X1.4355  Y0.1718  
G01 X1.4385  Y0.1659  
G01 X1.4405  Y0.1597  
G01 X1.4415  Y0.1533  
G01 X1.4415  Y0.1467  
G01 X1.4405  Y0.1403  
G01 X1.4385  Y0.1341  
G01 X1.4355  Y0.1282  
G01 X1.4317  Y0.1230  
G01 X1.4270  Y0.1183  
G01 X1.4218  Y0.1145  
G01 X1.4159  Y0.1115  
G01 X1.4097  Y0.1095  
G01 X1.4033  Y0.1085  
G01 X1.3967  Y0.1085  
G01 X1.3903  Y0.1095  
G01 X1.3841  Y0.1115  
G01 X1.3782  Y0.1145  
G01 X1.3730  Y0.1183  
G01 X1.3683  Y0.1230  
G01 X1.3645  Y0.1282  
G01 X1.3615  Y0.1341  
G01 X1.3595  Y0.1403  
G01 X1.3585  Y0.1467  
G01 X1.3585  Y0.1533  
G01 X1.3595  Y0.1597  
G01 X1.3615  Y0.1659  
G01 X1.3645  Y0.1718  
G01 X1.3683  Y0.1770  
G00 Z0.1000  
G00 X1.4683  Y0.1770  
G01 Z-0.0070 F10    
G01 X1.4730  Y0.1817  F20    
G01 X1.4782  Y0.1855  
G01 X1.4841  Y0.1885  
G01 X1.4903  Y0.1905  
G01 X1.4967  Y0.1915  
G01 X1.5033  Y0.1915  
G01 X1.5097  Y0.1905  
G01 X1.5159  Y0.1885  
G01 X1.5218  Y0.1855  
G01 X1.5270  Y0.1817  
G01 X1.5317  Y0.1770  
G01 X1.5355  Y0.1718  
G01 X1.5385  Y0.1659  
G01 X1.5405  Y0.1597  
G01 X1.5415  Y0.1533  
G01 X1.5415  Y0.1467  
G01 X1.5405  Y0.1403  
G01 X1.5385  Y0.1341  
G01 X1.5355  Y0.1282  
G01 X1.5317  Y0.1230  
G01 X1.5270  Y0.1183  
G01 X1.5218  Y0.1145  
G01 X1.5159  Y0.1115  
G01 X1.5097  Y0.1095  
G01 X1.5033  Y0.1085  
G01 X1.4967  Y0.1085  
G01 X1.4903  Y0.1095  
G01 X1.4841  Y0.1115  
G01 X1.4782  Y0.1145  
G01 X1.4730  Y0.1183  
G01 X1.4683  Y0.1230  
G01 X1.4645  Y0.1282  
G01 X1.4615  Y0.1341  
G01 X1.4595  Y0.1403  
G01 X1.4585  Y0.1467  
G01 X1.4585  Y0.1533  
G01 X1.4595  Y0.1597  
G01 X1.4615  Y0.1659  
G01 X1.4645  Y0.1718  
G01 X1.4683  Y0.1770  
G00 Z0.1000  
G00 X1.5683  Y0.1770  
G01 Z-0.0070 F10    
G01 X1.5730  Y0.1817  F20    
G01 X1.5782  Y0.1855  
G01 X1.5841  Y0.1885  
G01 X1.5903  Y0.1905  
G01 X1.5967  Y0.1915  
G01 X1.6033  Y0.1915  
G01 X1.6097  Y0.1905  
G01 X1.6159  Y0.1885  
G01 X1.6218  Y0.1855  
G01 X1.6270  Y0.1817  
G01 X1.6317  Y0.1770  
G01 X1.6355  Y0.1718  
G01 X1.6385  Y0.1659  
G01 X1.6405  Y0.1597  
G01 X1.6415  Y0.1533  
G01 X1.6415  Y0.1467  
G01 X1.6405  Y0.1403  
G01 X1.6385  Y0.1341  
G01 X1.6355  Y0.1282  
G01 X1.6317  Y0.1230  
G01 X1.6270  Y0.1183  
G01 X1.6218  Y0.1145  
G01 X1.6159  Y0.1115  
G01 X1.6097  Y0.1095  
G01 X1.6033  Y0.1085  
G01 X1.5967  Y0.1085  
G01 X1.5903  Y0.1095  
G01 X1.5841  Y0.1115  
G01 X1.5782  Y0.1145  
G01 X1.5730  Y0.1183  
G01 X1.5683  Y0.1230  
G01 X1.5645  Y0.1282  
G01 X1.5615  Y0.1341  
G01 X1.5595  Y0.1403  
G01 X1.5585  Y0.1467  
G01 X1.5585  Y0.1533  
G01 X1.5595  Y0.1597  
G01 X1.5615  Y0.1659  
G01 X1.5645  Y0.1718  
G01 X1.5683  Y0.1770  
G00 Z0.1000  
G00 X1.6683  Y0.1770  
G01 Z-0.0070 F10    
G01 X1.6730  Y0.1817  F20    
G01 X1.6782  Y0.1855  
G01 X1.6841  Y0.1885  
G01 X1.6903  Y0.1905  
G01 X1.6967  Y0.1915  
G01 X1.7033  Y0.1915  
G01 X1.7097  Y0.1905  
G01 X1.7159  Y0.1885  
G01 X1.7218  Y0.1855  
G01 X1.7270  Y0.1817  
G01 X1.7317  Y0.1770  
G01 X1.7355  Y0.1718  
G01 X1.7385  Y0.1659  
G01 X1.7405  Y0.1597  
G01 X1.7415  Y0.1533  
G01 X1.7415  Y0.1467  
G01 X1.7405  Y0.1403  
G01 X1.7385  Y0.1341  
G01 X1.7355  Y0.1282  
G01 X1.7317  Y0.1230  
G01 X1.7270  Y0.1183  
G01 X1.7218  Y0.1145  
G01 X1.7159  Y0.1115  
G01 X1.7097  Y0.1095  
G01 X1.7033  Y0.1085  
G01 X1.6967  Y0.1085  
G01 X1.6903  Y0.1095  
G01 X1.6841  Y0.1115  
G01 X1.6782  Y0.1145  
G01 X1.6730  Y0.1183  
G01 X1.6683  Y0.1230  
G01 X1.6645  Y0.1282  
G01 X1.6615  Y0.1341  
G01 X1.6595  Y0.1403  
G01 X1.6585  Y0.1467  
G01 X1.6585  Y0.1533  
G01 X1.6595  Y0.1597  
G01 X1.6615  Y0.1659  
G01 X1.6645  Y0.1718  
G01 X1.6683  Y0.1770  
G00 Z0.1000  
G00 X1.7683  Y0.1770  
G01 Z-0.0070 F10    
G01 X1.7730  Y0.1817  F20    
G01 X1.7782  Y0.1855  
G01 X1.7841  Y0.1885  
G01 X1.7903  Y0.1905  
G01 X1.7967  Y0.1915  
G01 X1.8033  Y0.1915  
G01 X1.8097  Y0.1905  
G01 X1.8159  Y0.1885  
G01 X1.8218  Y0.1855  
G01 X1.8270  Y0.1817  
G01 X1.8317  Y0.1770  
G01 X1.8355  Y0.1718  
G01 X1.8385  Y0.1659  
G01 X1.8405  Y0.1597  
G01 X1.8415  Y0.1533  
G01 X1.8415  Y0.1467  
G01 X1.8405  Y0.1403  
G01 X1.8385  Y0.1341  
G01 X1.8355  Y0.1282  
G01 X1.8317  Y0.1230  
G01 X1.8270  Y0.1183  
G01 X1.8218  Y0.1145  
G01 X1.8159  Y0.1115  
G01 X1.8097  Y0.1095  
G01 X1.8033  Y0.1085  
G01 X1.7967  Y0.1085  
G01 X1.7903  Y0.1095  
G01 X1.7841  Y0.1115  
G01 X1.7782  Y0.1145  
G01 X1.7730  Y0.1183  
G01 X1.7683  Y0.1230  
G01 X1.7645  Y0.1282  
G01 X1.7615  Y0.1341  
G01 X1.7595  Y0.1403  
G01 X1.7585  Y0.1467  
G01 X1.7585  Y0.1533  
G01 X1.7595  Y0.1597  
G01 X1.7615  Y0.1659  
G01 X1.7645  Y0.1718  
G01 X1.7683  Y0.1770  
G00 Z0.1000  
G00 X1.8683  Y0.1770  
G01 Z-0.0070 F10    
G01 X1.8730  Y0.1817  F20    
G01 X1.8782  Y0.1855  
G01 X1.8841  Y0.1885  
G01 X1.8903  Y0.1905  
G01 X1.8967  Y0.1915  
G01 X1.9033  Y0.1915  
G01 X1.9097  Y0.1905  
G01 X1.9159  Y0.1885  
G01 X1.9218  Y0.1855  
G01 X1.9270  Y0.1817  
G01 X1.9317  Y0.1770  
G01 X1.9355  Y0.1718  
G01 X1.9385  Y0.1659  
G01 X1.9405  Y0.1597  
G01 X1.9415  Y0.1533  
G01 X1.9415  Y0.1467  
G01 X1.9405  Y0.1403  
G01 X1.9385  Y0.1341  
G01 X1.9355  Y0.1282  
G01 X1.9317  Y0.1230  
G01 X1.9270  Y0.1183  
G01 X1.9218  Y0.1145  
G01 X1.9159  Y0.1115  
G01 X1.9097  Y0.1095  
G01 X1.9033  Y0.1085  
G01 X1.8967  Y0.1085  
G01 X1.8903  Y0.1095  
G01 X1.8841  Y0.1115  
G01 X1.8782  Y0.1145  
G01 X1.8730  Y0.1183  
G01 X1.8683  Y0.1230  
G01 X1.8645  Y0.1282  
G01 X1.8615  Y0.1341  
G01 X1.8595  Y0.1403  
G01 X1.8585  Y0.1467  
G01 X1.8585  Y0.1533  
G01 X1.8595  Y0.1597  
G01 X1.8615  Y0.1659  
G01 X1.8645  Y0.1718  
G01 X1.8683  Y0.1770  
G00 Z0.1000  
G00 X2.0683  Y0.1770  
G01 Z-0.0070 F10    
G01 X2.0730  Y0.1817  F20    
G01 X2.0782  Y0.1855  
G01 X2.0841  Y0.1885  
G01 X2.0903  Y0.1905  
G01 X2.0967  Y0.1915  
G01 X2.1033  Y0.1915  
G01 X2.1097  Y0.1905  
G01 X2.1159  Y0.1885  
G01 X2.1218  Y0.1855  
G01 X2.1270  Y0.1817  
G01 X2.1317  Y0.1770  
G01 X2.1355  Y0.1718  
G01 X2.1385  Y0.1659  
G01 X2.1405  Y0.1597  
G01 X2.1415  Y0.1533  
G01 X2.1415  Y0.1467  
G01 X2.1405  Y0.1403  
G01 X2.1385  Y0.1341  
G01 X2.1355  Y0.1282  
G01 X2.1317  Y0.1230  
G01 X2.1270  Y0.1183  
G01 X2.1218  Y0.1145  
G01 X2.1159  Y0.1115  
G01 X2.1097  Y0.1095  
G01 X2.1033  Y0.1085  
G01 X2.0967  Y0.1085  
G01 X2.0903  Y0.1095  
G01 X2.0841  Y0.1115  
G01 X2.0782  Y0.1145  
G01 X2.0730  Y0.1183  
G01 X2.0683  Y0.1230  
G01 X2.0645  Y0.1282  
G01 X2.0615  Y0.1341  
G01 X2.0595  Y0.1403  
G01 X2.0585  Y0.1467  
G01 X2.0585  Y0.1533  
G01 X2.0595  Y0.1597  
G01 X2.0615  Y0.1659  
G01 X2.0645  Y0.1718  
G01 X2.0683  Y0.1770  
G00 Z0.1000  
G00 X2.1683  Y0.1770  
G01 Z-0.0070 F10    
G01 X2.1730  Y0.1817  F20    
G01 X2.1782  Y0.1855  
G01 X2.1841  Y0.1885  
G01 X2.1903  Y0.1905  
G01 X2.1967  Y0.1915  
G01 X2.2033  Y0.1915  
G01 X2.2097  Y0.1905  
G01 X2.2159  Y0.1885  
G01 X2.2218  Y0.1855  
G01 X2.2270  Y0.1817  
G01 X2.2317  Y0.1770  
G01 X2.2355  Y0.1718  
G01 X2.2385  Y0.1659  
G01 X2.2405  Y0.1597  
G01 X2.2415  Y0.1533  
G01 X2.2415  Y0.1467  
G01 X2.2405  Y0.1403  
G01 X2.2385  Y0.1341  
G01 X2.2355  Y0.1282  
G01 X2.2317  Y0.1230  
G01 X2.2270  Y0.1183  
G01 X2.2218  Y0.1145  
G01 X2.2159  Y0.1115  
G01 X2.2097  Y0.1095  
G01 X2.2033  Y0.1085  
G01 X2.1967  Y0.1085  
G01 X2.1903  Y0.1095  
G01 X2.1841  Y0.1115  
G01 X2.1782  Y0.1145  
G01 X2.1730  Y0.1183  
G01 X2.1683  Y0.1230  
G01 X2.1645  Y0.1282  
G01 X2.1615  Y0.1341  
G01 X2.1595  Y0.1403  
G01 X2.1585  Y0.1467  
G01 X2.1585  Y0.1533  
G01 X2.1595  Y0.1597  
G01 X2.1615  Y0.1659  
G01 X2.1645  Y0.1718  
G01 X2.1683  Y0.1770  
G00 Z0.1000  
G00 X2.2683  Y0.1770  
G01 Z-0.0070 F10    
G01 X2.2730  Y0.1817  F20    
G01 X2.2782  Y0.1855  
G01 X2.2841  Y0.1885  
G01 X2.2903  Y0.1905  
G01 X2.2967  Y0.1915  
G01 X2.3033  Y0.1915  
G01 X2.3097  Y0.1905  
G01 X2.3159  Y0.1885  
G01 X2.3218  Y0.1855  
G01 X2.3270  Y0.1817  
G01 X2.3317  Y0.1770  
G01 X2.3355  Y0.1718  
G01 X2.3385  Y0.1659  
G01 X2.3405  Y0.1597  
G01 X2.3415  Y0.1533  
G01 X2.3415  Y0.1467  
G01 X2.3405  Y0.1403  
G01 X2.3385  Y0.1341  
G01 X2.3355  Y0.1282  
G01 X2.3317  Y0.1230  
G01 X2.3270  Y0.1183  
G01 X2.3218  Y0.1145  
G01 X2.3159  Y0.1115  
G01 X2.3097  Y0.1095  
G01 X2.3033  Y0.1085  
G01 X2.2967  Y0.1085  
G01 X2.2903  Y0.1095  
G01 X2.2841  Y0.1115  
G01 X2.2782  Y0.1145  
G01 X2.2730  Y0.1183  
G01 X2.2683  Y0.1230  
G01 X2.2645  Y0.1282  
G01 X2.2615  Y0.1341  
G01 X2.2595  Y0.1403  
G01 X2.2585  Y0.1467  
G01 X2.2585  Y0.1533  
G01 X2.2595  Y0.1597  
G01 X2.2615  Y0.1659  
G01 X2.2645  Y0.1718  
G01 X2.2683  Y0.1770  
G00 Z0.1000  
G00 X2.3683  Y0.1770  
G01 Z-0.0070 F10    
G01 X2.3730  Y0.1817  F20    
G01 X2.3782  Y0.1855  
G01 X2.3841  Y0.1885  
G01 X2.3903  Y0.1905  
G01 X2.3967  Y0.1915  
G01 X2.4033  Y0.1915  
G01 X2.4097  Y0.1905  
G01 X2.4159  Y0.1885  
G01 X2.4218  Y0.1855  
G01 X2.4270  Y0.1817  
G01 X2.4317  Y0.1770  
G01 X2.4355  Y0.1718  
G01 X2.4385  Y0.1659  
G01 X2.4405  Y0.1597  
G01 X2.4415  Y0.1533  
G01 X2.4415  Y0.1467  
G01 X2.4405  Y0.1403  
G01 X2.4385  Y0.1341  
G01 X2.4355  Y0.1282  
G01 X2.4317  Y0.1230  
G01 X2.4270  Y0.1183  
G01 X2.4218  Y0.1145  
G01 X2.4159  Y0.1115  
G01 X2.4097  Y0.1095  
G01 X2.4033  Y0.1085  
G01 X2.3967  Y0.1085  
G01 X2.3903  Y0.1095  
G01 X2.3841  Y0.1115  
G01 X2.3782  Y0.1145  
G01 X2.3730  Y0.1183  
G01 X2.3683  Y0.1230  
G01 X2.3645  Y0.1282  
G01 X2.3615  Y0.1341  
G01 X2.3595  Y0.1403  
G01 X2.3585  Y0.1467  
G01 X2.3585  Y0.1533  
G01 X2.3595  Y0.1597  
G01 X2.3615  Y0.1659  
G01 X2.3645  Y0.1718  
G01 X2.3683  Y0.1770  
G00 Z0.1000  
G00 X2.4683  Y0.1770  
G01 Z-0.0070 F10    
G01 X2.4730  Y0.1817  F20    
G01 X2.4782  Y0.1855  
G01 X2.4841  Y0.1885  
G01 X2.4903  Y0.1905  
G01 X2.4967  Y0.1915  
G01 X2.5033  Y0.1915  
G01 X2.5097  Y0.1905  
G01 X2.5159  Y0.1885  
G01 X2.5218  Y0.1855  
G01 X2.5270  Y0.1817  
G01 X2.5317  Y0.1770  
G01 X2.5355  Y0.1718  
G01 X2.5385  Y0.1659  
G01 X2.5405  Y0.1597  
G01 X2.5415  Y0.1533  
G01 X2.5415  Y0.1467  
G01 X2.5405  Y0.1403  
G01 X2.5385  Y0.1341  
G01 X2.5355  Y0.1282  
G01 X2.5317  Y0.1230  
G01 X2.5270  Y0.1183  
G01 X2.5218  Y0.1145  
G01 X2.5159  Y0.1115  
G01 X2.5097  Y0.1095  
G01 X2.5033  Y0.1085  
G01 X2.4967  Y0.1085  
G01 X2.4903  Y0.1095  
G01 X2.4841  Y0.1115  
G01 X2.4782  Y0.1145  
G01 X2.4730  Y0.1183  
G01 X2.4683  Y0.1230  
G01 X2.4645  Y0.1282  
G01 X2.4615  Y0.1341  
G01 X2.4595  Y0.1403  
G01 X2.4585  Y0.1467  
G01 X2.4585  Y0.1533  
G01 X2.4595  Y0.1597  
G01 X2.4615  Y0.1659  
G01 X2.4645  Y0.1718  
G01 X2.4683  Y0.1770  
G00 Z0.1000  
G00 X2.5683  Y0.1770  
G01 Z-0.0070 F10    
G01 X2.5730  Y0.1817  F20    
G01 X2.5782  Y0.1855  
G01 X2.5841  Y0.1885  
G01 X2.5903  Y0.1905  
G01 X2.5967  Y0.1915  
G01 X2.6033  Y0.1915  
G01 X2.6097  Y0.1905  
G01 X2.6159  Y0.1885  
G01 X2.6218  Y0.1855  
G01 X2.6270  Y0.1817  
G01 X2.6317  Y0.1770  
G01 X2.6355  Y0.1718  
G01 X2.6385  Y0.1659  
G01 X2.6405  Y0.1597  
G01 X2.6415  Y0.1533  
G01 X2.6415  Y0.1467  
G01 X2.6405  Y0.1403  
G01 X2.6385  Y0.1341  
G01 X2.6355  Y0.1282  
G01 X2.6317  Y0.1230  
G01 X2.6270  Y0.1183  
G01 X2.6218  Y0.1145  
G01 X2.6159  Y0.1115  
G01 X2.6097  Y0.1095  
G01 X2.6033  Y0.1085  
G01 X2.5967  Y0.1085  
G01 X2.5903  Y0.1095  
G01 X2.5841  Y0.1115  
G01 X2.5782  Y0.1145  
G01 X2.5730  Y0.1183  
G01 X2.5683  Y0.1230  
G01 X2.5645  Y0.1282  
G01 X2.5615  Y0.1341  
G01 X2.5595  Y0.1403  
G01 X2.5585  Y0.1467  
G01 X2.5585  Y0.1533  
G01 X2.5595  Y0.1597  
G01 X2.5615  Y0.1659  
G01 X2.5645  Y0.1718  
G01 X2.5683  Y0.1770  
G00 Z0.1000  
G00 X2.6683  Y0.1770  
G01 Z-0.0070 F10    
G01 X2.6730  Y0.1817  F20    
G01 X2.6782  Y0.1855  
G01 X2.6841  Y0.1885  
G01 X2.6903  Y0.1905  
G01 X2.6967  Y0.1915  
G01 X2.7033  Y0.1915  
G01 X2.7097  Y0.1905  
G01 X2.7159  Y0.1885  
G01 X2.7218  Y0.1855  
G01 X2.7270  Y0.1817  
G01 X2.7317  Y0.1770  
G01 X2.7355  Y0.1718  
G01 X2.7385  Y0.1659  
G01 X2.7405  Y0.1597  
G01 X2.7415  Y0.1533  
G01 X2.7415  Y0.1467  
G01 X2.7405  Y0.1403  
G01 X2.7385  Y0.1341  
G01 X2.7355  Y0.1282  
G01 X2.7317  Y0.1230  
G01 X2.7270  Y0.1183  
G01 X2.7218  Y0.1145  
G01 X2.7159  Y0.1115  
G01 X2.7097  Y0.1095  
G01 X2.7033  Y0.1085  
G01 X2.6967  Y0.1085  
G01 X2.6903  Y0.1095  
G01 X2.6841  Y0.1115  
G01 X2.6782  Y0.1145  
G01 X2.6730  Y0.1183  
G01 X2.6683  Y0.1230  
G01 X2.6645  Y0.1282  
G01 X2.6615  Y0.1341  
G01 X2.6595  Y0.1403  
G01 X2.6585  Y0.1467  
G01 X2.6585  Y0.1533  
G01 X2.6595  Y0.1597  
G01 X2.6615  Y0.1659  
G01 X2.6645  Y0.1718  
G01 X2.6683  Y0.1770  
G00 Z0.1000  
G00 X2.7683  Y0.1770  
G01 Z-0.0070 F10    
G01 X2.7730  Y0.1817  F20    
G01 X2.7782  Y0.1855  
G01 X2.7841  Y0.1885  
G01 X2.7903  Y0.1905  
G01 X2.7967  Y0.1915  
G01 X2.8033  Y0.1915  
G01 X2.8097  Y0.1905  
G01 X2.8159  Y0.1885  
G01 X2.8218  Y0.1855  
G01 X2.8270  Y0.1817  
G01 X2.8317  Y0.1770  
G01 X2.8355  Y0.1718  
G01 X2.8385  Y0.1659  
G01 X2.8405  Y0.1597  
G01 X2.8415  Y0.1533  
G01 X2.8415  Y0.1467  
G01 X2.8405  Y0.1403  
G01 X2.8385  Y0.1341  
G01 X2.8355  Y0.1282  
G01 X2.8317  Y0.1230  
G01 X2.8270  Y0.1183  
G01 X2.8218  Y0.1145  
G01 X2.8159  Y0.1115  
G01 X2.8097  Y0.1095  
G01 X2.8033  Y0.1085  
G01 X2.7967  Y0.1085  
G01 X2.7903  Y0.1095  
G01 X2.7841  Y0.1115  
G01 X2.7782  Y0.1145  
G01 X2.7730  Y0.1183  
G01 X2.7683  Y0.1230  
G01 X2.7645  Y0.1282  
G01 X2.7615  Y0.1341  
G01 X2.7595  Y0.1403  
G01 X2.7585  Y0.1467  
G01 X2.7585  Y0.1533  
G01 X2.7595  Y0.1597  
G01 X2.7615  Y0.1659  
G01 X2.7645  Y0.1718  
G01 X2.7683  Y0.1770  
G00 Z0.1000  
G00 X2.9283  Y0.1770  
G01 Z-0.0070 F10    
G01 X2.9330  Y0.1817  F20    
G01 X2.9382  Y0.1855  
G01 X2.9441  Y0.1885  
G01 X2.9503  Y0.1905  
G01 X2.9567  Y0.1915  
G01 X2.9633  Y0.1915  
G01 X2.9697  Y0.1905  
G01 X2.9759  Y0.1885  
G01 X2.9818  Y0.1855  
G01 X2.9870  Y0.1817  
G01 X2.9917  Y0.1770  
G01 X2.9955  Y0.1718  
G01 X2.9985  Y0.1659  
G01 X3.0005  Y0.1597  
G01 X3.0015  Y0.1533  
G01 X3.0015  Y0.1467  
G01 X3.0005  Y0.1403  
G01 X2.9985  Y0.1341  
G01 X2.9955  Y0.1282  
G01 X2.9917  Y0.1230  
G01 X2.9870  Y0.1183  
G01 X2.9818  Y0.1145  
G01 X2.9759  Y0.1115  
G01 X2.9697  Y0.1095  
G01 X2.9633  Y0.1085  
G01 X2.9567  Y0.1085  
G01 X2.9503  Y0.1095  
G01 X2.9441  Y0.1115  
G01 X2.9382  Y0.1145  
G01 X2.9330  Y0.1183  
G01 X2.9283  Y0.1230  
G01 X2.9245  Y0.1282  
G01 X2.9215  Y0.1341  
G01 X2.9195  Y0.1403  
G01 X2.9185  Y0.1467  
G01 X2.9185  Y0.1533  
G01 X2.9195  Y0.1597  
G01 X2.9215  Y0.1659  
G01 X2.9245  Y0.1718  
G01 X2.9283  Y0.1770  
G00 Z0.1000  
G00 X3.0283  Y0.1770  
G01 Z-0.0070 F10    
G01 X3.0330  Y0.1817  F20    
G01 X3.0382  Y0.1855  
G01 X3.0441  Y0.1885  
G01 X3.0503  Y0.1905  
G01 X3.0567  Y0.1915  
G01 X3.0633  Y0.1915  
G01 X3.0697  Y0.1905  
G01 X3.0759  Y0.1885  
G01 X3.0818  Y0.1855  
G01 X3.0870  Y0.1817  
G01 X3.0917  Y0.1770  
G01 X3.0955  Y0.1718  
G01 X3.0985  Y0.1659  
G01 X3.1005  Y0.1597  
G01 X3.1015  Y0.1533  
G01 X3.1015  Y0.1467  
G01 X3.1005  Y0.1403  
G01 X3.0985  Y0.1341  
G01 X3.0955  Y0.1282  
G01 X3.0917  Y0.1230  
G01 X3.0870  Y0.1183  
G01 X3.0818  Y0.1145  
G01 X3.0759  Y0.1115  
G01 X3.0697  Y0.1095  
G01 X3.0633  Y0.1085  
G01 X3.0567  Y0.1085  
G01 X3.0503  Y0.1095  
G01 X3.0441  Y0.1115  
G01 X3.0382  Y0.1145  
G01 X3.0330  Y0.1183  
G01 X3.0283  Y0.1230  
G01 X3.0245  Y0.1282  
G01 X3.0215  Y0.1341  
G01 X3.0195  Y0.1403  
G01 X3.0185  Y0.1467  
G01 X3.0185  Y0.1533  
G01 X3.0195  Y0.1597  
G01 X3.0215  Y0.1659  
G01 X3.0245  Y0.1718  
G01 X3.0283  Y0.1770  
G00 Z0.1000  
G00 X3.1283  Y0.1770  
G01 Z-0.0070 F10    
G01 X3.1330  Y0.1817  F20    
G01 X3.1382  Y0.1855  
G01 X3.1441  Y0.1885  
G01 X3.1503  Y0.1905  
G01 X3.1567  Y0.1915  
G01 X3.1633  Y0.1915  
G01 X3.1697  Y0.1905  
G01 X3.1759  Y0.1885  
G01 X3.1818  Y0.1855  
G01 X3.1870  Y0.1817  
G01 X3.1917  Y0.1770  
G01 X3.1955  Y0.1718  
G01 X3.1985  Y0.1659  
G01 X3.2005  Y0.1597  
G01 X3.2015  Y0.1533  
G01 X3.2015  Y0.1467  
G01 X3.2005  Y0.1403  
G01 X3.1985  Y0.1341  
G01 X3.1955  Y0.1282  
G01 X3.1917  Y0.1230  
G01 X3.1870  Y0.1183  
G01 X3.1818  Y0.1145  
G01 X3.1759  Y0.1115  
G01 X3.1697  Y0.1095  
G01 X3.1633  Y0.1085  
G01 X3.1567  Y0.1085  
G01 X3.1503  Y0.1095  
G01 X3.1441  Y0.1115  
G01 X3.1382  Y0.1145  
G01 X3.1330  Y0.1183  
G01 X3.1283  Y0.1230  
G01 X3.1245  Y0.1282  
G01 X3.1215  Y0.1341  
G01 X3.1195  Y0.1403  
G01 X3.1185  Y0.1467  
G01 X3.1185  Y0.1533  
G01 X3.1195  Y0.1597  
G01 X3.1215  Y0.1659  
G01 X3.1245  Y0.1718  
G01 X3.1283  Y0.1770  
G00 Z0.1000  
G00 X3.2283  Y0.1770  
G01 Z-0.0070 F10    
G01 X3.2330  Y0.1817  F20    
G01 X3.2382  Y0.1855  
G01 X3.2441  Y0.1885  
G01 X3.2503  Y0.1905  
G01 X3.2567  Y0.1915  
G01 X3.2633  Y0.1915  
G01 X3.2697  Y0.1905  
G01 X3.2759  Y0.1885  
G01 X3.2818  Y0.1855  
G01 X3.2870  Y0.1817  
G01 X3.2917  Y0.1770  
G01 X3.2955  Y0.1718  
G01 X3.2985  Y0.1659  
G01 X3.3005  Y0.1597  
G01 X3.3015  Y0.1533  
G01 X3.3015  Y0.1467  
G01 X3.3005  Y0.1403  
G01 X3.2985  Y0.1341  
G01 X3.2955  Y0.1282  
G01 X3.2917  Y0.1230  
G01 X3.2870  Y0.1183  
G01 X3.2818  Y0.1145  
G01 X3.2759  Y0.1115  
G01 X3.2697  Y0.1095  
G01 X3.2633  Y0.1085  
G01 X3.2567  Y0.1085  
G01 X3.2503  Y0.1095  
G01 X3.2441  Y0.1115  
G01 X3.2382  Y0.1145  
G01 X3.2330  Y0.1183  
G01 X3.2283  Y0.1230  
G01 X3.2245  Y0.1282  
G01 X3.2215  Y0.1341  
G01 X3.2195  Y0.1403  
G01 X3.2185  Y0.1467  
G01 X3.2185  Y0.1533  
G01 X3.2195  Y0.1597  
G01 X3.2215  Y0.1659  
G01 X3.2245  Y0.1718  
G01 X3.2283  Y0.1770  
G00 Z0.1000  
G00 X3.3283  Y0.1770  
G01 Z-0.0070 F10    
G01 X3.3330  Y0.1817  F20    
G01 X3.3382  Y0.1855  
G01 X3.3441  Y0.1885  
G01 X3.3503  Y0.1905  
G01 X3.3567  Y0.1915  
G01 X3.3633  Y0.1915  
G01 X3.3697  Y0.1905  
G01 X3.3759  Y0.1885  
G01 X3.3818  Y0.1855  
G01 X3.3870  Y0.1817  
G01 X3.3917  Y0.1770  
G01 X3.3955  Y0.1718  
G01 X3.3985  Y0.1659  
G01 X3.4005  Y0.1597  
G01 X3.4015  Y0.1533  
G01 X3.4015  Y0.1467  
G01 X3.4005  Y0.1403  
G01 X3.3985  Y0.1341  
G01 X3.3955  Y0.1282  
G01 X3.3917  Y0.1230  
G01 X3.3870  Y0.1183  
G01 X3.3818  Y0.1145  
G01 X3.3759  Y0.1115  
G01 X3.3697  Y0.1095  
G01 X3.3633  Y0.1085  
G01 X3.3567  Y0.1085  
G01 X3.3503  Y0.1095  
G01 X3.3441  Y0.1115  
G01 X3.3382  Y0.1145  
G01 X3.3330  Y0.1183  
G01 X3.3283  Y0.1230  
G01 X3.3245  Y0.1282  
G01 X3.3215  Y0.1341  
G01 X3.3195  Y0.1403  
G01 X3.3185  Y0.1467  
G01 X3.3185  Y0.1533  
G01 X3.3195  Y0.1597  
G01 X3.3215  Y0.1659  
G01 X3.3245  Y0.1718  
G01 X3.3283  Y0.1770  
G00 Z0.1000  
G00 X3.4283  Y0.1770  
G01 Z-0.0070 F10    
G01 X3.4330  Y0.1817  F20    
G01 X3.4382  Y0.1855  
G01 X3.4441  Y0.1885  
G01 X3.4503  Y0.1905  
G01 X3.4567  Y0.1915  
G01 X3.4633  Y0.1915  
G01 X3.4697  Y0.1905  
G01 X3.4759  Y0.1885  
G01 X3.4818  Y0.1855  
G01 X3.4870  Y0.1817  
G01 X3.4917  Y0.1770  
G01 X3.4955  Y0.1718  
G01 X3.4985  Y0.1659  
G01 X3.5005  Y0.1597  
G01 X3.5015  Y0.1533  
G01 X3.5015  Y0.1467  
G01 X3.5005  Y0.1403  
G01 X3.4985  Y0.1341  
G01 X3.4955  Y0.1282  
G01 X3.4917  Y0.1230  
G01 X3.4870  Y0.1183  
G01 X3.4818  Y0.1145  
G01 X3.4759  Y0.1115  
G01 X3.4697  Y0.1095  
G01 X3.4633  Y0.1085  
G01 X3.4567  Y0.1085  
G01 X3.4503  Y0.1095  
G01 X3.4441  Y0.1115  
G01 X3.4382  Y0.1145  
G01 X3.4330  Y0.1183  
G01 X3.4283  Y0.1230  
G01 X3.4245  Y0.1282  
G01 X3.4215  Y0.1341  
G01 X3.4195  Y0.1403  
G01 X3.4185  Y0.1467  
G01 X3.4185  Y0.1533  
G01 X3.4195  Y0.1597  
G01 X3.4215  Y0.1659  
G01 X3.4245  Y0.1718  
G01 X3.4283  Y0.1770  
G00 Z0.1000  
G00 X3.5283  Y0.1770  
G01 Z-0.0070 F10    
G01 X3.5330  Y0.1817  F20    
G01 X3.5382  Y0.1855  
G01 X3.5441  Y0.1885  
G01 X3.5503  Y0.1905  
G01 X3.5567  Y0.1915  
G01 X3.5633  Y0.1915  
G01 X3.5697  Y0.1905  
G01 X3.5759  Y0.1885  
G01 X3.5818  Y0.1855  
G01 X3.5870  Y0.1817  
G01 X3.5917  Y0.1770  
G01 X3.5955  Y0.1718  
G01 X3.5985  Y0.1659  
G01 X3.6005  Y0.1597  
G01 X3.6015  Y0.1533  
G01 X3.6015  Y0.1467  
G01 X3.6005  Y0.1403  
G01 X3.5985  Y0.1341  
G01 X3.5955  Y0.1282  
G01 X3.5917  Y0.1230  
G01 X3.5870  Y0.1183  
G01 X3.5818  Y0.1145  
G01 X3.5759  Y0.1115  
G01 X3.5697  Y0.1095  
G01 X3.5633  Y0.1085  
G01 X3.5567  Y0.1085  
G01 X3.5503  Y0.1095  
G01 X3.5441  Y0.1115  
G01 X3.5382  Y0.1145  
G01 X3.5330  Y0.1183  
G01 X3.5283  Y0.1230  
G01 X3.5245  Y0.1282  
G01 X3.5215  Y0.1341  
G01 X3.5195  Y0.1403  
G01 X3.5185  Y0.1467  
G01 X3.5185  Y0.1533  
G01 X3.5195  Y0.1597  
G01 X3.5215  Y0.1659  
G01 X3.5245  Y0.1718  
G01 X3.5283  Y0.1770  
G00 Z0.1000  
G00 X3.6283  Y0.1770  
G01 Z-0.0070 F10    
G01 X3.6330  Y0.1817  F20    
G01 X3.6382  Y0.1855  
G01 X3.6441  Y0.1885  
G01 X3.6503  Y0.1905  
G01 X3.6567  Y0.1915  
G01 X3.6633  Y0.1915  
G01 X3.6697  Y0.1905  
G01 X3.6759  Y0.1885  
G01 X3.6818  Y0.1855  
G01 X3.6870  Y0.1817  
G01 X3.6917  Y0.1770  
G01 X3.6955  Y0.1718  
G01 X3.6985  Y0.1659  
G01 X3.7005  Y0.1597  
G01 X3.7015  Y0.1533  
G01 X3.7015  Y0.1467  
G01 X3.7005  Y0.1403  
G01 X3.6985  Y0.1341  
G01 X3.6955  Y0.1282  
G01 X3.6917  Y0.1230  
G01 X3.6870  Y0.1183  
G01 X3.6818  Y0.1145  
G01 X3.6759  Y0.1115  
G01 X3.6697  Y0.1095  
G01 X3.6633  Y0.1085  
G01 X3.6567  Y0.1085  
G01 X3.6503  Y0.1095  
G01 X3.6441  Y0.1115  
G01 X3.6382  Y0.1145  
G01 X3.6330  Y0.1183  
G01 X3.6283  Y0.1230  
G01 X3.6245  Y0.1282  
G01 X3.6215  Y0.1341  
G01 X3.6195  Y0.1403  
G01 X3.6185  Y0.1467  
G01 X3.6185  Y0.1533  
G01 X3.6195  Y0.1597  
G01 X3.6215  Y0.1659  
G01 X3.6245  Y0.1718  
G01 X3.6283  Y0.1770  
G00 Z0.1000  
G00 X3.6283  Y-0.0360 
G01 Z-0.0070 F10    
G01 X3.6330  Y-0.0313 F20    
G01 X3.6382  Y-0.0275 
G01 X3.6441  Y-0.0245 
G01 X3.6503  Y-0.0225 
G01 X3.6567  Y-0.0215 
G01 X3.6633  Y-0.0215 
G01 X3.6697  Y-0.0225 
G01 X3.6759  Y-0.0245 
G01 X3.6818  Y-0.0275 
G01 X3.6870  Y-0.0313 
G01 X3.6917  Y-0.0360 
G01 X3.6955  Y-0.0412 
G01 X3.6985  Y-0.0471 
G01 X3.7005  Y-0.0533 
G01 X3.7015  Y-0.0597 
G01 X3.7015  Y-0.1403 
G01 X3.7005  Y-0.1467 
G01 X3.6985  Y-0.1529 
G01 X3.6955  Y-0.1588 
G01 X3.6917  Y-0.1640 
G01 X3.6870  Y-0.1687 
G01 X3.6818  Y-0.1725 
G01 X3.6759  Y-0.1755 
G01 X3.6697  Y-0.1775 
G01 X3.6633  Y-0.1785 
G01 X3.6567  Y-0.1785 
G01 X3.6503  Y-0.1775 
G01 X3.6441  Y-0.1755 
G01 X3.6382  Y-0.1725 
G01 X3.6330  Y-0.1687 
G01 X3.6283  Y-0.1640 
G01 X3.6245  Y-0.1588 
G01 X3.6215  Y-0.1529 
G01 X3.6195  Y-0.1467 
G01 X3.6185  Y-0.1403 
G01 X3.6185  Y-0.0597 
G01 X3.6195  Y-0.0533 
G01 X3.6215  Y-0.0471 
G01 X3.6245  Y-0.0412 
G01 X3.6283  Y-0.0360 
G00 Z0.1000  
G00 X3.5917  Y-0.0360 
G01 Z-0.0070 F10    
G01 X3.5955  Y-0.0412 F20    
G01 X3.5985  Y-0.0471 
G01 X3.6005  Y-0.0533 
G01 X3.6015  Y-0.0597 
G01 X3.6015  Y-0.1403 
G01 X3.6005  Y-0.1467 
G01 X3.5985  Y-0.1529 
G01 X3.5955  Y-0.1588 
G01 X3.5917  Y-0.1640 
G01 X3.5870  Y-0.1687 
G01 X3.5818  Y-0.1725 
G01 X3.5759  Y-0.1755 
G01 X3.5697  Y-0.1775 
G01 X3.5633  Y-0.1785 
G01 X3.5567  Y-0.1785 
G01 X3.5503  Y-0.1775 
G01 X3.5441  Y-0.1755 
G01 X3.5382  Y-0.1725 
G01 X3.5330  Y-0.1687 
G01 X3.5283  Y-0.1640 
G01 X3.5245  Y-0.1588 
G01 X3.5215  Y-0.1529 
G01 X3.5195  Y-0.1467 
G01 X3.5185  Y-0.1403 
G01 X3.5185  Y-0.0597 
G01 X3.5195  Y-0.0533 
G01 X3.5215  Y-0.0471 
G01 X3.5245  Y-0.0412 
G01 X3.5283  Y-0.0360 
G01 X3.5330  Y-0.0313 
G01 X3.5382  Y-0.0275 
G01 X3.5441  Y-0.0245 
G01 X3.5503  Y-0.0225 
G01 X3.5567  Y-0.0215 
G01 X3.5633  Y-0.0215 
G01 X3.5697  Y-0.0225 
G01 X3.5759  Y-0.0245 
G01 X3.5818  Y-0.0275 
G01 X3.5870  Y-0.0313 
G01 X3.5917  Y-0.0360 
G00 Z0.1000  
G00 X3.4917  Y-0.0360 
G01 Z-0.0070 F10    
G01 X3.4955  Y-0.0412 F20    
G01 X3.4985  Y-0.0471 
G01 X3.5005  Y-0.0533 
G01 X3.5015  Y-0.0597 
G01 X3.5015  Y-0.1403 
G01 X3.5005  Y-0.1467 
G01 X3.4985  Y-0.1529 
G01 X3.4955  Y-0.1588 
G01 X3.4917  Y-0.1640 
G01 X3.4870  Y-0.1687 
G01 X3.4818  Y-0.1725 
G01 X3.4759  Y-0.1755 
G01 X3.4697  Y-0.1775 
G01 X3.4633  Y-0.1785 
G01 X3.4567  Y-0.1785 
G01 X3.4503  Y-0.1775 
G01 X3.4441  Y-0.1755 
G01 X3.4382  Y-0.1725 
G01 X3.4330  Y-0.1687 
G01 X3.4283  Y-0.1640 
G01 X3.4245  Y-0.1588 
G01 X3.4215  Y-0.1529 
G01 X3.4195  Y-0.1467 
G01 X3.4185  Y-0.1403 
G01 X3.4185  Y-0.0597 
G01 X3.4195  Y-0.0533 
G01 X3.4215  Y-0.0471 
G01 X3.4245  Y-0.0412 
G01 X3.4283  Y-0.0360 
G01 X3.4330  Y-0.0313 
G01 X3.4382  Y-0.0275 
G01 X3.4441  Y-0.0245 
G01 X3.4503  Y-0.0225 
G01 X3.4567  Y-0.0215 
G01 X3.4633  Y-0.0215 
G01 X3.4697  Y-0.0225 
G01 X3.4759  Y-0.0245 
G01 X3.4818  Y-0.0275 
G01 X3.4870  Y-0.0313 
G01 X3.4917  Y-0.0360 
G00 Z0.1000  
G00 X3.3917  Y-0.0360 
G01 Z-0.0070 F10    
G01 X3.3955  Y-0.0412 F20    
G01 X3.3985  Y-0.0471 
G01 X3.4005  Y-0.0533 
G01 X3.4015  Y-0.0597 
G01 X3.4015  Y-0.1403 
G01 X3.4005  Y-0.1467 
G01 X3.3985  Y-0.1529 
G01 X3.3955  Y-0.1588 
G01 X3.3917  Y-0.1640 
G01 X3.3870  Y-0.1687 
G01 X3.3818  Y-0.1725 
G01 X3.3759  Y-0.1755 
G01 X3.3697  Y-0.1775 
G01 X3.3633  Y-0.1785 
G01 X3.3567  Y-0.1785 
G01 X3.3503  Y-0.1775 
G01 X3.3441  Y-0.1755 
G01 X3.3382  Y-0.1725 
G01 X3.3330  Y-0.1687 
G01 X3.3283  Y-0.1640 
G01 X3.3245  Y-0.1588 
G01 X3.3215  Y-0.1529 
G01 X3.3195  Y-0.1467 
G01 X3.3185  Y-0.1403 
G01 X3.3185  Y-0.0597 
G01 X3.3195  Y-0.0533 
G01 X3.3215  Y-0.0471 
G01 X3.3245  Y-0.0412 
G01 X3.3283  Y-0.0360 
G01 X3.3330  Y-0.0313 
G01 X3.3382  Y-0.0275 
G01 X3.3441  Y-0.0245 
G01 X3.3503  Y-0.0225 
G01 X3.3567  Y-0.0215 
G01 X3.3633  Y-0.0215 
G01 X3.3697  Y-0.0225 
G01 X3.3759  Y-0.0245 
G01 X3.3818  Y-0.0275 
G01 X3.3870  Y-0.0313 
G01 X3.3917  Y-0.0360 
G00 Z0.1000  
G00 X3.2917  Y-0.0360 
G01 Z-0.0070 F10    
G01 X3.2955  Y-0.0412 F20    
G01 X3.2985  Y-0.0471 
G01 X3.3005  Y-0.0533 
G01 X3.3015  Y-0.0597 
G01 X3.3015  Y-0.1403 
G01 X3.3005  Y-0.1467 
G01 X3.2985  Y-0.1529 
G01 X3.2955  Y-0.1588 
G01 X3.2917  Y-0.1640 
G01 X3.2870  Y-0.1687 
G01 X3.2818  Y-0.1725 
G01 X3.2759  Y-0.1755 
G01 X3.2697  Y-0.1775 
G01 X3.2633  Y-0.1785 
G01 X3.2567  Y-0.1785 
G01 X3.2503  Y-0.1775 
G01 X3.2441  Y-0.1755 
G01 X3.2382  Y-0.1725 
G01 X3.2330  Y-0.1687 
G01 X3.2283  Y-0.1640 
G01 X3.2245  Y-0.1588 
G01 X3.2215  Y-0.1529 
G01 X3.2195  Y-0.1467 
G01 X3.2185  Y-0.1403 
G01 X3.2185  Y-0.0597 
G01 X3.2195  Y-0.0533 
G01 X3.2215  Y-0.0471 
G01 X3.2245  Y-0.0412 
G01 X3.2283  Y-0.0360 
G01 X3.2330  Y-0.0313 
G01 X3.2382  Y-0.0275 
G01 X3.2441  Y-0.0245 
G01 X3.2503  Y-0.0225 
G01 X3.2567  Y-0.0215 
G01 X3.2633  Y-0.0215 
G01 X3.2697  Y-0.0225 
G01 X3.2759  Y-0.0245 
G01 X3.2818  Y-0.0275 
G01 X3.2870  Y-0.0313 
G01 X3.2917  Y-0.0360 
G00 Z0.1000  
G00 X3.1917  Y-0.0360 
G01 Z-0.0070 F10    
G01 X3.1955  Y-0.0412 F20    
G01 X3.1985  Y-0.0471 
G01 X3.2005  Y-0.0533 
G01 X3.2015  Y-0.0597 
G01 X3.2015  Y-0.1403 
G01 X3.2005  Y-0.1467 
G01 X3.1985  Y-0.1529 
G01 X3.1955  Y-0.1588 
G01 X3.1917  Y-0.1640 
G01 X3.1870  Y-0.1687 
G01 X3.1818  Y-0.1725 
G01 X3.1759  Y-0.1755 
G01 X3.1697  Y-0.1775 
G01 X3.1633  Y-0.1785 
G01 X3.1567  Y-0.1785 
G01 X3.1503  Y-0.1775 
G01 X3.1441  Y-0.1755 
G01 X3.1382  Y-0.1725 
G01 X3.1330  Y-0.1687 
G01 X3.1283  Y-0.1640 
G01 X3.1245  Y-0.1588 
G01 X3.1215  Y-0.1529 
G01 X3.1195  Y-0.1467 
G01 X3.1185  Y-0.1403 
G01 X3.1185  Y-0.0597 
G01 X3.1195  Y-0.0533 
G01 X3.1215  Y-0.0471 
G01 X3.1245  Y-0.0412 
G01 X3.1283  Y-0.0360 
G01 X3.1330  Y-0.0313 
G01 X3.1382  Y-0.0275 
G01 X3.1441  Y-0.0245 
G01 X3.1503  Y-0.0225 
G01 X3.1567  Y-0.0215 
G01 X3.1633  Y-0.0215 
G01 X3.1697  Y-0.0225 
G01 X3.1759  Y-0.0245 
G01 X3.1818  Y-0.0275 
G01 X3.1870  Y-0.0313 
G01 X3.1917  Y-0.0360 
G00 Z0.1000  
G00 X3.0917  Y-0.0360 
G01 Z-0.0070 F10    
G01 X3.0955  Y-0.0412 F20    
G01 X3.0985  Y-0.0471 
G01 X3.1005  Y-0.0533 
G01 X3.1015  Y-0.0597 
G01 X3.1015  Y-0.1403 
G01 X3.1005  Y-0.1467 
G01 X3.0985  Y-0.1529 
G01 X3.0955  Y-0.1588 
G01 X3.0917  Y-0.1640 
G01 X3.0870  Y-0.1687 
G01 X3.0818  Y-0.1725 
G01 X3.0759  Y-0.1755 
G01 X3.0697  Y-0.1775 
G01 X3.0633  Y-0.1785 
G01 X3.0567  Y-0.1785 
G01 X3.0503  Y-0.1775 
G01 X3.0441  Y-0.1755 
G01 X3.0382  Y-0.1725 
G01 X3.0330  Y-0.1687 
G01 X3.0283  Y-0.1640 
G01 X3.0245  Y-0.1588 
G01 X3.0215  Y-0.1529 
G01 X3.0195  Y-0.1467 
G01 X3.0185  Y-0.1403 
G01 X3.0185  Y-0.0597 
G01 X3.0195  Y-0.0533 
G01 X3.0215  Y-0.0471 
G01 X3.0245  Y-0.0412 
G01 X3.0283  Y-0.0360 
G01 X3.0330  Y-0.0313 
G01 X3.0382  Y-0.0275 
G01 X3.0441  Y-0.0245 
G01 X3.0503  Y-0.0225 
G01 X3.0567  Y-0.0215 
G01 X3.0633  Y-0.0215 
G01 X3.0697  Y-0.0225 
G01 X3.0759  Y-0.0245 
G01 X3.0818  Y-0.0275 
G01 X3.0870  Y-0.0313 
G01 X3.0917  Y-0.0360 
G00 Z0.1000  
G00 X2.9917  Y-0.0360 
G01 Z-0.0070 F10    
G01 X2.9955  Y-0.0412 F20    
G01 X2.9985  Y-0.0471 
G01 X3.0005  Y-0.0533 
G01 X3.0015  Y-0.0597 
G01 X3.0015  Y-0.1403 
G01 X3.0005  Y-0.1467 
G01 X2.9985  Y-0.1529 
G01 X2.9955  Y-0.1588 
G01 X2.9917  Y-0.1640 
G01 X2.9870  Y-0.1687 
G01 X2.9818  Y-0.1725 
G01 X2.9759  Y-0.1755 
G01 X2.9697  Y-0.1775 
G01 X2.9633  Y-0.1785 
G01 X2.9567  Y-0.1785 
G01 X2.9503  Y-0.1775 
G01 X2.9441  Y-0.1755 
G01 X2.9382  Y-0.1725 
G01 X2.9330  Y-0.1687 
G01 X2.9283  Y-0.1640 
G01 X2.9245  Y-0.1588 
G01 X2.9215  Y-0.1529 
G01 X2.9195  Y-0.1467 
G01 X2.9185  Y-0.1403 
G01 X2.9185  Y-0.0597 
G01 X2.9195  Y-0.0533 
G01 X2.9215  Y-0.0471 
G01 X2.9245  Y-0.0412 
G01 X2.9283  Y-0.0360 
G01 X2.9330  Y-0.0313 
G01 X2.9382  Y-0.0275 
G01 X2.9441  Y-0.0245 
G01 X2.9503  Y-0.0225 
G01 X2.9567  Y-0.0215 
G01 X2.9633  Y-0.0215 
G01 X2.9697  Y-0.0225 
G01 X2.9759  Y-0.0245 
G01 X2.9818  Y-0.0275 
G01 X2.9870  Y-0.0313 
G01 X2.9917  Y-0.0360 
G00 Z0.1000  
G00 X2.8317  Y-0.0360 
G01 Z-0.0070 F10    
G01 X2.8355  Y-0.0412 F20    
G01 X2.8385  Y-0.0471 
G01 X2.8405  Y-0.0533 
G01 X2.8415  Y-0.0597 
G01 X2.8415  Y-0.1403 
G01 X2.8405  Y-0.1467 
G01 X2.8385  Y-0.1529 
G01 X2.8355  Y-0.1588 
G01 X2.8317  Y-0.1640 
G01 X2.8270  Y-0.1687 
G01 X2.8218  Y-0.1725 
G01 X2.8159  Y-0.1755 
G01 X2.8097  Y-0.1775 
G01 X2.8033  Y-0.1785 
G01 X2.7967  Y-0.1785 
G01 X2.7903  Y-0.1775 
G01 X2.7841  Y-0.1755 
G01 X2.7782  Y-0.1725 
G01 X2.7730  Y-0.1687 
G01 X2.7683  Y-0.1640 
G01 X2.7645  Y-0.1588 
G01 X2.7615  Y-0.1529 
G01 X2.7595  Y-0.1467 
G01 X2.7585  Y-0.1403 
G01 X2.7585  Y-0.0597 
G01 X2.7595  Y-0.0533 
G01 X2.7615  Y-0.0471 
G01 X2.7645  Y-0.0412 
G01 X2.7683  Y-0.0360 
G01 X2.7730  Y-0.0313 
G01 X2.7782  Y-0.0275 
G01 X2.7841  Y-0.0245 
G01 X2.7903  Y-0.0225 
G01 X2.7967  Y-0.0215 
G01 X2.8033  Y-0.0215 
G01 X2.8097  Y-0.0225 
G01 X2.8159  Y-0.0245 
G01 X2.8218  Y-0.0275 
G01 X2.8270  Y-0.0313 
G01 X2.8317  Y-0.0360 
G00 Z0.1000  
G00 X2.7317  Y-0.0360 
G01 Z-0.0070 F10    
G01 X2.7355  Y-0.0412 F20    
G01 X2.7385  Y-0.0471 
G01 X2.7405  Y-0.0533 
G01 X2.7415  Y-0.0597 
G01 X2.7415  Y-0.1403 
G01 X2.7405  Y-0.1467 
G01 X2.7385  Y-0.1529 
G01 X2.7355  Y-0.1588 
G01 X2.7317  Y-0.1640 
G01 X2.7270  Y-0.1687 
G01 X2.7218  Y-0.1725 
G01 X2.7159  Y-0.1755 
G01 X2.7097  Y-0.1775 
G01 X2.7033  Y-0.1785 
G01 X2.6967  Y-0.1785 
G01 X2.6903  Y-0.1775 
G01 X2.6841  Y-0.1755 
G01 X2.6782  Y-0.1725 
G01 X2.6730  Y-0.1687 
G01 X2.6683  Y-0.1640 
G01 X2.6645  Y-0.1588 
G01 X2.6615  Y-0.1529 
G01 X2.6595  Y-0.1467 
G01 X2.6585  Y-0.1403 
G01 X2.6585  Y-0.0597 
G01 X2.6595  Y-0.0533 
G01 X2.6615  Y-0.0471 
G01 X2.6645  Y-0.0412 
G01 X2.6683  Y-0.0360 
G01 X2.6730  Y-0.0313 
G01 X2.6782  Y-0.0275 
G01 X2.6841  Y-0.0245 
G01 X2.6903  Y-0.0225 
G01 X2.6967  Y-0.0215 
G01 X2.7033  Y-0.0215 
G01 X2.7097  Y-0.0225 
G01 X2.7159  Y-0.0245 
G01 X2.7218  Y-0.0275 
G01 X2.7270  Y-0.0313 
G01 X2.7317  Y-0.0360 
G00 Z0.1000  
G00 X2.6317  Y-0.0360 
G01 Z-0.0070 F10    
G01 X2.6355  Y-0.0412 F20    
G01 X2.6385  Y-0.0471 
G01 X2.6405  Y-0.0533 
G01 X2.6415  Y-0.0597 
G01 X2.6415  Y-0.1403 
G01 X2.6405  Y-0.1467 
G01 X2.6385  Y-0.1529 
G01 X2.6355  Y-0.1588 
G01 X2.6317  Y-0.1640 
G01 X2.6270  Y-0.1687 
G01 X2.6218  Y-0.1725 
G01 X2.6159  Y-0.1755 
G01 X2.6097  Y-0.1775 
G01 X2.6033  Y-0.1785 
G01 X2.5967  Y-0.1785 
G01 X2.5903  Y-0.1775 
G01 X2.5841  Y-0.1755 
G01 X2.5782  Y-0.1725 
G01 X2.5730  Y-0.1687 
G01 X2.5683  Y-0.1640 
G01 X2.5645  Y-0.1588 
G01 X2.5615  Y-0.1529 
G01 X2.5595  Y-0.1467 
G01 X2.5585  Y-0.1403 
G01 X2.5585  Y-0.0597 
G01 X2.5595  Y-0.0533 
G01 X2.5615  Y-0.0471 
G01 X2.5645  Y-0.0412 
G01 X2.5683  Y-0.0360 
G01 X2.5730  Y-0.0313 
G01 X2.5782  Y-0.0275 
G01 X2.5841  Y-0.0245 
G01 X2.5903  Y-0.0225 
G01 X2.5967  Y-0.0215 
G01 X2.6033  Y-0.0215 
G01 X2.6097  Y-0.0225 
G01 X2.6159  Y-0.0245 
G01 X2.6218  Y-0.0275 
G01 X2.6270  Y-0.0313 
G01 X2.6317  Y-0.0360 
G00 Z0.1000  
G00 X2.5317  Y-0.0360 
G01 Z-0.0070 F10    
G01 X2.5355  Y-0.0412 F20    
G01 X2.5385  Y-0.0471 
G01 X2.5405  Y-0.0533 
G01 X2.5415  Y-0.0597 
G01 X2.5415  Y-0.1403 
G01 X2.5405  Y-0.1467 
G01 X2.5385  Y-0.1529 
G01 X2.5355  Y-0.1588 
G01 X2.5317  Y-0.1640 
G01 X2.5270  Y-0.1687 
G01 X2.5218  Y-0.1725 
G01 X2.5159  Y-0.1755 
G01 X2.5097  Y-0.1775 
G01 X2.5033  Y-0.1785 
G01 X2.4967  Y-0.1785 
G01 X2.4903  Y-0.1775 
G01 X2.4841  Y-0.1755 
G01 X2.4782  Y-0.1725 
G01 X2.4730  Y-0.1687 
G01 X2.4683  Y-0.1640 
G01 X2.4645  Y-0.1588 
G01 X2.4615  Y-0.1529 
G01 X2.4595  Y-0.1467 
G01 X2.4585  Y-0.1403 
G01 X2.4585  Y-0.0597 
G01 X2.4595  Y-0.0533 
G01 X2.4615  Y-0.0471 
G01 X2.4645  Y-0.0412 
G01 X2.4683  Y-0.0360 
G01 X2.4730  Y-0.0313 
G01 X2.4782  Y-0.0275 
G01 X2.4841  Y-0.0245 
G01 X2.4903  Y-0.0225 
G01 X2.4967  Y-0.0215 
G01 X2.5033  Y-0.0215 
G01 X2.5097  Y-0.0225 
G01 X2.5159  Y-0.0245 
G01 X2.5218  Y-0.0275 
G01 X2.5270  Y-0.0313 
G01 X2.5317  Y-0.0360 
G00 Z0.1000  
G00 X2.4317  Y-0.0360 
G01 Z-0.0070 F10    
G01 X2.4355  Y-0.0412 F20    
G01 X2.4385  Y-0.0471 
G01 X2.4405  Y-0.0533 
G01 X2.4415  Y-0.0597 
G01 X2.4415  Y-0.1403 
G01 X2.4405  Y-0.1467 
G01 X2.4385  Y-0.1529 
G01 X2.4355  Y-0.1588 
G01 X2.4317  Y-0.1640 
G01 X2.4270  Y-0.1687 
G01 X2.4218  Y-0.1725 
G01 X2.4159  Y-0.1755 
G01 X2.4097  Y-0.1775 
G01 X2.4033  Y-0.1785 
G01 X2.3967  Y-0.1785 
G01 X2.3903  Y-0.1775 
G01 X2.3841  Y-0.1755 
G01 X2.3782  Y-0.1725 
G01 X2.3730  Y-0.1687 
G01 X2.3683  Y-0.1640 
G01 X2.3645  Y-0.1588 
G01 X2.3615  Y-0.1529 
G01 X2.3595  Y-0.1467 
G01 X2.3585  Y-0.1403 
G01 X2.3585  Y-0.0597 
G01 X2.3595  Y-0.0533 
G01 X2.3615  Y-0.0471 
G01 X2.3645  Y-0.0412 
G01 X2.3683  Y-0.0360 
G01 X2.3730  Y-0.0313 
G01 X2.3782  Y-0.0275 
G01 X2.3841  Y-0.0245 
G01 X2.3903  Y-0.0225 
G01 X2.3967  Y-0.0215 
G01 X2.4033  Y-0.0215 
G01 X2.4097  Y-0.0225 
G01 X2.4159  Y-0.0245 
G01 X2.4218  Y-0.0275 
G01 X2.4270  Y-0.0313 
G01 X2.4317  Y-0.0360 
G00 Z0.1000  
G00 X2.3317  Y-0.0360 
G01 Z-0.0070 F10    
G01 X2.3355  Y-0.0412 F20    
G01 X2.3385  Y-0.0471 
G01 X2.3405  Y-0.0533 
G01 X2.3415  Y-0.0597 
G01 X2.3415  Y-0.1403 
G01 X2.3405  Y-0.1467 
G01 X2.3385  Y-0.1529 
G01 X2.3355  Y-0.1588 
G01 X2.3317  Y-0.1640 
G01 X2.3270  Y-0.1687 
G01 X2.3218  Y-0.1725 
G01 X2.3159  Y-0.1755 
G01 X2.3097  Y-0.1775 
G01 X2.3033  Y-0.1785 
G01 X2.2967  Y-0.1785 
G01 X2.2903  Y-0.1775 
G01 X2.2841  Y-0.1755 
G01 X2.2782  Y-0.1725 
G01 X2.2730  Y-0.1687 
G01 X2.2683  Y-0.1640 
G01 X2.2645  Y-0.1588 
G01 X2.2615  Y-0.1529 
G01 X2.2595  Y-0.1467 
G01 X2.2585  Y-0.1403 
G01 X2.2585  Y-0.0597 
G01 X2.2595  Y-0.0533 
G01 X2.2615  Y-0.0471 
G01 X2.2645  Y-0.0412 
G01 X2.2683  Y-0.0360 
G01 X2.2730  Y-0.0313 
G01 X2.2782  Y-0.0275 
G01 X2.2841  Y-0.0245 
G01 X2.2903  Y-0.0225 
G01 X2.2967  Y-0.0215 
G01 X2.3033  Y-0.0215 
G01 X2.3097  Y-0.0225 
G01 X2.3159  Y-0.0245 
G01 X2.3218  Y-0.0275 
G01 X2.3270  Y-0.0313 
G01 X2.3317  Y-0.0360 
G00 Z0.1000  
G00 X2.2317  Y-0.0360 
G01 Z-0.0070 F10    
G01 X2.2355  Y-0.0412 F20    
G01 X2.2385  Y-0.0471 
G01 X2.2405  Y-0.0533 
G01 X2.2415  Y-0.0597 
G01 X2.2415  Y-0.1403 
G01 X2.2405  Y-0.1467 
G01 X2.2385  Y-0.1529 
G01 X2.2355  Y-0.1588 
G01 X2.2317  Y-0.1640 
G01 X2.2270  Y-0.1687 
G01 X2.2218  Y-0.1725 
G01 X2.2159  Y-0.1755 
G01 X2.2097  Y-0.1775 
G01 X2.2033  Y-0.1785 
G01 X2.1967  Y-0.1785 
G01 X2.1903  Y-0.1775 
G01 X2.1841  Y-0.1755 
G01 X2.1782  Y-0.1725 
G01 X2.1730  Y-0.1687 
G01 X2.1683  Y-0.1640 
G01 X2.1645  Y-0.1588 
G01 X2.1615  Y-0.1529 
G01 X2.1595  Y-0.1467 
G01 X2.1585  Y-0.1403 
G01 X2.1585  Y-0.0597 
G01 X2.1595  Y-0.0533 
G01 X2.1615  Y-0.0471 
G01 X2.1645  Y-0.0412 
G01 X2.1683  Y-0.0360 
G01 X2.1730  Y-0.0313 
G01 X2.1782  Y-0.0275 
G01 X2.1841  Y-0.0245 
G01 X2.1903  Y-0.0225 
G01 X2.1967  Y-0.0215 
G01 X2.2033  Y-0.0215 
G01 X2.2097  Y-0.0225 
G01 X2.2159  Y-0.0245 
G01 X2.2218  Y-0.0275 
G01 X2.2270  Y-0.0313 
G01 X2.2317  Y-0.0360 
G00 Z0.1000  
G00 X2.1317  Y-0.0360 
G01 Z-0.0070 F10    
G01 X2.1355  Y-0.0412 F20    
G01 X2.1385  Y-0.0471 
G01 X2.1405  Y-0.0533 
G01 X2.1415  Y-0.0597 
G01 X2.1415  Y-0.1403 
G01 X2.1405  Y-0.1467 
G01 X2.1385  Y-0.1529 
G01 X2.1355  Y-0.1588 
G01 X2.1317  Y-0.1640 
G01 X2.1270  Y-0.1687 
G01 X2.1218  Y-0.1725 
G01 X2.1159  Y-0.1755 
G01 X2.1097  Y-0.1775 
G01 X2.1033  Y-0.1785 
G01 X2.0967  Y-0.1785 
G01 X2.0903  Y-0.1775 
G01 X2.0841  Y-0.1755 
G01 X2.0782  Y-0.1725 
G01 X2.0730  Y-0.1687 
G01 X2.0683  Y-0.1640 
G01 X2.0645  Y-0.1588 
G01 X2.0615  Y-0.1529 
G01 X2.0595  Y-0.1467 
G01 X2.0585  Y-0.1403 
G01 X2.0585  Y-0.0597 
G01 X2.0595  Y-0.0533 
G01 X2.0615  Y-0.0471 
G01 X2.0645  Y-0.0412 
G01 X2.0683  Y-0.0360 
G01 X2.0730  Y-0.0313 
G01 X2.0782  Y-0.0275 
G01 X2.0841  Y-0.0245 
G01 X2.0903  Y-0.0225 
G01 X2.0967  Y-0.0215 
G01 X2.1033  Y-0.0215 
G01 X2.1097  Y-0.0225 
G01 X2.1159  Y-0.0245 
G01 X2.1218  Y-0.0275 
G01 X2.1270  Y-0.0313 
G01 X2.1317  Y-0.0360 
G00 Z0.1000  
G00 X1.9317  Y-0.0360 
G01 Z-0.0070 F10    
G01 X1.9355  Y-0.0412 F20    
G01 X1.9385  Y-0.0471 
G01 X1.9405  Y-0.0533 
G01 X1.9415  Y-0.0597 
G01 X1.9415  Y-0.1403 
G01 X1.9405  Y-0.1467 
G01 X1.9385  Y-0.1529 
G01 X1.9355  Y-0.1588 
G01 X1.9317  Y-0.1640 
G01 X1.9270  Y-0.1687 
G01 X1.9218  Y-0.1725 
G01 X1.9159  Y-0.1755 
G01 X1.9097  Y-0.1775 
G01 X1.9033  Y-0.1785 
G01 X1.8967  Y-0.1785 
G01 X1.8903  Y-0.1775 
G01 X1.8841  Y-0.1755 
G01 X1.8782  Y-0.1725 
G01 X1.8730  Y-0.1687 
G01 X1.8683  Y-0.1640 
G01 X1.8645  Y-0.1588 
G01 X1.8615  Y-0.1529 
G01 X1.8595  Y-0.1467 
G01 X1.8585  Y-0.1403 
G01 X1.8585  Y-0.0597 
G01 X1.8595  Y-0.0533 
G01 X1.8615  Y-0.0471 
G01 X1.8645  Y-0.0412 
G01 X1.8683  Y-0.0360 
G01 X1.8730  Y-0.0313 
G01 X1.8782  Y-0.0275 
G01 X1.8841  Y-0.0245 
G01 X1.8903  Y-0.0225 
G01 X1.8967  Y-0.0215 
G01 X1.9033  Y-0.0215 
G01 X1.9097  Y-0.0225 
G01 X1.9159  Y-0.0245 
G01 X1.9218  Y-0.0275 
G01 X1.9270  Y-0.0313 
G01 X1.9317  Y-0.0360 
G00 Z0.1000  
G00 X1.8317  Y-0.0360 
G01 Z-0.0070 F10    
G01 X1.8355  Y-0.0412 F20    
G01 X1.8385  Y-0.0471 
G01 X1.8405  Y-0.0533 
G01 X1.8415  Y-0.0597 
G01 X1.8415  Y-0.1403 
G01 X1.8405  Y-0.1467 
G01 X1.8385  Y-0.1529 
G01 X1.8355  Y-0.1588 
G01 X1.8317  Y-0.1640 
G01 X1.8270  Y-0.1687 
G01 X1.8218  Y-0.1725 
G01 X1.8159  Y-0.1755 
G01 X1.8097  Y-0.1775 
G01 X1.8033  Y-0.1785 
G01 X1.7967  Y-0.1785 
G01 X1.7903  Y-0.1775 
G01 X1.7841  Y-0.1755 
G01 X1.7782  Y-0.1725 
G01 X1.7730  Y-0.1687 
G01 X1.7683  Y-0.1640 
G01 X1.7645  Y-0.1588 
G01 X1.7615  Y-0.1529 
G01 X1.7595  Y-0.1467 
G01 X1.7585  Y-0.1403 
G01 X1.7585  Y-0.0597 
G01 X1.7595  Y-0.0533 
G01 X1.7615  Y-0.0471 
G01 X1.7645  Y-0.0412 
G01 X1.7683  Y-0.0360 
G01 X1.7730  Y-0.0313 
G01 X1.7782  Y-0.0275 
G01 X1.7841  Y-0.0245 
G01 X1.7903  Y-0.0225 
G01 X1.7967  Y-0.0215 
G01 X1.8033  Y-0.0215 
G01 X1.8097  Y-0.0225 
G01 X1.8159  Y-0.0245 
G01 X1.8218  Y-0.0275 
G01 X1.8270  Y-0.0313 
G01 X1.8317  Y-0.0360 
G00 Z0.1000  
G00 X1.7317  Y-0.0360 
G01 Z-0.0070 F10    
G01 X1.7355  Y-0.0412 F20    
G01 X1.7385  Y-0.0471 
G01 X1.7405  Y-0.0533 
G01 X1.7415  Y-0.0597 
G01 X1.7415  Y-0.1403 
G01 X1.7405  Y-0.1467 
G01 X1.7385  Y-0.1529 
G01 X1.7355  Y-0.1588 
G01 X1.7317  Y-0.1640 
G01 X1.7270  Y-0.1687 
G01 X1.7218  Y-0.1725 
G01 X1.7159  Y-0.1755 
G01 X1.7097  Y-0.1775 
G01 X1.7033  Y-0.1785 
G01 X1.6967  Y-0.1785 
G01 X1.6903  Y-0.1775 
G01 X1.6841  Y-0.1755 
G01 X1.6782  Y-0.1725 
G01 X1.6730  Y-0.1687 
G01 X1.6683  Y-0.1640 
G01 X1.6645  Y-0.1588 
G01 X1.6615  Y-0.1529 
G01 X1.6595  Y-0.1467 
G01 X1.6585  Y-0.1403 
G01 X1.6585  Y-0.0597 
G01 X1.6595  Y-0.0533 
G01 X1.6615  Y-0.0471 
G01 X1.6645  Y-0.0412 
G01 X1.6683  Y-0.0360 
G01 X1.6730  Y-0.0313 
G01 X1.6782  Y-0.0275 
G01 X1.6841  Y-0.0245 
G01 X1.6903  Y-0.0225 
G01 X1.6967  Y-0.0215 
G01 X1.7033  Y-0.0215 
G01 X1.7097  Y-0.0225 
G01 X1.7159  Y-0.0245 
G01 X1.7218  Y-0.0275 
G01 X1.7270  Y-0.0313 
G01 X1.7317  Y-0.0360 
G00 Z0.1000  
G00 X1.6317  Y-0.0360 
G01 Z-0.0070 F10    
G01 X1.6355  Y-0.0412 F20    
G01 X1.6385  Y-0.0471 
G01 X1.6405  Y-0.0533 
G01 X1.6415  Y-0.0597 
G01 X1.6415  Y-0.1403 
G01 X1.6405  Y-0.1467 
G01 X1.6385  Y-0.1529 
G01 X1.6355  Y-0.1588 
G01 X1.6317  Y-0.1640 
G01 X1.6270  Y-0.1687 
G01 X1.6218  Y-0.1725 
G01 X1.6159  Y-0.1755 
G01 X1.6097  Y-0.1775 
G01 X1.6033  Y-0.1785 
G01 X1.5967  Y-0.1785 
G01 X1.5903  Y-0.1775 
G01 X1.5841  Y-0.1755 
G01 X1.5782  Y-0.1725 
G01 X1.5730  Y-0.1687 
G01 X1.5683  Y-0.1640 
G01 X1.5645  Y-0.1588 
G01 X1.5615  Y-0.1529 
G01 X1.5595  Y-0.1467 
G01 X1.5585  Y-0.1403 
G01 X1.5585  Y-0.0597 
G01 X1.5595  Y-0.0533 
G01 X1.5615  Y-0.0471 
G01 X1.5645  Y-0.0412 
G01 X1.5683  Y-0.0360 
G01 X1.5730  Y-0.0313 
G01 X1.5782  Y-0.0275 
G01 X1.5841  Y-0.0245 
G01 X1.5903  Y-0.0225 
G01 X1.5967  Y-0.0215 
G01 X1.6033  Y-0.0215 
G01 X1.6097  Y-0.0225 
G01 X1.6159  Y-0.0245 
G01 X1.6218  Y-0.0275 
G01 X1.6270  Y-0.0313 
G01 X1.6317  Y-0.0360 
G00 Z0.1000  
G00 X1.5317  Y-0.0360 
G01 Z-0.0070 F10    
G01 X1.5355  Y-0.0412 F20    
G01 X1.5385  Y-0.0471 
G01 X1.5405  Y-0.0533 
G01 X1.5415  Y-0.0597 
G01 X1.5415  Y-0.1403 
G01 X1.5405  Y-0.1467 
G01 X1.5385  Y-0.1529 
G01 X1.5355  Y-0.1588 
G01 X1.5317  Y-0.1640 
G01 X1.5270  Y-0.1687 
G01 X1.5218  Y-0.1725 
G01 X1.5159  Y-0.1755 
G01 X1.5097  Y-0.1775 
G01 X1.5033  Y-0.1785 
G01 X1.4967  Y-0.1785 
G01 X1.4903  Y-0.1775 
G01 X1.4841  Y-0.1755 
G01 X1.4782  Y-0.1725 
G01 X1.4730  Y-0.1687 
G01 X1.4683  Y-0.1640 
G01 X1.4645  Y-0.1588 
G01 X1.4615  Y-0.1529 
G01 X1.4595  Y-0.1467 
G01 X1.4585  Y-0.1403 
G01 X1.4585  Y-0.0597 
G01 X1.4595  Y-0.0533 
G01 X1.4615  Y-0.0471 
G01 X1.4645  Y-0.0412 
G01 X1.4683  Y-0.0360 
G01 X1.4730  Y-0.0313 
G01 X1.4782  Y-0.0275 
G01 X1.4841  Y-0.0245 
G01 X1.4903  Y-0.0225 
G01 X1.4967  Y-0.0215 
G01 X1.5033  Y-0.0215 
G01 X1.5097  Y-0.0225 
G01 X1.5159  Y-0.0245 
G01 X1.5218  Y-0.0275 
G01 X1.5270  Y-0.0313 
G01 X1.5317  Y-0.0360 
G00 Z0.1000  
G00 X1.4317  Y-0.0360 
G01 Z-0.0070 F10    
G01 X1.4355  Y-0.0412 F20    
G01 X1.4385  Y-0.0471 
G01 X1.4405  Y-0.0533 
G01 X1.4415  Y-0.0597 
G01 X1.4415  Y-0.1403 
G01 X1.4405  Y-0.1467 
G01 X1.4385  Y-0.1529 
G01 X1.4355  Y-0.1588 
G01 X1.4317  Y-0.1640 
G01 X1.4270  Y-0.1687 
G01 X1.4218  Y-0.1725 
G01 X1.4159  Y-0.1755 
G01 X1.4097  Y-0.1775 
G01 X1.4033  Y-0.1785 
G01 X1.3967  Y-0.1785 
G01 X1.3903  Y-0.1775 
G01 X1.3841  Y-0.1755 
G01 X1.3782  Y-0.1725 
G01 X1.3730  Y-0.1687 
G01 X1.3683  Y-0.1640 
G01 X1.3645  Y-0.1588 
G01 X1.3615  Y-0.1529 
G01 X1.3595  Y-0.1467 
G01 X1.3585  Y-0.1403 
G01 X1.3585  Y-0.0597 
G01 X1.3595  Y-0.0533 
G01 X1.3615  Y-0.0471 
G01 X1.3645  Y-0.0412 
G01 X1.3683  Y-0.0360 
G01 X1.3730  Y-0.0313 
G01 X1.3782  Y-0.0275 
G01 X1.3841  Y-0.0245 
G01 X1.3903  Y-0.0225 
G01 X1.3967  Y-0.0215 
G01 X1.4033  Y-0.0215 
G01 X1.4097  Y-0.0225 
G01 X1.4159  Y-0.0245 
G01 X1.4218  Y-0.0275 
G01 X1.4270  Y-0.0313 
G01 X1.4317  Y-0.0360 
G00 Z0.1000  
G00 X1.3317  Y-0.0360 
G01 Z-0.0070 F10    
G01 X1.3355  Y-0.0412 F20    
G01 X1.3385  Y-0.0471 
G01 X1.3405  Y-0.0533 
G01 X1.3415  Y-0.0597 
G01 X1.3415  Y-0.1403 
G01 X1.3405  Y-0.1467 
G01 X1.3385  Y-0.1529 
G01 X1.3355  Y-0.1588 
G01 X1.3317  Y-0.1640 
G01 X1.3270  Y-0.1687 
G01 X1.3218  Y-0.1725 
G01 X1.3159  Y-0.1755 
G01 X1.3097  Y-0.1775 
G01 X1.3033  Y-0.1785 
G01 X1.2967  Y-0.1785 
G01 X1.2903  Y-0.1775 
G01 X1.2841  Y-0.1755 
G01 X1.2782  Y-0.1725 
G01 X1.2730  Y-0.1687 
G01 X1.2683  Y-0.1640 
G01 X1.2645  Y-0.1588 
G01 X1.2615  Y-0.1529 
G01 X1.2595  Y-0.1467 
G01 X1.2585  Y-0.1403 
G01 X1.2585  Y-0.0597 
G01 X1.2595  Y-0.0533 
G01 X1.2615  Y-0.0471 
G01 X1.2645  Y-0.0412 
G01 X1.2683  Y-0.0360 
G01 X1.2730  Y-0.0313 
G01 X1.2782  Y-0.0275 
G01 X1.2841  Y-0.0245 
G01 X1.2903  Y-0.0225 
G01 X1.2967  Y-0.0215 
G01 X1.3033  Y-0.0215 
G01 X1.3097  Y-0.0225 
G01 X1.3159  Y-0.0245 
G01 X1.3218  Y-0.0275 
G01 X1.3270  Y-0.0313 
G01 X1.3317  Y-0.0360 
G00 Z0.1000  
G00 X1.2317  Y-0.0360 
G01 Z-0.0070 F10    
G01 X1.2355  Y-0.0412 F20    
G01 X1.2385  Y-0.0471 
G01 X1.2405  Y-0.0533 
G01 X1.2415  Y-0.0597 
G01 X1.2415  Y-0.1403 
G01 X1.2405  Y-0.1467 
G01 X1.2385  Y-0.1529 
G01 X1.2355  Y-0.1588 
G01 X1.2317  Y-0.1640 
G01 X1.2270  Y-0.1687 
G01 X1.2218  Y-0.1725 
G01 X1.2159  Y-0.1755 
G01 X1.2097  Y-0.1775 
G01 X1.2033  Y-0.1785 
G01 X1.1967  Y-0.1785 
G01 X1.1903  Y-0.1775 
G01 X1.1841  Y-0.1755 
G01 X1.1782  Y-0.1725 
G01 X1.1730  Y-0.1687 
G01 X1.1683  Y-0.1640 
G01 X1.1645  Y-0.1588 
G01 X1.1615  Y-0.1529 
G01 X1.1595  Y-0.1467 
G01 X1.1585  Y-0.1403 
G01 X1.1585  Y-0.0597 
G01 X1.1595  Y-0.0533 
G01 X1.1615  Y-0.0471 
G01 X1.1645  Y-0.0412 
G01 X1.1683  Y-0.0360 
G01 X1.1730  Y-0.0313 
G01 X1.1782  Y-0.0275 
G01 X1.1841  Y-0.0245 
G01 X1.1903  Y-0.0225 
G01 X1.1967  Y-0.0215 
G01 X1.2033  Y-0.0215 
G01 X1.2097  Y-0.0225 
G01 X1.2159  Y-0.0245 
G01 X1.2218  Y-0.0275 
G01 X1.2270  Y-0.0313 
G01 X1.2317  Y-0.0360 
G00 Z0.1000  
G00 X0.7772  Y-0.0385 
G01 Z-0.0070 F10    
G01 X0.8015  Y-0.0628 F20    
G01 X0.8015  Y-0.0972 
G01 X0.7772  Y-0.1215 
G01 X0.7428  Y-0.1215 
G01 X0.7185  Y-0.0972 
G01 X0.7185  Y-0.0628 
G01 X0.7428  Y-0.0385 
G01 X0.7772  Y-0.0385 
G00 Z0.1000  
G00 X0.7772  Y-0.1385 
G01 Z-0.0070 F10    
G01 X0.8015  Y-0.1628 F20    
G01 X0.8015  Y-0.1972 
G01 X0.7772  Y-0.2215 
G01 X0.7428  Y-0.2215 
G01 X0.7185  Y-0.1972 
G01 X0.7185  Y-0.1628 
G01 X0.7428  Y-0.1385 
G01 X0.7772  Y-0.1385 
G00 Z0.1000  
G00 X0.6772  Y-0.1385 
G01 Z-0.0070 F10    
G01 X0.7015  Y-0.1628 F20    
G01 X0.7015  Y-0.1972 
G01 X0.6772  Y-0.2215 
G01 X0.6428  Y-0.2215 
G01 X0.6185  Y-0.1972 
G01 X0.6185  Y-0.1628 
G01 X0.6428  Y-0.1385 
G01 X0.6772  Y-0.1385 
G00 Z0.1000  
G00 X0.6772  Y-0.1215 
G01 Z-0.0070 F10    
G01 X0.6428  Y-0.1215 F20    
G01 X0.6185  Y-0.0972 
G01 X0.6185  Y-0.0628 
G01 X0.6428  Y-0.0385 
G01 X0.6772  Y-0.0385 
G01 X0.7015  Y-0.0628 
G01 X0.7015  Y-0.0972 
G01 X0.6772  Y-0.1215 
G00 Z0.1000  
G00 X0.6015  Y-0.0972 
G01 Z-0.0070 F10    
G01 X0.5772  Y-0.1215 F20    
G01 X0.5428  Y-0.1215 
G01 X0.5185  Y-0.0972 
G01 X0.5185  Y-0.0628 
G01 X0.5428  Y-0.0385 
G01 X0.5772  Y-0.0385 
G01 X0.6015  Y-0.0628 
G01 X0.6015  Y-0.0972 
G00 Z0.1000  
G00 X0.5772  Y-0.1385 
G01 Z-0.0070 F10    
G01 X0.6015  Y-0.1628 F20    
G01 X0.6015  Y-0.1972 
G01 X0.5772  Y-0.2215 
G01 X0.5428  Y-0.2215 
G01 X0.5185  Y-0.1972 
G01 X0.5185  Y-0.1628 
G01 X0.5428  Y-0.1385 
G01 X0.5772  Y-0.1385 
G00 Z0.1000  
G00 X0.5187  Y0.1230  
G01 Z-0.0070 F10    
G01 X0.5140  Y0.1183  F20    
G01 X0.5088  Y0.1145  
G01 X0.5029  Y0.1115  
G01 X0.4967  Y0.1095  
G01 X0.4903  Y0.1085  
G01 X0.4097  Y0.1085  
G01 X0.4033  Y0.1095  
G01 X0.3971  Y0.1115  
G01 X0.3912  Y0.1145  
G01 X0.3860  Y0.1183  
G01 X0.3813  Y0.1230  
G01 X0.3775  Y0.1282  
G01 X0.3745  Y0.1341  
G01 X0.3725  Y0.1403  
G01 X0.3715  Y0.1467  
G01 X0.3715  Y0.1533  
G01 X0.3725  Y0.1597  
G01 X0.3745  Y0.1659  
G01 X0.3775  Y0.1718  
G01 X0.3813  Y0.1770  
G01 X0.3860  Y0.1817  
G01 X0.3912  Y0.1855  
G01 X0.3971  Y0.1885  
G01 X0.4033  Y0.1905  
G01 X0.4097  Y0.1915  
G01 X0.4903  Y0.1915  
G01 X0.4967  Y0.1905  
G01 X0.5029  Y0.1885  
G01 X0.5088  Y0.1855  
G01 X0.5140  Y0.1817  
G01 X0.5187  Y0.1770  
G01 X0.5225  Y0.1718  
G01 X0.5255  Y0.1659  
G01 X0.5275  Y0.1597  
G01 X0.5285  Y0.1533  
G01 X0.5285  Y0.1467  
G01 X0.5275  Y0.1403  
G01 X0.5255  Y0.1341  
G01 X0.5225  Y0.1282  
G01 X0.5187  Y0.1230  
G00 Z0.1000  
G00 X0.5187  Y0.2230  
G01 Z-0.0070 F10    
G01 X0.5140  Y0.2183  F20    
G01 X0.5088  Y0.2145  
G01 X0.5029  Y0.2115  
G01 X0.4967  Y0.2095  
G01 X0.4903  Y0.2085  
G01 X0.4097  Y0.2085  
G01 X0.4033  Y0.2095  
G01 X0.3971  Y0.2115  
G01 X0.3912  Y0.2145  
G01 X0.3860  Y0.2183  
G01 X0.3813  Y0.2230  
G01 X0.3775  Y0.2282  
G01 X0.3745  Y0.2341  
G01 X0.3725  Y0.2403  
G01 X0.3715  Y0.2467  
G01 X0.3715  Y0.2533  
G01 X0.3725  Y0.2597  
G01 X0.3745  Y0.2659  
G01 X0.3775  Y0.2718  
G01 X0.3813  Y0.2770  
G01 X0.3860  Y0.2817  
G01 X0.3912  Y0.2855  
G01 X0.3971  Y0.2885  
G01 X0.4033  Y0.2905  
G01 X0.4097  Y0.2915  
G01 X0.4903  Y0.2915  
G01 X0.4967  Y0.2905  
G01 X0.5029  Y0.2885  
G01 X0.5088  Y0.2855  
G01 X0.5140  Y0.2817  
G01 X0.5187  Y0.2770  
G01 X0.5225  Y0.2718  
G01 X0.5255  Y0.2659  
G01 X0.5275  Y0.2597  
G01 X0.5285  Y0.2533  
G01 X0.5285  Y0.2467  
G01 X0.5275  Y0.2403  
G01 X0.5255  Y0.2341  
G01 X0.5225  Y0.2282  
G01 X0.5187  Y0.2230  
G00 Z0.1000  
G00 X0.4239  Y-0.8566 
G01 Z-0.0070 F10    
G01 X0.4297  Y-0.8624 F20    
G01 X0.4345  Y-0.8690 
G01 X0.4382  Y-0.8763 
G01 X0.4407  Y-0.8841 
G01 X0.4420  Y-0.8922 
G01 X0.4420  Y-0.9004 
G01 X0.4407  Y-0.9085 
G01 X0.4382  Y-0.9163 
G01 X0.4345  Y-0.9236 
G01 X0.4297  Y-0.9302 
G01 X0.4239  Y-0.9360 
G01 X0.4173  Y-0.9408 
G01 X0.4100  Y-0.9445 
G01 X0.4022  Y-0.9470 
G01 X0.3941  Y-0.9483 
G01 X0.3859  Y-0.9483 
G01 X0.3778  Y-0.9470 
G01 X0.3700  Y-0.9445 
G01 X0.3627  Y-0.9408 
G01 X0.3561  Y-0.9360 
G01 X0.3503  Y-0.9302 
G01 X0.3455  Y-0.9236 
G01 X0.3418  Y-0.9163 
G01 X0.3393  Y-0.9085 
G01 X0.3380  Y-0.9004 
G01 X0.3380  Y-0.8922 
G01 X0.3393  Y-0.8841 
G01 X0.3418  Y-0.8763 
G01 X0.3455  Y-0.8690 
G01 X0.3503  Y-0.8624 
G01 X0.3561  Y-0.8566 
G01 X0.3627  Y-0.8518 
G01 X0.3700  Y-0.8481 
G01 X0.3778  Y-0.8456 
G01 X0.3859  Y-0.8443 
G01 X0.3941  Y-0.8443 
G01 X0.4022  Y-0.8456 
G01 X0.4100  Y-0.8481 
G01 X0.4173  Y-0.8518 
G01 X0.4239  Y-0.8566 
G00 Z0.1000  
G00 X0.4239  Y-1.0535 
G01 Z-0.0070 F10    
G01 X0.4297  Y-1.0593 F20    
G01 X0.4345  Y-1.0659 
G01 X0.4382  Y-1.0732 
G01 X0.4407  Y-1.0810 
G01 X0.4420  Y-1.0891 
G01 X0.4420  Y-1.0972 
G01 X0.4407  Y-1.1053 
G01 X0.4382  Y-1.1131 
G01 X0.4345  Y-1.1204 
G01 X0.4297  Y-1.1270 
G01 X0.4239  Y-1.1328 
G01 X0.4173  Y-1.1376 
G01 X0.4100  Y-1.1413 
G01 X0.4022  Y-1.1439 
G01 X0.3941  Y-1.1451 
G01 X0.3859  Y-1.1451 
G01 X0.3778  Y-1.1439 
G01 X0.3700  Y-1.1413 
G01 X0.3627  Y-1.1376 
G01 X0.3561  Y-1.1328 
G01 X0.3503  Y-1.1270 
G01 X0.3455  Y-1.1204 
G01 X0.3418  Y-1.1131 
G01 X0.3393  Y-1.1053 
G01 X0.3380  Y-1.0972 
G01 X0.3380  Y-1.0891 
G01 X0.3393  Y-1.0810 
G01 X0.3418  Y-1.0732 
G01 X0.3455  Y-1.0659 
G01 X0.3503  Y-1.0593 
G01 X0.3561  Y-1.0535 
G01 X0.3627  Y-1.0487 
G01 X0.3700  Y-1.0450 
G01 X0.3778  Y-1.0424 
G01 X0.3859  Y-1.0411 
G01 X0.3941  Y-1.0411 
G01 X0.4022  Y-1.0424 
G01 X0.4100  Y-1.0450 
G01 X0.4173  Y-1.0487 
G01 X0.4239  Y-1.0535 
G00 Z0.1000  
G00 X0.4384  Y-1.2380 
G01 Z-0.0070 F10    
G01 X0.4400  Y-1.2387 F20    
G01 X0.4413  Y-1.2400 
G01 X0.4420  Y-1.2416 
G01 X0.4420  Y-1.3384 
G01 X0.4413  Y-1.3400 
G01 X0.4400  Y-1.3413 
G01 X0.4384  Y-1.3420 
G01 X0.3416  Y-1.3420 
G01 X0.3400  Y-1.3413 
G01 X0.3387  Y-1.3400 
G01 X0.3380  Y-1.3384 
G01 X0.3380  Y-1.2416 
G01 X0.3387  Y-1.2400 
G01 X0.3400  Y-1.2387 
G01 X0.3416  Y-1.2380 
G01 X0.4384  Y-1.2380 
G00 Z0.1000  
G00 X1.0887  Y-1.2400 
G01 Z-0.0070 F10    
G01 X1.0900  Y-1.2387 F20    
G01 X1.0916  Y-1.2380 
G01 X1.1884  Y-1.2380 
G01 X1.1900  Y-1.2387 
G01 X1.1913  Y-1.2400 
G01 X1.1920  Y-1.2416 
G01 X1.1920  Y-1.3384 
G01 X1.1913  Y-1.3400 
G01 X1.1900  Y-1.3413 
G01 X1.1884  Y-1.3420 
G01 X1.0916  Y-1.3420 
G01 X1.0900  Y-1.3413 
G01 X1.0887  Y-1.3400 
G01 X1.0880  Y-1.3384 
G01 X1.0880  Y-1.2416 
G01 X1.0887  Y-1.2400 
G00 Z0.1000  
G00 X1.1061  Y-1.1328 
G01 Z-0.0070 F10    
G01 X1.1003  Y-1.1270 F20    
G01 X1.0955  Y-1.1204 
G01 X1.0918  Y-1.1131 
G01 X1.0893  Y-1.1053 
G01 X1.0880  Y-1.0972 
G01 X1.0880  Y-1.0891 
G01 X1.0893  Y-1.0810 
G01 X1.0918  Y-1.0732 
G01 X1.0955  Y-1.0659 
G01 X1.1003  Y-1.0593 
G01 X1.1061  Y-1.0535 
G01 X1.1127  Y-1.0487 
G01 X1.1200  Y-1.0450 
G01 X1.1278  Y-1.0424 
G01 X1.1359  Y-1.0411 
G01 X1.1441  Y-1.0411 
G01 X1.1522  Y-1.0424 
G01 X1.1600  Y-1.0450 
G01 X1.1673  Y-1.0487 
G01 X1.1739  Y-1.0535 
G01 X1.1797  Y-1.0593 
G01 X1.1845  Y-1.0659 
G01 X1.1882  Y-1.0732 
G01 X1.1907  Y-1.0810 
G01 X1.1920  Y-1.0891 
G01 X1.1920  Y-1.0972 
G01 X1.1907  Y-1.1053 
G01 X1.1882  Y-1.1131 
G01 X1.1845  Y-1.1204 
G01 X1.1797  Y-1.1270 
G01 X1.1739  Y-1.1328 
G01 X1.1673  Y-1.1376 
G01 X1.1600  Y-1.1413 
G01 X1.1522  Y-1.1439 
G01 X1.1441  Y-1.1451 
G01 X1.1359  Y-1.1451 
G01 X1.1278  Y-1.1439 
G01 X1.1200  Y-1.1413 
G01 X1.1127  Y-1.1376 
G01 X1.1061  Y-1.1328 
G00 Z0.1000  
G00 X1.1061  Y-0.9360 
G01 Z-0.0070 F10    
G01 X1.1003  Y-0.9302 F20    
G01 X1.0955  Y-0.9236 
G01 X1.0918  Y-0.9163 
G01 X1.0893  Y-0.9085 
G01 X1.0880  Y-0.9004 
G01 X1.0880  Y-0.8922 
G01 X1.0893  Y-0.8841 
G01 X1.0918  Y-0.8763 
G01 X1.0955  Y-0.8690 
G01 X1.1003  Y-0.8624 
G01 X1.1061  Y-0.8566 
G01 X1.1127  Y-0.8518 
G01 X1.1200  Y-0.8481 
G01 X1.1278  Y-0.8456 
G01 X1.1359  Y-0.8443 
G01 X1.1441  Y-0.8443 
G01 X1.1522  Y-0.8456 
G01 X1.1600  Y-0.8481 
G01 X1.1673  Y-0.8518 
G01 X1.1739  Y-0.8566 
G01 X1.1797  Y-0.8624 
G01 X1.1845  Y-0.8690 
G01 X1.1882  Y-0.8763 
G01 X1.1907  Y-0.8841 
G01 X1.1920  Y-0.8922 
G01 X1.1920  Y-0.9004 
G01 X1.1907  Y-0.9085 
G01 X1.1882  Y-0.9163 
G01 X1.1845  Y-0.9236 
G01 X1.1797  Y-0.9302 
G01 X1.1739  Y-0.9360 
G01 X1.1673  Y-0.9408 
G01 X1.1600  Y-0.9445 
G01 X1.1522  Y-0.9470 
G01 X1.1441  Y-0.9483 
G01 X1.1359  Y-0.9483 
G01 X1.1278  Y-0.9470 
G01 X1.1200  Y-0.9445 
G01 X1.1127  Y-0.9408 
G01 X1.1061  Y-0.9360 
G00 Z0.1000  
G00 X1.8561  Y-0.9360 
G01 Z-0.0070 F10    
G01 X1.8503  Y-0.9302 F20    
G01 X1.8455  Y-0.9236 
G01 X1.8418  Y-0.9163 
G01 X1.8393  Y-0.9085 
G01 X1.8380  Y-0.9004 
G01 X1.8380  Y-0.8922 
G01 X1.8393  Y-0.8841 
G01 X1.8418  Y-0.8763 
G01 X1.8455  Y-0.8690 
G01 X1.8503  Y-0.8624 
G01 X1.8561  Y-0.8566 
G01 X1.8627  Y-0.8518 
G01 X1.8700  Y-0.8481 
G01 X1.8778  Y-0.8456 
G01 X1.8859  Y-0.8443 
G01 X1.8941  Y-0.8443 
G01 X1.9022  Y-0.8456 
G01 X1.9100  Y-0.8481 
G01 X1.9173  Y-0.8518 
G01 X1.9239  Y-0.8566 
G01 X1.9297  Y-0.8624 
G01 X1.9345  Y-0.8690 
G01 X1.9382  Y-0.8763 
G01 X1.9407  Y-0.8841 
G01 X1.9420  Y-0.8922 
G01 X1.9420  Y-0.9004 
G01 X1.9407  Y-0.9085 
G01 X1.9382  Y-0.9163 
G01 X1.9345  Y-0.9236 
G01 X1.9297  Y-0.9302 
G01 X1.9239  Y-0.9360 
G01 X1.9173  Y-0.9408 
G01 X1.9100  Y-0.9445 
G01 X1.9022  Y-0.9470 
G01 X1.8941  Y-0.9483 
G01 X1.8859  Y-0.9483 
G01 X1.8778  Y-0.9470 
G01 X1.8700  Y-0.9445 
G01 X1.8627  Y-0.9408 
G01 X1.8561  Y-0.9360 
G00 Z0.1000  
G00 X1.8561  Y-1.0535 
G01 Z-0.0070 F10    
G01 X1.8627  Y-1.0487 F20    
G01 X1.8700  Y-1.0450 
G01 X1.8778  Y-1.0424 
G01 X1.8859  Y-1.0411 
G01 X1.8941  Y-1.0411 
G01 X1.9022  Y-1.0424 
G01 X1.9100  Y-1.0450 
G01 X1.9173  Y-1.0487 
G01 X1.9239  Y-1.0535 
G01 X1.9297  Y-1.0593 
G01 X1.9345  Y-1.0659 
G01 X1.9382  Y-1.0732 
G01 X1.9407  Y-1.0810 
G01 X1.9420  Y-1.0891 
G01 X1.9420  Y-1.0972 
G01 X1.9407  Y-1.1053 
G01 X1.9382  Y-1.1131 
G01 X1.9345  Y-1.1204 
G01 X1.9297  Y-1.1270 
G01 X1.9239  Y-1.1328 
G01 X1.9173  Y-1.1376 
G01 X1.9100  Y-1.1413 
G01 X1.9022  Y-1.1439 
G01 X1.8941  Y-1.1451 
G01 X1.8859  Y-1.1451 
G01 X1.8778  Y-1.1439 
G01 X1.8700  Y-1.1413 
G01 X1.8627  Y-1.1376 
G01 X1.8561  Y-1.1328 
G01 X1.8503  Y-1.1270 
G01 X1.8455  Y-1.1204 
G01 X1.8418  Y-1.1131 
G01 X1.8393  Y-1.1053 
G01 X1.8380  Y-1.0972 
G01 X1.8380  Y-1.0891 
G01 X1.8393  Y-1.0810 
G01 X1.8418  Y-1.0732 
G01 X1.8455  Y-1.0659 
G01 X1.8503  Y-1.0593 
G01 X1.8561  Y-1.0535 
G00 Z0.1000  
G00 X1.8416  Y-1.2380 
G01 Z-0.0070 F10    
G01 X1.9384  Y-1.2380 F20    
G01 X1.9400  Y-1.2387 
G01 X1.9413  Y-1.2400 
G01 X1.9420  Y-1.2416 
G01 X1.9420  Y-1.3384 
G01 X1.9413  Y-1.3400 
G01 X1.9400  Y-1.3413 
G01 X1.9384  Y-1.3420 
G01 X1.8416  Y-1.3420 
G01 X1.8400  Y-1.3413 
G01 X1.8387  Y-1.3400 
G01 X1.8380  Y-1.3384 
G01 X1.8380  Y-1.2416 
G01 X1.8387  Y-1.2400 
G01 X1.8400  Y-1.2387 
G01 X1.8416  Y-1.2380 
G00 Z0.1000  
G00 X2.5887  Y-1.2400 
G01 Z-0.0070 F10    
G01 X2.5900  Y-1.2387 F20    
G01 X2.5916  Y-1.2380 
G01 X2.6884  Y-1.2380 
G01 X2.6900  Y-1.2387 
G01 X2.6913  Y-1.2400 
G01 X2.6920  Y-1.2416 
G01 X2.6920  Y-1.3384 
G01 X2.6913  Y-1.3400 
G01 X2.6900  Y-1.3413 
G01 X2.6884  Y-1.3420 
G01 X2.5916  Y-1.3420 
G01 X2.5900  Y-1.3413 
G01 X2.5887  Y-1.3400 
G01 X2.5880  Y-1.3384 
G01 X2.5880  Y-1.2416 
G01 X2.5887  Y-1.2400 
G00 Z0.1000  
G00 X2.6061  Y-1.1328 
G01 Z-0.0070 F10    
G01 X2.6003  Y-1.1270 F20    
G01 X2.5955  Y-1.1204 
G01 X2.5918  Y-1.1131 
G01 X2.5893  Y-1.1053 
G01 X2.5880  Y-1.0972 
G01 X2.5880  Y-1.0891 
G01 X2.5893  Y-1.0810 
G01 X2.5918  Y-1.0732 
G01 X2.5955  Y-1.0659 
G01 X2.6003  Y-1.0593 
G01 X2.6061  Y-1.0535 
G01 X2.6127  Y-1.0487 
G01 X2.6200  Y-1.0450 
G01 X2.6278  Y-1.0424 
G01 X2.6359  Y-1.0411 
G01 X2.6441  Y-1.0411 
G01 X2.6522  Y-1.0424 
G01 X2.6600  Y-1.0450 
G01 X2.6673  Y-1.0487 
G01 X2.6739  Y-1.0535 
G01 X2.6797  Y-1.0593 
G01 X2.6845  Y-1.0659 
G01 X2.6882  Y-1.0732 
G01 X2.6907  Y-1.0810 
G01 X2.6920  Y-1.0891 
G01 X2.6920  Y-1.0972 
G01 X2.6907  Y-1.1053 
G01 X2.6882  Y-1.1131 
G01 X2.6845  Y-1.1204 
G01 X2.6797  Y-1.1270 
G01 X2.6739  Y-1.1328 
G01 X2.6673  Y-1.1376 
G01 X2.6600  Y-1.1413 
G01 X2.6522  Y-1.1439 
G01 X2.6441  Y-1.1451 
G01 X2.6359  Y-1.1451 
G01 X2.6278  Y-1.1439 
G01 X2.6200  Y-1.1413 
G01 X2.6127  Y-1.1376 
G01 X2.6061  Y-1.1328 
G00 Z0.1000  
G00 X2.6061  Y-0.9360 
G01 Z-0.0070 F10    
G01 X2.6003  Y-0.9302 F20    
G01 X2.5955  Y-0.9236 
G01 X2.5918  Y-0.9163 
G01 X2.5893  Y-0.9085 
G01 X2.5880  Y-0.9004 
G01 X2.5880  Y-0.8922 
G01 X2.5893  Y-0.8841 
G01 X2.5918  Y-0.8763 
G01 X2.5955  Y-0.8690 
G01 X2.6003  Y-0.8624 
G01 X2.6061  Y-0.8566 
G01 X2.6127  Y-0.8518 
G01 X2.6200  Y-0.8481 
G01 X2.6278  Y-0.8456 
G01 X2.6359  Y-0.8443 
G01 X2.6441  Y-0.8443 
G01 X2.6522  Y-0.8456 
G01 X2.6600  Y-0.8481 
G01 X2.6673  Y-0.8518 
G01 X2.6739  Y-0.8566 
G01 X2.6797  Y-0.8624 
G01 X2.6845  Y-0.8690 
G01 X2.6882  Y-0.8763 
G01 X2.6907  Y-0.8841 
G01 X2.6920  Y-0.8922 
G01 X2.6920  Y-0.9004 
G01 X2.6907  Y-0.9085 
G01 X2.6882  Y-0.9163 
G01 X2.6845  Y-0.9236 
G01 X2.6797  Y-0.9302 
G01 X2.6739  Y-0.9360 
G01 X2.6673  Y-0.9408 
G01 X2.6600  Y-0.9445 
G01 X2.6522  Y-0.9470 
G01 X2.6441  Y-0.9483 
G01 X2.6359  Y-0.9483 
G01 X2.6278  Y-0.9470 
G01 X2.6200  Y-0.9445 
G01 X2.6127  Y-0.9408 
G01 X2.6061  Y-0.9360 
G00 Z0.1000  
G00 X3.3475  Y-0.9696 
G01 Z-0.0070 F10    
G01 X3.3558  Y-0.9613 F20    
G01 X3.3651  Y-0.9542 
G01 X3.3753  Y-0.9483 
G01 X3.3861  Y-0.9438 
G01 X3.3975  Y-0.9408 
G01 X3.4091  Y-0.9392 
G01 X3.4208  Y-0.9392 
G01 X3.4325  Y-0.9408 
G01 X3.4438  Y-0.9438 
G01 X3.4546  Y-0.9483 
G01 X3.4648  Y-0.9542 
G01 X3.4741  Y-0.9613 
G01 X3.4824  Y-0.9696 
G01 X3.4895  Y-0.9789 
G01 X3.4954  Y-0.9891 
G01 X3.4999  Y-0.9999 
G01 X3.5029  Y-1.0112 
G01 X3.5045  Y-1.0229 
G01 X3.5045  Y-1.0346 
G01 X3.5029  Y-1.0462 
G01 X3.4999  Y-1.0576 
G01 X3.4954  Y-1.0684 
G01 X3.4895  Y-1.0786 
G01 X3.4824  Y-1.0879 
G01 X3.4741  Y-1.0962 
G01 X3.4648  Y-1.1033 
G01 X3.4546  Y-1.1092 
G01 X3.4438  Y-1.1137 
G01 X3.4325  Y-1.1167 
G01 X3.4208  Y-1.1182 
G01 X3.4091  Y-1.1182 
G01 X3.3975  Y-1.1167 
G01 X3.3861  Y-1.1137 
G01 X3.3753  Y-1.1092 
G01 X3.3651  Y-1.1033 
G01 X3.3558  Y-1.0962 
G01 X3.3475  Y-1.0879 
G01 X3.3404  Y-1.0786 
G01 X3.3345  Y-1.0684 
G01 X3.3300  Y-1.0576 
G01 X3.3270  Y-1.0462 
G01 X3.3255  Y-1.0346 
G01 X3.3255  Y-1.0229 
G01 X3.3270  Y-1.0112 
G01 X3.3300  Y-0.9999 
G01 X3.3345  Y-0.9891 
G01 X3.3404  Y-0.9789 
G01 X3.3475  Y-0.9696 
G00 Z0.1000  
G00 X3.5326  Y-0.9698 
G01 Z-0.0070 F10    
G01 X3.5254  Y-0.9605 F20    
G01 X3.5196  Y-0.9503 
G01 X3.5151  Y-0.9395 
G01 X3.5120  Y-0.9281 
G01 X3.5105  Y-0.9165 
G01 X3.5105  Y-0.9048 
G01 X3.5120  Y-0.8931 
G01 X3.5151  Y-0.8818 
G01 X3.5196  Y-0.8710 
G01 X3.5254  Y-0.8608 
G01 X3.5326  Y-0.8515 
G01 X3.5409  Y-0.8432 
G01 X3.5502  Y-0.8361 
G01 X3.5603  Y-0.8302 
G01 X3.5712  Y-0.8257 
G01 X3.5825  Y-0.8227 
G01 X3.5941  Y-0.8211 
G01 X3.6059  Y-0.8211 
G01 X3.6175  Y-0.8227 
G01 X3.6288  Y-0.8257 
G01 X3.6397  Y-0.8302 
G01 X3.6498  Y-0.8361 
G01 X3.6591  Y-0.8432 
G01 X3.6674  Y-0.8515 
G01 X3.6746  Y-0.8608 
G01 X3.6804  Y-0.8710 
G01 X3.6849  Y-0.8818 
G01 X3.6880  Y-0.8931 
G01 X3.6895  Y-0.9048 
G01 X3.6895  Y-0.9165 
G01 X3.6880  Y-0.9281 
G01 X3.6849  Y-0.9395 
G01 X3.6804  Y-0.9503 
G01 X3.6746  Y-0.9605 
G01 X3.6674  Y-0.9698 
G01 X3.6591  Y-0.9781 
G01 X3.6498  Y-0.9852 
G01 X3.6397  Y-0.9911 
G01 X3.6288  Y-0.9956 
G01 X3.6175  Y-0.9986 
G01 X3.6059  Y-1.0001 
G01 X3.5941  Y-1.0001 
G01 X3.5825  Y-0.9986 
G01 X3.5712  Y-0.9956 
G01 X3.5603  Y-0.9911 
G01 X3.5502  Y-0.9852 
G01 X3.5409  Y-0.9781 
G01 X3.5326  Y-0.9698 
G00 Z0.1000  
G00 X3.5326  Y-1.0877 
G01 Z-0.0070 F10    
G01 X3.5409  Y-1.0794 F20    
G01 X3.5502  Y-1.0723 
G01 X3.5603  Y-1.0664 
G01 X3.5712  Y-1.0619 
G01 X3.5825  Y-1.0589 
G01 X3.5941  Y-1.0574 
G01 X3.6059  Y-1.0574 
G01 X3.6175  Y-1.0589 
G01 X3.6288  Y-1.0619 
G01 X3.6397  Y-1.0664 
G01 X3.6498  Y-1.0723 
G01 X3.6591  Y-1.0794 
G01 X3.6674  Y-1.0877 
G01 X3.6746  Y-1.0970 
G01 X3.6804  Y-1.1072 
G01 X3.6849  Y-1.1180 
G01 X3.6880  Y-1.1294 
G01 X3.6895  Y-1.1410 
G01 X3.6895  Y-1.1527 
G01 X3.6880  Y-1.1643 
G01 X3.6849  Y-1.1757 
G01 X3.6804  Y-1.1865 
G01 X3.6746  Y-1.1967 
G01 X3.6674  Y-1.2060 
G01 X3.6591  Y-1.2143 
G01 X3.6498  Y-1.2214 
G01 X3.6397  Y-1.2273 
G01 X3.6288  Y-1.2318 
G01 X3.6175  Y-1.2348 
G01 X3.6059  Y-1.2364 
G01 X3.5941  Y-1.2364 
G01 X3.5825  Y-1.2348 
G01 X3.5712  Y-1.2318 
G01 X3.5603  Y-1.2273 
G01 X3.5502  Y-1.2214 
G01 X3.5409  Y-1.2143 
G01 X3.5326  Y-1.2060 
G01 X3.5254  Y-1.1967 
G01 X3.5196  Y-1.1865 
G01 X3.5151  Y-1.1757 
G01 X3.5120  Y-1.1643 
G01 X3.5105  Y-1.1527 
G01 X3.5105  Y-1.1410 
G01 X3.5120  Y-1.1294 
G01 X3.5151  Y-1.1180 
G01 X3.5196  Y-1.1072 
G01 X3.5254  Y-1.0970 
G01 X3.5326  Y-1.0877 
G00 Z0.1000  
G00 X3.9730  Y-0.1317 
G01 Z-0.0070 F10    
G01 X3.9683  Y-0.1270 F20    
G01 X3.9645  Y-0.1218 
G01 X3.9615  Y-0.1159 
G01 X3.9595  Y-0.1097 
G01 X3.9585  Y-0.1033 
G01 X3.9585  Y-0.0967 
G01 X3.9595  Y-0.0903 
G01 X3.9615  Y-0.0841 
G01 X3.9645  Y-0.0782 
G01 X3.9683  Y-0.0730 
G01 X3.9730  Y-0.0683 
G01 X3.9782  Y-0.0645 
G01 X3.9841  Y-0.0615 
G01 X3.9903  Y-0.0595 
G01 X3.9967  Y-0.0585 
G01 X4.0033  Y-0.0585 
G01 X4.0097  Y-0.0595 
G01 X4.0159  Y-0.0615 
G01 X4.0218  Y-0.0645 
G01 X4.0270  Y-0.0683 
G01 X4.0317  Y-0.0730 
G01 X4.0355  Y-0.0782 
G01 X4.0385  Y-0.0841 
G01 X4.0405  Y-0.0903 
G01 X4.0415  Y-0.0967 
G01 X4.0415  Y-0.1033 
G01 X4.0405  Y-0.1097 
G01 X4.0385  Y-0.1159 
G01 X4.0355  Y-0.1218 
G01 X4.0317  Y-0.1270 
G01 X4.0270  Y-0.1317 
G01 X4.0218  Y-0.1355 
G01 X4.0159  Y-0.1385 
G01 X4.0097  Y-0.1405 
G01 X4.0033  Y-0.1415 
G01 X3.9967  Y-0.1415 
G01 X3.9903  Y-0.1405 
G01 X3.9841  Y-0.1385 
G01 X3.9782  Y-0.1355 
G01 X3.9730  Y-0.1317 
G00 Z0.1000  
G00 X4.2730  Y-0.1317 
G01 Z-0.0070 F10    
G01 X4.2683  Y-0.1270 F20    
G01 X4.2645  Y-0.1218 
G01 X4.2615  Y-0.1159 
G01 X4.2595  Y-0.1097 
G01 X4.2585  Y-0.1033 
G01 X4.2585  Y-0.0967 
G01 X4.2595  Y-0.0903 
G01 X4.2615  Y-0.0841 
G01 X4.2645  Y-0.0782 
G01 X4.2683  Y-0.0730 
G01 X4.2730  Y-0.0683 
G01 X4.2782  Y-0.0645 
G01 X4.2841  Y-0.0615 
G01 X4.2903  Y-0.0595 
G01 X4.2967  Y-0.0585 
G01 X4.3033  Y-0.0585 
G01 X4.3097  Y-0.0595 
G01 X4.3159  Y-0.0615 
G01 X4.3218  Y-0.0645 
G01 X4.3270  Y-0.0683 
G01 X4.3317  Y-0.0730 
G01 X4.3355  Y-0.0782 
G01 X4.3385  Y-0.0841 
G01 X4.3405  Y-0.0903 
G01 X4.3415  Y-0.0967 
G01 X4.3415  Y-0.1033 
G01 X4.3405  Y-0.1097 
G01 X4.3385  Y-0.1159 
G01 X4.3355  Y-0.1218 
G01 X4.3317  Y-0.1270 
G01 X4.3270  Y-0.1317 
G01 X4.3218  Y-0.1355 
G01 X4.3159  Y-0.1385 
G01 X4.3097  Y-0.1405 
G01 X4.3033  Y-0.1415 
G01 X4.2967  Y-0.1415 
G01 X4.2903  Y-0.1405 
G01 X4.2841  Y-0.1385 
G01 X4.2782  Y-0.1355 
G01 X4.2730  Y-0.1317 
G00 Z0.1000  
G00 X4.4230  Y-0.1317 
G01 Z-0.0070 F10    
G01 X4.4183  Y-0.1270 F20    
G01 X4.4145  Y-0.1218 
G01 X4.4115  Y-0.1159 
G01 X4.4095  Y-0.1097 
G01 X4.4085  Y-0.1033 
G01 X4.4085  Y-0.0967 
G01 X4.4095  Y-0.0903 
G01 X4.4115  Y-0.0841 
G01 X4.4145  Y-0.0782 
G01 X4.4183  Y-0.0730 
G01 X4.4230  Y-0.0683 
G01 X4.4282  Y-0.0645 
G01 X4.4341  Y-0.0615 
G01 X4.4403  Y-0.0595 
G01 X4.4467  Y-0.0585 
G01 X4.4533  Y-0.0585 
G01 X4.4597  Y-0.0595 
G01 X4.4659  Y-0.0615 
G01 X4.4718  Y-0.0645 
G01 X4.4770  Y-0.0683 
G01 X4.4817  Y-0.0730 
G01 X4.4855  Y-0.0782 
G01 X4.4885  Y-0.0841 
G01 X4.4905  Y-0.0903 
G01 X4.4915  Y-0.0967 
G01 X4.4915  Y-0.1033 
G01 X4.4905  Y-0.1097 
G01 X4.4885  Y-0.1159 
G01 X4.4855  Y-0.1218 
G01 X4.4817  Y-0.1270 
G01 X4.4770  Y-0.1317 
G01 X4.4718  Y-0.1355 
G01 X4.4659  Y-0.1385 
G01 X4.4597  Y-0.1405 
G01 X4.4533  Y-0.1415 
G01 X4.4467  Y-0.1415 
G01 X4.4403  Y-0.1405 
G01 X4.4341  Y-0.1385 
G01 X4.4282  Y-0.1355 
G01 X4.4230  Y-0.1317 
G00 Z0.1000  
G00 X4.5230  Y-0.1317 
G01 Z-0.0070 F10    
G01 X4.5183  Y-0.1270 F20    
G01 X4.5145  Y-0.1218 
G01 X4.5115  Y-0.1159 
G01 X4.5095  Y-0.1097 
G01 X4.5085  Y-0.1033 
G01 X4.5085  Y-0.0967 
G01 X4.5095  Y-0.0903 
G01 X4.5115  Y-0.0841 
G01 X4.5145  Y-0.0782 
G01 X4.5183  Y-0.0730 
G01 X4.5230  Y-0.0683 
G01 X4.5282  Y-0.0645 
G01 X4.5341  Y-0.0615 
G01 X4.5403  Y-0.0595 
G01 X4.5467  Y-0.0585 
G01 X4.5533  Y-0.0585 
G01 X4.5597  Y-0.0595 
G01 X4.5659  Y-0.0615 
G01 X4.5718  Y-0.0645 
G01 X4.5770  Y-0.0683 
G01 X4.5817  Y-0.0730 
G01 X4.5855  Y-0.0782 
G01 X4.5885  Y-0.0841 
G01 X4.5905  Y-0.0903 
G01 X4.5915  Y-0.0967 
G01 X4.5915  Y-0.1033 
G01 X4.5905  Y-0.1097 
G01 X4.5885  Y-0.1159 
G01 X4.5855  Y-0.1218 
G01 X4.5817  Y-0.1270 
G01 X4.5770  Y-0.1317 
G01 X4.5718  Y-0.1355 
G01 X4.5659  Y-0.1385 
G01 X4.5597  Y-0.1405 
G01 X4.5533  Y-0.1415 
G01 X4.5467  Y-0.1415 
G01 X4.5403  Y-0.1405 
G01 X4.5341  Y-0.1385 
G01 X4.5282  Y-0.1355 
G01 X4.5230  Y-0.1317 
G00 Z0.1000  
G00 X4.9830  Y-0.0717 
G01 Z-0.0070 F10    
G01 X4.9783  Y-0.0670 F20    
G01 X4.9745  Y-0.0618 
G01 X4.9715  Y-0.0559 
G01 X4.9695  Y-0.0497 
G01 X4.9685  Y-0.0433 
G01 X4.9685  Y-0.0367 
G01 X4.9695  Y-0.0303 
