(.../pcb-gcode-3.6.2.4/pcb-gcode.ulp)
(Copyright 2005 - 2012 by John Johnson)
(See readme.txt for licensing terms.)
(This file generated from the board:)
(.../main_board/rev_1/integration_board.brd)
(Current profile is .../pcb-gcode-3.6.2.4/profiles/mach.pp  )
(This file generated 4/18/2015 1:56:37 PM)
(Settings from pcb-machine.h)
(spindle on time = 3.0000)
(spindle speed = 20000.0000)
(tool change at 0.0000  0.0000  25.4000 )
(feed rate xy = F0     )
(feed rate z  = F508   )
(Z Axis Settings)
(  High     Up        Down     Drill)
(12.7000 	2.5400  	-0.1778 	-0.8128 )
(Settings from pcb-defaults.h)
(isolate min = 0.0254)
(isolate max = 0.5080)
(isolate step = 0.1270)
(Generated top outlines, top drill, )
(Unit of measure: mm)
( Tool|       Size       |  Min Sub |  Max Sub |   Count )
( T01 | 0.813mm 0.0320in | 0.0000in | 0.0000in |       0 )
( T02 | 0.900mm 0.0354in | 0.0000in | 0.0000in |       0 )
( T03 | 1.000mm 0.0394in | 0.0000in | 0.0000in |       0 )
( T04 | 1.016mm 0.0400in | 0.0000in | 0.0000in |       0 )
( T05 | 1.118mm 0.0440in | 0.0000in | 0.0000in |       0 )
( T06 | 1.300mm 0.0512in | 0.0000in | 0.0000in |       0 )
( T07 | 2.500mm 0.0984in | 0.0000in | 0.0000in |       0 )
( T08 | 2.997mm 0.1180in | 0.0000in | 0.0000in |       0 )
( T09 | 3.200mm 0.1260in | 0.0000in | 0.0000in |       0 )
( T10 | 3.302mm 0.1300in | 0.0000in | 0.0000in |       0 )
(Metric Mode)
G21
(Absolute Coordinates)
G90
S20000
G00 Z12.7000 
G00 X0.0000  Y0.0000  
M03
G04 P3.000000
M05
G00 Z25.4000 
M06 T01  ; 0.8128  
G01 Z0.0000  F508   
M06 
G00 Z2.5400  
M03
G04 P3.000000
G82 X-113.0300 Y-2.5400 Z-0.8128 F508   R2.5400  P1.000000
G82 X-115.5700 Y-2.5400 
G82 X-127.2540 Y-12.4460 
G82 X-127.2540 Y-14.9860 
G82 X-132.3340 Y-14.9860 
G82 X-132.3340 Y-12.4460 
G82 X-131.8260 Y29.4640 
G82 X-134.3660 Y29.4640 
G82 X-134.3660 Y34.5440 
G82 X-131.8260 Y34.5440 
G82 X-131.8260 Y39.6240 
G82 X-134.3660 Y39.6240 
G82 X-134.3660 Y44.7040 
G82 X-131.8260 Y44.7040 
M05
G00 Z25.4000 
G00 X0.0000  Y0.0000  
M06 T02  ; 0.9000  
G01 Z0.0000  F508   
M06 
G00 Z2.5400  
M03
G04 P3.000000
G82 X-101.6000 Y-2.5400 Z-0.8128 F508   R2.5400  P1.000000
G82 X-109.2200 Y-2.5400 
G82 X-127.2540 Y-1.0160 
G82 X-132.3340 Y-1.0160 
G82 X-132.3340 Y-8.6360 
G82 X-127.2540 Y-8.6360 
G82 X-128.0160 Y29.4640 
G82 X-128.0160 Y34.5440 
G82 X-128.0160 Y39.6240 
G82 X-128.0160 Y44.7040 
G82 X-120.3960 Y44.7040 
G82 X-120.3960 Y39.6240 
G82 X-120.3960 Y34.5440 
G82 X-120.3960 Y29.4640 
M05
G00 Z25.4000 
G00 X0.0000  Y0.0000  
M06 T03  ; 1.0000  
G01 Z0.0000  F508   
M06 
G00 Z2.5400  
M03
G04 P3.000000
G82 X-106.9780 Y62.7380 Z-0.8128 F508   R2.5400  P1.000000
G82 X-112.4780 Y62.7380 
G82 X-125.0120 Y19.5580 
G82 X-130.5120 Y19.5580 
M05
G00 Z25.4000 
G00 X0.0000  Y0.0000  
M06 T04  ; 1.0160  
G01 Z0.0000  F508   
M06 
G00 Z2.5400  
M03
G04 P3.000000
G82 X-11.2240 Y79.3520 Z-0.8128 F508   R2.5400  P1.000000
G82 X-13.9940 Y79.3520 
G82 X-16.7640 Y79.3520 
G82 X-19.5340 Y79.3520 
G82 X-22.3040 Y79.3520 
G82 X-20.9140 Y82.1920 
G82 X-18.1440 Y82.1920 
G82 X-15.3840 Y82.1920 
G82 X-12.6140 Y82.1920 
G82 X-37.5920 Y82.2960 
G82 X-40.1320 Y82.2960 
G82 X-54.6580 Y79.3520 
G82 X-57.4280 Y79.3520 
G82 X-60.1980 Y79.3520 
G82 X-62.9680 Y79.3520 
G82 X-65.7380 Y79.3520 
G82 X-64.3480 Y82.1920 
G82 X-61.5780 Y82.1920 
G82 X-58.8180 Y82.1920 
G82 X-56.0480 Y82.1920 
G82 X-55.8800 Y52.0700 
G82 X-53.3400 Y52.0700 
G82 X-50.8000 Y52.0700 
G82 X-48.2600 Y52.0700 
G82 X-43.1800 Y52.0700 
G82 X-40.6400 Y52.0700 
G82 X-38.1000 Y52.0700 
G82 X-35.5600 Y52.0700 
G82 X-33.0200 Y52.0700 
G82 X-30.4800 Y52.0700 
G82 X-27.9400 Y52.0700 
G82 X-25.4000 Y52.0700 
G82 X-22.8600 Y46.9900 
G82 X-22.8600 Y44.4500 
G82 X-20.3200 Y44.4500 
G82 X-20.3200 Y46.9900 
G82 X-20.3200 Y41.9100 
G82 X-20.3200 Y39.3700 
G82 X-20.3200 Y36.8300 
G82 X-20.3200 Y34.2900 
G82 X-20.3200 Y31.7500 
G82 X-20.3200 Y29.2100 
G82 X-20.3200 Y26.6700 
G82 X-22.8600 Y26.6700 
G82 X-22.8600 Y29.2100 
G82 X-22.8600 Y31.7500 
G82 X-22.8600 Y34.2900 
G82 X-22.8600 Y36.8300 
G82 X-22.8600 Y39.3700 
G82 X-22.8600 Y41.9100 
G82 X-22.8600 Y24.1300 
G82 X-22.8600 Y21.5900 
G82 X-22.8600 Y19.0500 
G82 X-22.8600 Y16.5100 
G82 X-20.3200 Y16.5100 
G82 X-20.3200 Y19.0500 
G82 X-20.3200 Y21.5900 
G82 X-20.3200 Y24.1300 
G82 X-20.3200 Y13.9700 
G82 X-22.8600 Y13.9700 
G82 X-22.8600 Y11.4300 
G82 X-22.8600 Y8.8900  
G82 X-20.3200 Y8.8900  
G82 X-20.3200 Y11.4300 
G82 X-20.3200 Y6.3500  
G82 X-22.8600 Y6.3500  
G82 X-22.8600 Y3.8100  
G82 X-20.3200 Y3.8100  
G82 X-19.3040 Y-2.0320 
G82 X-16.7640 Y-2.0320 
G82 X-14.2240 Y-2.0320 
G82 X-14.2240 Y-4.5720 
G82 X-16.7640 Y-4.5720 
G82 X-19.3040 Y-4.5720 
G82 X-30.4800 Y3.8100  
G82 X-33.0200 Y3.8100  
G82 X-35.5600 Y3.8100  
G82 X-38.1000 Y3.8100  
G82 X-40.6400 Y3.8100  
G82 X-43.1800 Y3.8100  
G82 X-45.7200 Y3.8100  
G82 X-48.2600 Y3.8100  
G82 X-53.3400 Y3.8100  
G82 X-55.8800 Y3.8100  
G82 X-58.4200 Y3.8100  
G82 X-60.9600 Y3.8100  
G82 X-63.5000 Y3.8100  
G82 X-66.0400 Y3.8100  
G82 X-68.5800 Y3.8100  
G82 X-71.1200 Y3.8100  
G82 X-75.1840 Y3.8100  
G82 X-77.7240 Y3.8100  
G82 X-80.2640 Y3.8100  
G82 X-82.8040 Y3.8100  
G82 X-85.3440 Y3.8100  
G82 X-87.8840 Y3.8100  
G82 X-90.4240 Y3.8100  
G82 X-92.9640 Y3.8100  
G82 X-128.7780 Y7.6200  
G82 X-131.3180 Y7.6200  
G82 X-191.2620 Y-7.8740 
G82 X-191.2620 Y-10.4140 
G82 X-191.2620 Y-12.9540 
G82 X-191.2620 Y-15.4940 
G82 X-191.2620 Y-23.8760 
G82 X-191.2620 Y-26.4160 
G82 X-191.2620 Y-28.9560 
G82 X-191.2620 Y-31.4960 
G82 X-83.8200 Y52.0700 
G82 X-81.2800 Y52.0700 
G82 X-78.7400 Y52.0700 
G82 X-76.2000 Y52.0700 
G82 X-73.6600 Y52.0700 
G82 X-71.1200 Y52.0700 
G82 X-66.0400 Y52.0700 
G82 X-63.5000 Y52.0700 
G82 X-60.9600 Y52.0700 
G82 X-58.4200 Y52.0700 
G82 X-91.9480 Y64.2620 
G82 X-91.9480 Y66.8020 
G82 X-91.9480 Y69.3420 
G82 X-91.9480 Y71.8820 
G82 X-94.4880 Y71.8820 
G82 X-94.4880 Y69.3420 
G82 X-94.4880 Y66.8020 
G82 X-94.4880 Y64.2620 
G82 X3.8100  Y45.7200 
G82 X3.8100  Y43.1800 
G82 X3.8100  Y40.6400 
G82 X3.8100  Y38.1000 
G82 X3.8100  Y10.1600 
G82 X3.8100  Y7.6200  
G82 X3.8100  Y5.0800  
G82 X3.8100  Y2.5400  
M05
G00 Z25.4000 
G00 X0.0000  Y0.0000  
M06 T05  ; 1.1176  
G01 Z0.0000  F508   
M06 
G00 Z2.5400  
M03
G04 P3.000000
G82 X-11.4300 Y3.8100  Z-0.8128 F508   R2.5400  P1.000000
G82 X-11.4300 Y6.3500  
G82 X-11.4300 Y8.8900  
G82 X-11.4300 Y11.4300 
G82 X-11.4300 Y13.9700 
G82 X-11.4300 Y16.5100 
G82 X-11.4300 Y19.0500 
G82 X-11.4300 Y21.5900 
G82 X-11.4300 Y24.1300 
G82 X-11.4300 Y26.6700 
G82 X-11.4300 Y29.2100 
G82 X-11.4300 Y31.7500 
G82 X-11.4300 Y34.2900 
G82 X-11.4300 Y36.8300 
G82 X-11.4300 Y39.3700 
G82 X-11.4300 Y41.9100 
G82 X-11.4300 Y44.4500 
G82 X-11.4300 Y46.9900 
G82 X-25.4000 Y58.4200 
G82 X-27.9400 Y58.4200 
G82 X-30.4800 Y58.4200 
G82 X-33.0200 Y58.4200 
G82 X-35.5600 Y58.4200 
G82 X-38.1000 Y58.4200 
G82 X-40.6400 Y58.4200 
G82 X-43.1800 Y58.4200 
G82 X-48.2600 Y58.4200 
G82 X-50.8000 Y58.4200 
G82 X-53.3400 Y58.4200 
G82 X-55.8800 Y58.4200 
G82 X-58.4200 Y58.4200 
G82 X-60.9600 Y58.4200 
G82 X-63.5000 Y58.4200 
G82 X-66.0400 Y58.4200 
G82 X-71.1200 Y58.4200 
G82 X-73.6600 Y58.4200 
G82 X-76.2000 Y58.4200 
G82 X-78.7400 Y58.4200 
G82 X-81.2800 Y58.4200 
G82 X-83.8200 Y58.4200 
G82 X-82.8040 Y-2.5400 
G82 X-85.3440 Y-2.5400 
G82 X-87.8840 Y-2.5400 
G82 X-90.4240 Y-2.5400 
G82 X-92.9640 Y-2.5400 
G82 X-80.2640 Y-2.5400 
G82 X-77.7240 Y-2.5400 
G82 X-75.1840 Y-2.5400 
G82 X-71.1200 Y-2.5400 
G82 X-68.5800 Y-2.5400 
G82 X-66.0400 Y-2.5400 
G82 X-63.5000 Y-2.5400 
G82 X-60.9600 Y-2.5400 
G82 X-58.4200 Y-2.5400 
G82 X-55.8800 Y-2.5400 
G82 X-53.3400 Y-2.5400 
G82 X-48.2600 Y-2.5400 
G82 X-45.7200 Y-2.5400 
G82 X-43.1800 Y-2.5400 
G82 X-40.6400 Y-2.5400 
G82 X-38.1000 Y-2.5400 
G82 X-35.5600 Y-2.5400 
G82 X-33.0200 Y-2.5400 
G82 X-30.4800 Y-2.5400 
M05
G00 Z25.4000 
G00 X0.0000  Y0.0000  
M06 T06  ; 1.3000  
G01 Z0.0000  F508   
M06 
G00 Z2.5400  
M03
G04 P3.000000
G82 X-9.9060 Y-22.7660 Z-0.8128 F508   R2.5400  P1.000000
G82 X-9.9060 Y-27.7660 
G82 X-9.9060 Y-32.7660 
G82 X-28.9560 Y-32.7660 
G82 X-28.9560 Y-27.7660 
G82 X-28.9560 Y-22.7660 
G82 X-48.0060 Y-22.7660 
G82 X-48.0060 Y-27.7660 
G82 X-48.0060 Y-32.7660 
G82 X-67.0560 Y-32.7660 
G82 X-67.0560 Y-27.7660 
G82 X-67.0560 Y-22.7660 
M05
G00 Z25.4000 
G00 X0.0000  Y0.0000  
M06 T07  ; 2.5000  
G01 Z0.0000  F508   
M06 
G00 Z2.5400  
M03
G04 P3.000000
G82 X-109.7280 Y62.7380 Z-0.8128 F508   R2.5400  P1.000000
G82 X-127.7620 Y19.5580 
M05
G00 Z25.4000 
G00 X0.0000  Y0.0000  
M06 T08  ; 2.9972  
G01 Z0.0000  F508   
M06 
G00 Z2.5400  
M03
G04 P3.000000
G82 X-86.7400 Y-26.1300 Z-0.8128 F508   R2.5400  P1.000000
G82 X-91.4400 Y-23.1300 
G82 X-91.4400 Y-29.1300 
G82 X-111.2520 Y80.0260 
G82 X-115.9520 Y83.0260 
G82 X-111.2520 Y86.0260 
M05
G00 Z25.4000 
G00 X0.0000  Y0.0000  
M06 T09  ; 3.2000  
G01 Z0.0000  F508   
M06 
G00 Z2.5400  
M03
G04 P3.000000
G82 X-20.3200 Y52.0700 Z-0.8128 F508   R2.5400  P1.000000
G82 X-50.8000 Y46.9900 
G82 X-50.8000 Y19.0500 
G82 X-26.6700 Y3.8100  
G82 X-101.6000 Y3.8100  
G82 X-102.8700 Y52.0700 
M05
G00 Z25.4000 
G00 X0.0000  Y0.0000  
M06 T10  ; 3.3020  
G01 Z0.0000  F508   
M06 
G00 Z2.5400  
M03
G04 P3.000000
G82 X-4.2640 Y80.7720 Z-0.8128 F508   R2.5400  P1.000000
G82 X-29.2640 Y80.7720 
G82 X-47.6980 Y80.7720 
G82 X-72.6980 Y80.7720 
T01 
G00 Z12.7000 
M05
M02
